<?xml version="1.0" encoding="UTF-8"?>
<map version="1.10" tiledversion="1.10.1" orientation="orthogonal" renderorder="right-down" width="50" height="50" tilewidth="16" tileheight="16" infinite="0" nextlayerid="96" nextobjectid="451"  maxBaseLayer="2">
 <tileset firstgid="1" source="../media/DungeonTileset.tsx"/>
 <group id="52" name="render">
  <layer id="51" name="floor" width="50" height="50">
   <data>
    <tile gid="1"/>
    <tile gid="1"/>
    <tile gid="1"/>
    <tile gid="1"/>
    <tile gid="1"/>
    <tile gid="1"/>
    <tile gid="1"/>
    <tile gid="1"/>
    <tile gid="1"/>
    <tile gid="1"/>
    <tile gid="1"/>
    <tile gid="1"/>
    <tile gid="1"/>
    <tile gid="1"/>
    <tile gid="1"/>
    <tile gid="1"/>
    <tile gid="1"/>
    <tile gid="1"/>
    <tile gid="1"/>
    <tile gid="1"/>
    <tile gid="1"/>
    <tile gid="1"/>
    <tile gid="1"/>
    <tile gid="1"/>
    <tile gid="1"/>
    <tile gid="1"/>
    <tile gid="1"/>
    <tile gid="1"/>
    <tile gid="1"/>
    <tile gid="1"/>
    <tile gid="1"/>
    <tile gid="1"/>
    <tile gid="1"/>
    <tile gid="1"/>
    <tile gid="1"/>
    <tile gid="1"/>
    <tile gid="1"/>
    <tile gid="1"/>
    <tile gid="1"/>
    <tile gid="1"/>
    <tile gid="1"/>
    <tile gid="1"/>
    <tile gid="1"/>
    <tile gid="1"/>
    <tile gid="1"/>
    <tile gid="1"/>
    <tile gid="1"/>
    <tile gid="1"/>
    <tile gid="1"/>
    <tile gid="1"/>
    <tile gid="1"/>
    <tile gid="1"/>
    <tile gid="1"/>
    <tile gid="1"/>
    <tile gid="1"/>
    <tile gid="1"/>
    <tile gid="1"/>
    <tile gid="1"/>
    <tile gid="1"/>
    <tile gid="1"/>
    <tile gid="1"/>
    <tile gid="1"/>
    <tile gid="1"/>
    <tile gid="1"/>
    <tile gid="1"/>
    <tile gid="1"/>
    <tile gid="1"/>
    <tile gid="1"/>
    <tile gid="1"/>
    <tile gid="1"/>
    <tile gid="1"/>
    <tile gid="1"/>
    <tile gid="1"/>
    <tile gid="1"/>
    <tile gid="1"/>
    <tile gid="1"/>
    <tile gid="1"/>
    <tile gid="1"/>
    <tile gid="1"/>
    <tile gid="1"/>
    <tile gid="1"/>
    <tile gid="1"/>
    <tile gid="1"/>
    <tile gid="1"/>
    <tile gid="1"/>
    <tile gid="1"/>
    <tile gid="1"/>
    <tile gid="1"/>
    <tile gid="1"/>
    <tile gid="1"/>
    <tile gid="1"/>
    <tile gid="1"/>
    <tile gid="1"/>
    <tile gid="1"/>
    <tile gid="1"/>
    <tile gid="1"/>
    <tile gid="1"/>
    <tile gid="1"/>
    <tile gid="1"/>
    <tile gid="1"/>
    <tile gid="1"/>
    <tile gid="130"/>
    <tile gid="130"/>
    <tile gid="130"/>
    <tile gid="130"/>
    <tile gid="130"/>
    <tile gid="130"/>
    <tile gid="130"/>
    <tile gid="130"/>
    <tile gid="130"/>
    <tile gid="1"/>
    <tile gid="1"/>
    <tile gid="1"/>
    <tile gid="1"/>
    <tile gid="1"/>
    <tile gid="1"/>
    <tile gid="1"/>
    <tile gid="1"/>
    <tile gid="1"/>
    <tile gid="1"/>
    <tile gid="1"/>
    <tile gid="1"/>
    <tile gid="1"/>
    <tile gid="1"/>
    <tile gid="1"/>
    <tile gid="1"/>
    <tile gid="1"/>
    <tile gid="1"/>
    <tile gid="1"/>
    <tile gid="1"/>
    <tile gid="1"/>
    <tile gid="1"/>
    <tile gid="1"/>
    <tile gid="1"/>
    <tile gid="1"/>
    <tile gid="1"/>
    <tile gid="1"/>
    <tile gid="1"/>
    <tile gid="1"/>
    <tile gid="1"/>
    <tile gid="130"/>
    <tile gid="130"/>
    <tile gid="130"/>
    <tile gid="130"/>
    <tile gid="130"/>
    <tile gid="130"/>
    <tile gid="130"/>
    <tile gid="130"/>
    <tile gid="130"/>
    <tile gid="1"/>
    <tile gid="1"/>
    <tile gid="130"/>
    <tile gid="130"/>
    <tile gid="130"/>
    <tile gid="130"/>
    <tile gid="131"/>
    <tile gid="130"/>
    <tile gid="130"/>
    <tile gid="130"/>
    <tile gid="130"/>
    <tile gid="1"/>
    <tile gid="1"/>
    <tile gid="1"/>
    <tile gid="1"/>
    <tile gid="1"/>
    <tile gid="1"/>
    <tile gid="1"/>
    <tile gid="1"/>
    <tile gid="1"/>
    <tile gid="1"/>
    <tile gid="1"/>
    <tile gid="1"/>
    <tile gid="1"/>
    <tile gid="1"/>
    <tile gid="1"/>
    <tile gid="1"/>
    <tile gid="1"/>
    <tile gid="1"/>
    <tile gid="1"/>
    <tile gid="1"/>
    <tile gid="1"/>
    <tile gid="1"/>
    <tile gid="1"/>
    <tile gid="1"/>
    <tile gid="1"/>
    <tile gid="1"/>
    <tile gid="1"/>
    <tile gid="1"/>
    <tile gid="1"/>
    <tile gid="1"/>
    <tile gid="130"/>
    <tile gid="130"/>
    <tile gid="130"/>
    <tile gid="130"/>
    <tile gid="130"/>
    <tile gid="130"/>
    <tile gid="130"/>
    <tile gid="130"/>
    <tile gid="130"/>
    <tile gid="1"/>
    <tile gid="1"/>
    <tile gid="130"/>
    <tile gid="130"/>
    <tile gid="130"/>
    <tile gid="131"/>
    <tile gid="131"/>
    <tile gid="130"/>
    <tile gid="130"/>
    <tile gid="130"/>
    <tile gid="130"/>
    <tile gid="1"/>
    <tile gid="1"/>
    <tile gid="1"/>
    <tile gid="1"/>
    <tile gid="1"/>
    <tile gid="1"/>
    <tile gid="1"/>
    <tile gid="1"/>
    <tile gid="1"/>
    <tile gid="1"/>
    <tile gid="1"/>
    <tile gid="1"/>
    <tile gid="1"/>
    <tile gid="1"/>
    <tile gid="1"/>
    <tile gid="1"/>
    <tile gid="1"/>
    <tile gid="1"/>
    <tile gid="1"/>
    <tile gid="1"/>
    <tile gid="1"/>
    <tile gid="1"/>
    <tile gid="1"/>
    <tile gid="1"/>
    <tile gid="1"/>
    <tile gid="1"/>
    <tile gid="1"/>
    <tile gid="1"/>
    <tile gid="1"/>
    <tile gid="1"/>
    <tile gid="130"/>
    <tile gid="130"/>
    <tile gid="130"/>
    <tile gid="130"/>
    <tile gid="130"/>
    <tile gid="130"/>
    <tile gid="131"/>
    <tile gid="130"/>
    <tile gid="130"/>
    <tile gid="1"/>
    <tile gid="1"/>
    <tile gid="130"/>
    <tile gid="130"/>
    <tile gid="130"/>
    <tile gid="130"/>
    <tile gid="130"/>
    <tile gid="130"/>
    <tile gid="130"/>
    <tile gid="130"/>
    <tile gid="130"/>
    <tile gid="130"/>
    <tile gid="130"/>
    <tile gid="130"/>
    <tile gid="130"/>
    <tile gid="130"/>
    <tile gid="231"/>
    <tile gid="130"/>
    <tile gid="130"/>
    <tile gid="130"/>
    <tile gid="130"/>
    <tile gid="130"/>
    <tile gid="130"/>
    <tile gid="130"/>
    <tile gid="130"/>
    <tile gid="130"/>
    <tile gid="130"/>
    <tile gid="130"/>
    <tile gid="131"/>
    <tile gid="130"/>
    <tile gid="130"/>
    <tile gid="194"/>
    <tile gid="195"/>
    <tile gid="130"/>
    <tile gid="130"/>
    <tile gid="130"/>
    <tile gid="130"/>
    <tile gid="231"/>
    <tile gid="130"/>
    <tile gid="130"/>
    <tile gid="130"/>
    <tile gid="130"/>
    <tile gid="130"/>
    <tile gid="131"/>
    <tile gid="130"/>
    <tile gid="130"/>
    <tile gid="130"/>
    <tile gid="130"/>
    <tile gid="130"/>
    <tile gid="130"/>
    <tile gid="1"/>
    <tile gid="1"/>
    <tile gid="130"/>
    <tile gid="130"/>
    <tile gid="130"/>
    <tile gid="131"/>
    <tile gid="130"/>
    <tile gid="130"/>
    <tile gid="130"/>
    <tile gid="130"/>
    <tile gid="130"/>
    <tile gid="130"/>
    <tile gid="131"/>
    <tile gid="130"/>
    <tile gid="130"/>
    <tile gid="130"/>
    <tile gid="130"/>
    <tile gid="131"/>
    <tile gid="130"/>
    <tile gid="130"/>
    <tile gid="130"/>
    <tile gid="130"/>
    <tile gid="130"/>
    <tile gid="131"/>
    <tile gid="130"/>
    <tile gid="130"/>
    <tile gid="130"/>
    <tile gid="130"/>
    <tile gid="131"/>
    <tile gid="130"/>
    <tile gid="130"/>
    <tile gid="131"/>
    <tile gid="130"/>
    <tile gid="130"/>
    <tile gid="131"/>
    <tile gid="130"/>
    <tile gid="130"/>
    <tile gid="130"/>
    <tile gid="130"/>
    <tile gid="131"/>
    <tile gid="130"/>
    <tile gid="130"/>
    <tile gid="130"/>
    <tile gid="130"/>
    <tile gid="130"/>
    <tile gid="130"/>
    <tile gid="194"/>
    <tile gid="195"/>
    <tile gid="130"/>
    <tile gid="130"/>
    <tile gid="1"/>
    <tile gid="1"/>
    <tile gid="130"/>
    <tile gid="130"/>
    <tile gid="130"/>
    <tile gid="131"/>
    <tile gid="130"/>
    <tile gid="130"/>
    <tile gid="130"/>
    <tile gid="130"/>
    <tile gid="130"/>
    <tile gid="131"/>
    <tile gid="130"/>
    <tile gid="131"/>
    <tile gid="131"/>
    <tile gid="130"/>
    <tile gid="130"/>
    <tile gid="130"/>
    <tile gid="130"/>
    <tile gid="131"/>
    <tile gid="130"/>
    <tile gid="130"/>
    <tile gid="130"/>
    <tile gid="130"/>
    <tile gid="130"/>
    <tile gid="130"/>
    <tile gid="131"/>
    <tile gid="130"/>
    <tile gid="130"/>
    <tile gid="130"/>
    <tile gid="130"/>
    <tile gid="130"/>
    <tile gid="130"/>
    <tile gid="130"/>
    <tile gid="130"/>
    <tile gid="131"/>
    <tile gid="130"/>
    <tile gid="130"/>
    <tile gid="130"/>
    <tile gid="130"/>
    <tile gid="130"/>
    <tile gid="130"/>
    <tile gid="130"/>
    <tile gid="131"/>
    <tile gid="130"/>
    <tile gid="130"/>
    <tile gid="131"/>
    <tile gid="130"/>
    <tile gid="130"/>
    <tile gid="130"/>
    <tile gid="1"/>
    <tile gid="1"/>
    <tile gid="130"/>
    <tile gid="131"/>
    <tile gid="130"/>
    <tile gid="130"/>
    <tile gid="130"/>
    <tile gid="130"/>
    <tile gid="130"/>
    <tile gid="130"/>
    <tile gid="130"/>
    <tile gid="130"/>
    <tile gid="130"/>
    <tile gid="130"/>
    <tile gid="130"/>
    <tile gid="130"/>
    <tile gid="130"/>
    <tile gid="130"/>
    <tile gid="130"/>
    <tile gid="130"/>
    <tile gid="130"/>
    <tile gid="130"/>
    <tile gid="130"/>
    <tile gid="130"/>
    <tile gid="130"/>
    <tile gid="130"/>
    <tile gid="131"/>
    <tile gid="130"/>
    <tile gid="130"/>
    <tile gid="130"/>
    <tile gid="130"/>
    <tile gid="130"/>
    <tile gid="131"/>
    <tile gid="131"/>
    <tile gid="130"/>
    <tile gid="130"/>
    <tile gid="194"/>
    <tile gid="195"/>
    <tile gid="130"/>
    <tile gid="130"/>
    <tile gid="130"/>
    <tile gid="130"/>
    <tile gid="130"/>
    <tile gid="130"/>
    <tile gid="130"/>
    <tile gid="130"/>
    <tile gid="130"/>
    <tile gid="130"/>
    <tile gid="131"/>
    <tile gid="131"/>
    <tile gid="1"/>
    <tile gid="1"/>
    <tile gid="130"/>
    <tile gid="130"/>
    <tile gid="130"/>
    <tile gid="130"/>
    <tile gid="130"/>
    <tile gid="130"/>
    <tile gid="130"/>
    <tile gid="130"/>
    <tile gid="130"/>
    <tile gid="1"/>
    <tile gid="1"/>
    <tile gid="1"/>
    <tile gid="1"/>
    <tile gid="1"/>
    <tile gid="1"/>
    <tile gid="1"/>
    <tile gid="1"/>
    <tile gid="1"/>
    <tile gid="1"/>
    <tile gid="1"/>
    <tile gid="1"/>
    <tile gid="1"/>
    <tile gid="1"/>
    <tile gid="1"/>
    <tile gid="1"/>
    <tile gid="1"/>
    <tile gid="1"/>
    <tile gid="1"/>
    <tile gid="1"/>
    <tile gid="1"/>
    <tile gid="1"/>
    <tile gid="1"/>
    <tile gid="1"/>
    <tile gid="1"/>
    <tile gid="1"/>
    <tile gid="1"/>
    <tile gid="1"/>
    <tile gid="1"/>
    <tile gid="1"/>
    <tile gid="130"/>
    <tile gid="130"/>
    <tile gid="130"/>
    <tile gid="130"/>
    <tile gid="130"/>
    <tile gid="131"/>
    <tile gid="131"/>
    <tile gid="130"/>
    <tile gid="130"/>
    <tile gid="1"/>
    <tile gid="1"/>
    <tile gid="130"/>
    <tile gid="130"/>
    <tile gid="131"/>
    <tile gid="130"/>
    <tile gid="131"/>
    <tile gid="131"/>
    <tile gid="130"/>
    <tile gid="130"/>
    <tile gid="130"/>
    <tile gid="1"/>
    <tile gid="1"/>
    <tile gid="1"/>
    <tile gid="1"/>
    <tile gid="1"/>
    <tile gid="1"/>
    <tile gid="1"/>
    <tile gid="1"/>
    <tile gid="1"/>
    <tile gid="1"/>
    <tile gid="1"/>
    <tile gid="1"/>
    <tile gid="1"/>
    <tile gid="1"/>
    <tile gid="1"/>
    <tile gid="1"/>
    <tile gid="1"/>
    <tile gid="1"/>
    <tile gid="1"/>
    <tile gid="1"/>
    <tile gid="1"/>
    <tile gid="1"/>
    <tile gid="1"/>
    <tile gid="1"/>
    <tile gid="1"/>
    <tile gid="1"/>
    <tile gid="1"/>
    <tile gid="1"/>
    <tile gid="1"/>
    <tile gid="1"/>
    <tile gid="130"/>
    <tile gid="131"/>
    <tile gid="131"/>
    <tile gid="130"/>
    <tile gid="130"/>
    <tile gid="130"/>
    <tile gid="130"/>
    <tile gid="130"/>
    <tile gid="130"/>
    <tile gid="1"/>
    <tile gid="1"/>
    <tile gid="130"/>
    <tile gid="130"/>
    <tile gid="131"/>
    <tile gid="130"/>
    <tile gid="131"/>
    <tile gid="131"/>
    <tile gid="130"/>
    <tile gid="130"/>
    <tile gid="130"/>
    <tile gid="1"/>
    <tile gid="1"/>
    <tile gid="1"/>
    <tile gid="1"/>
    <tile gid="1"/>
    <tile gid="1"/>
    <tile gid="1"/>
    <tile gid="1"/>
    <tile gid="1"/>
    <tile gid="1"/>
    <tile gid="1"/>
    <tile gid="1"/>
    <tile gid="1"/>
    <tile gid="1"/>
    <tile gid="1"/>
    <tile gid="1"/>
    <tile gid="1"/>
    <tile gid="1"/>
    <tile gid="1"/>
    <tile gid="1"/>
    <tile gid="1"/>
    <tile gid="1"/>
    <tile gid="1"/>
    <tile gid="1"/>
    <tile gid="1"/>
    <tile gid="1"/>
    <tile gid="1"/>
    <tile gid="1"/>
    <tile gid="1"/>
    <tile gid="1"/>
    <tile gid="130"/>
    <tile gid="130"/>
    <tile gid="130"/>
    <tile gid="130"/>
    <tile gid="131"/>
    <tile gid="130"/>
    <tile gid="131"/>
    <tile gid="130"/>
    <tile gid="130"/>
    <tile gid="1"/>
    <tile gid="1"/>
    <tile gid="1"/>
    <tile gid="1"/>
    <tile gid="130"/>
    <tile gid="194"/>
    <tile gid="195"/>
    <tile gid="130"/>
    <tile gid="1"/>
    <tile gid="1"/>
    <tile gid="1"/>
    <tile gid="1"/>
    <tile gid="1"/>
    <tile gid="1"/>
    <tile gid="1"/>
    <tile gid="1"/>
    <tile gid="1"/>
    <tile gid="1"/>
    <tile gid="1"/>
    <tile gid="1"/>
    <tile gid="1"/>
    <tile gid="1"/>
    <tile gid="1"/>
    <tile gid="1"/>
    <tile gid="1"/>
    <tile gid="1"/>
    <tile gid="1"/>
    <tile gid="1"/>
    <tile gid="1"/>
    <tile gid="1"/>
    <tile gid="1"/>
    <tile gid="1"/>
    <tile gid="1"/>
    <tile gid="1"/>
    <tile gid="1"/>
    <tile gid="1"/>
    <tile gid="1"/>
    <tile gid="1"/>
    <tile gid="1"/>
    <tile gid="1"/>
    <tile gid="1"/>
    <tile gid="1"/>
    <tile gid="1"/>
    <tile gid="1"/>
    <tile gid="130"/>
    <tile gid="131"/>
    <tile gid="130"/>
    <tile gid="130"/>
    <tile gid="1"/>
    <tile gid="1"/>
    <tile gid="1"/>
    <tile gid="1"/>
    <tile gid="1"/>
    <tile gid="1"/>
    <tile gid="130"/>
    <tile gid="130"/>
    <tile gid="130"/>
    <tile gid="130"/>
    <tile gid="1"/>
    <tile gid="1"/>
    <tile gid="1"/>
    <tile gid="1"/>
    <tile gid="1"/>
    <tile gid="1"/>
    <tile gid="1"/>
    <tile gid="1"/>
    <tile gid="1"/>
    <tile gid="1"/>
    <tile gid="1"/>
    <tile gid="1"/>
    <tile gid="1"/>
    <tile gid="1"/>
    <tile gid="1"/>
    <tile gid="1"/>
    <tile gid="1"/>
    <tile gid="1"/>
    <tile gid="1"/>
    <tile gid="1"/>
    <tile gid="1"/>
    <tile gid="1"/>
    <tile gid="1"/>
    <tile gid="1"/>
    <tile gid="1"/>
    <tile gid="1"/>
    <tile gid="1"/>
    <tile gid="1"/>
    <tile gid="1"/>
    <tile gid="1"/>
    <tile gid="1"/>
    <tile gid="1"/>
    <tile gid="1"/>
    <tile gid="1"/>
    <tile gid="1"/>
    <tile gid="1"/>
    <tile gid="130"/>
    <tile gid="130"/>
    <tile gid="130"/>
    <tile gid="130"/>
    <tile gid="1"/>
    <tile gid="1"/>
    <tile gid="1"/>
    <tile gid="1"/>
    <tile gid="1"/>
    <tile gid="1"/>
    <tile gid="130"/>
    <tile gid="130"/>
    <tile gid="130"/>
    <tile gid="130"/>
    <tile gid="1"/>
    <tile gid="1"/>
    <tile gid="1"/>
    <tile gid="1"/>
    <tile gid="1"/>
    <tile gid="1"/>
    <tile gid="1"/>
    <tile gid="1"/>
    <tile gid="1"/>
    <tile gid="1"/>
    <tile gid="1"/>
    <tile gid="1"/>
    <tile gid="1"/>
    <tile gid="1"/>
    <tile gid="1"/>
    <tile gid="1"/>
    <tile gid="1"/>
    <tile gid="1"/>
    <tile gid="1"/>
    <tile gid="1"/>
    <tile gid="1"/>
    <tile gid="1"/>
    <tile gid="1"/>
    <tile gid="1"/>
    <tile gid="1"/>
    <tile gid="1"/>
    <tile gid="1"/>
    <tile gid="1"/>
    <tile gid="1"/>
    <tile gid="1"/>
    <tile gid="1"/>
    <tile gid="1"/>
    <tile gid="1"/>
    <tile gid="1"/>
    <tile gid="1"/>
    <tile gid="1"/>
    <tile gid="130"/>
    <tile gid="130"/>
    <tile gid="130"/>
    <tile gid="130"/>
    <tile gid="1"/>
    <tile gid="1"/>
    <tile gid="1"/>
    <tile gid="1"/>
    <tile gid="1"/>
    <tile gid="1"/>
    <tile gid="130"/>
    <tile gid="130"/>
    <tile gid="131"/>
    <tile gid="130"/>
    <tile gid="1"/>
    <tile gid="1"/>
    <tile gid="1"/>
    <tile gid="1"/>
    <tile gid="1"/>
    <tile gid="1"/>
    <tile gid="1"/>
    <tile gid="1"/>
    <tile gid="1"/>
    <tile gid="1"/>
    <tile gid="1"/>
    <tile gid="1"/>
    <tile gid="1"/>
    <tile gid="1"/>
    <tile gid="1"/>
    <tile gid="1"/>
    <tile gid="1"/>
    <tile gid="1"/>
    <tile gid="1"/>
    <tile gid="1"/>
    <tile gid="1"/>
    <tile gid="1"/>
    <tile gid="1"/>
    <tile gid="1"/>
    <tile gid="1"/>
    <tile gid="1"/>
    <tile gid="1"/>
    <tile gid="1"/>
    <tile gid="1"/>
    <tile gid="1"/>
    <tile gid="1"/>
    <tile gid="1"/>
    <tile gid="1"/>
    <tile gid="1"/>
    <tile gid="1"/>
    <tile gid="1"/>
    <tile gid="130"/>
    <tile gid="131"/>
    <tile gid="130"/>
    <tile gid="130"/>
    <tile gid="1"/>
    <tile gid="1"/>
    <tile gid="1"/>
    <tile gid="1"/>
    <tile gid="1"/>
    <tile gid="1"/>
    <tile gid="130"/>
    <tile gid="130"/>
    <tile gid="131"/>
    <tile gid="130"/>
    <tile gid="1"/>
    <tile gid="1"/>
    <tile gid="1"/>
    <tile gid="1"/>
    <tile gid="1"/>
    <tile gid="1"/>
    <tile gid="1"/>
    <tile gid="1"/>
    <tile gid="1"/>
    <tile gid="1"/>
    <tile gid="1"/>
    <tile gid="1"/>
    <tile gid="1"/>
    <tile gid="1"/>
    <tile gid="1"/>
    <tile gid="1"/>
    <tile gid="1"/>
    <tile gid="1"/>
    <tile gid="1"/>
    <tile gid="1"/>
    <tile gid="1"/>
    <tile gid="1"/>
    <tile gid="1"/>
    <tile gid="1"/>
    <tile gid="1"/>
    <tile gid="1"/>
    <tile gid="1"/>
    <tile gid="1"/>
    <tile gid="1"/>
    <tile gid="1"/>
    <tile gid="1"/>
    <tile gid="1"/>
    <tile gid="1"/>
    <tile gid="1"/>
    <tile gid="1"/>
    <tile gid="1"/>
    <tile gid="130"/>
    <tile gid="130"/>
    <tile gid="130"/>
    <tile gid="131"/>
    <tile gid="1"/>
    <tile gid="1"/>
    <tile gid="1"/>
    <tile gid="1"/>
    <tile gid="1"/>
    <tile gid="1"/>
    <tile gid="130"/>
    <tile gid="194"/>
    <tile gid="195"/>
    <tile gid="130"/>
    <tile gid="1"/>
    <tile gid="1"/>
    <tile gid="1"/>
    <tile gid="1"/>
    <tile gid="1"/>
    <tile gid="1"/>
    <tile gid="1"/>
    <tile gid="1"/>
    <tile gid="1"/>
    <tile gid="1"/>
    <tile gid="1"/>
    <tile gid="1"/>
    <tile gid="1"/>
    <tile gid="1"/>
    <tile gid="1"/>
    <tile gid="1"/>
    <tile gid="1"/>
    <tile gid="1"/>
    <tile gid="1"/>
    <tile gid="1"/>
    <tile gid="1"/>
    <tile gid="1"/>
    <tile gid="1"/>
    <tile gid="1"/>
    <tile gid="1"/>
    <tile gid="1"/>
    <tile gid="1"/>
    <tile gid="1"/>
    <tile gid="1"/>
    <tile gid="1"/>
    <tile gid="1"/>
    <tile gid="1"/>
    <tile gid="1"/>
    <tile gid="1"/>
    <tile gid="1"/>
    <tile gid="1"/>
    <tile gid="130"/>
    <tile gid="130"/>
    <tile gid="130"/>
    <tile gid="130"/>
    <tile gid="1"/>
    <tile gid="1"/>
    <tile gid="1"/>
    <tile gid="1"/>
    <tile gid="1"/>
    <tile gid="1"/>
    <tile gid="130"/>
    <tile gid="194"/>
    <tile gid="195"/>
    <tile gid="130"/>
    <tile gid="1"/>
    <tile gid="1"/>
    <tile gid="1"/>
    <tile gid="1"/>
    <tile gid="1"/>
    <tile gid="1"/>
    <tile gid="1"/>
    <tile gid="1"/>
    <tile gid="1"/>
    <tile gid="1"/>
    <tile gid="1"/>
    <tile gid="1"/>
    <tile gid="1"/>
    <tile gid="1"/>
    <tile gid="1"/>
    <tile gid="1"/>
    <tile gid="1"/>
    <tile gid="1"/>
    <tile gid="1"/>
    <tile gid="130"/>
    <tile gid="130"/>
    <tile gid="130"/>
    <tile gid="130"/>
    <tile gid="130"/>
    <tile gid="130"/>
    <tile gid="130"/>
    <tile gid="130"/>
    <tile gid="130"/>
    <tile gid="130"/>
    <tile gid="130"/>
    <tile gid="130"/>
    <tile gid="130"/>
    <tile gid="130"/>
    <tile gid="1"/>
    <tile gid="1"/>
    <tile gid="1"/>
    <tile gid="130"/>
    <tile gid="131"/>
    <tile gid="130"/>
    <tile gid="130"/>
    <tile gid="1"/>
    <tile gid="1"/>
    <tile gid="1"/>
    <tile gid="1"/>
    <tile gid="1"/>
    <tile gid="1"/>
    <tile gid="130"/>
    <tile gid="130"/>
    <tile gid="130"/>
    <tile gid="130"/>
    <tile gid="1"/>
    <tile gid="1"/>
    <tile gid="1"/>
    <tile gid="1"/>
    <tile gid="1"/>
    <tile gid="1"/>
    <tile gid="1"/>
    <tile gid="1"/>
    <tile gid="1"/>
    <tile gid="1"/>
    <tile gid="1"/>
    <tile gid="1"/>
    <tile gid="1"/>
    <tile gid="1"/>
    <tile gid="1"/>
    <tile gid="1"/>
    <tile gid="1"/>
    <tile gid="1"/>
    <tile gid="1"/>
    <tile gid="130"/>
    <tile gid="194"/>
    <tile gid="195"/>
    <tile gid="130"/>
    <tile gid="130"/>
    <tile gid="194"/>
    <tile gid="195"/>
    <tile gid="130"/>
    <tile gid="194"/>
    <tile gid="195"/>
    <tile gid="130"/>
    <tile gid="194"/>
    <tile gid="195"/>
    <tile gid="130"/>
    <tile gid="1"/>
    <tile gid="1"/>
    <tile gid="1"/>
    <tile gid="130"/>
    <tile gid="194"/>
    <tile gid="195"/>
    <tile gid="130"/>
    <tile gid="1"/>
    <tile gid="1"/>
    <tile gid="1"/>
    <tile gid="1"/>
    <tile gid="130"/>
    <tile gid="130"/>
    <tile gid="130"/>
    <tile gid="131"/>
    <tile gid="130"/>
    <tile gid="130"/>
    <tile gid="130"/>
    <tile gid="130"/>
    <tile gid="130"/>
    <tile gid="1"/>
    <tile gid="1"/>
    <tile gid="1"/>
    <tile gid="1"/>
    <tile gid="1"/>
    <tile gid="1"/>
    <tile gid="1"/>
    <tile gid="1"/>
    <tile gid="1"/>
    <tile gid="1"/>
    <tile gid="1"/>
    <tile gid="1"/>
    <tile gid="1"/>
    <tile gid="1"/>
    <tile gid="1"/>
    <tile gid="1"/>
    <tile gid="130"/>
    <tile gid="130"/>
    <tile gid="130"/>
    <tile gid="130"/>
    <tile gid="130"/>
    <tile gid="162"/>
    <tile gid="131"/>
    <tile gid="130"/>
    <tile gid="130"/>
    <tile gid="130"/>
    <tile gid="130"/>
    <tile gid="130"/>
    <tile gid="130"/>
    <tile gid="130"/>
    <tile gid="1"/>
    <tile gid="1"/>
    <tile gid="1"/>
    <tile gid="130"/>
    <tile gid="130"/>
    <tile gid="130"/>
    <tile gid="130"/>
    <tile gid="1"/>
    <tile gid="1"/>
    <tile gid="1"/>
    <tile gid="1"/>
    <tile gid="130"/>
    <tile gid="194"/>
    <tile gid="195"/>
    <tile gid="130"/>
    <tile gid="131"/>
    <tile gid="162"/>
    <tile gid="130"/>
    <tile gid="130"/>
    <tile gid="130"/>
    <tile gid="1"/>
    <tile gid="1"/>
    <tile gid="1"/>
    <tile gid="1"/>
    <tile gid="1"/>
    <tile gid="1"/>
    <tile gid="1"/>
    <tile gid="1"/>
    <tile gid="1"/>
    <tile gid="1"/>
    <tile gid="1"/>
    <tile gid="1"/>
    <tile gid="1"/>
    <tile gid="1"/>
    <tile gid="1"/>
    <tile gid="1"/>
    <tile gid="130"/>
    <tile gid="130"/>
    <tile gid="130"/>
    <tile gid="130"/>
    <tile gid="130"/>
    <tile gid="130"/>
    <tile gid="130"/>
    <tile gid="130"/>
    <tile gid="130"/>
    <tile gid="130"/>
    <tile gid="131"/>
    <tile gid="130"/>
    <tile gid="130"/>
    <tile gid="130"/>
    <tile gid="1"/>
    <tile gid="1"/>
    <tile gid="1"/>
    <tile gid="130"/>
    <tile gid="130"/>
    <tile gid="131"/>
    <tile gid="130"/>
    <tile gid="1"/>
    <tile gid="1"/>
    <tile gid="1"/>
    <tile gid="1"/>
    <tile gid="130"/>
    <tile gid="130"/>
    <tile gid="130"/>
    <tile gid="130"/>
    <tile gid="130"/>
    <tile gid="130"/>
    <tile gid="131"/>
    <tile gid="130"/>
    <tile gid="130"/>
    <tile gid="1"/>
    <tile gid="1"/>
    <tile gid="1"/>
    <tile gid="1"/>
    <tile gid="1"/>
    <tile gid="1"/>
    <tile gid="1"/>
    <tile gid="1"/>
    <tile gid="1"/>
    <tile gid="1"/>
    <tile gid="1"/>
    <tile gid="1"/>
    <tile gid="1"/>
    <tile gid="1"/>
    <tile gid="1"/>
    <tile gid="1"/>
    <tile gid="130"/>
    <tile gid="130"/>
    <tile gid="131"/>
    <tile gid="130"/>
    <tile gid="194"/>
    <tile gid="195"/>
    <tile gid="130"/>
    <tile gid="130"/>
    <tile gid="131"/>
    <tile gid="130"/>
    <tile gid="130"/>
    <tile gid="194"/>
    <tile gid="195"/>
    <tile gid="130"/>
    <tile gid="1"/>
    <tile gid="1"/>
    <tile gid="1"/>
    <tile gid="130"/>
    <tile gid="130"/>
    <tile gid="130"/>
    <tile gid="130"/>
    <tile gid="1"/>
    <tile gid="1"/>
    <tile gid="1"/>
    <tile gid="1"/>
    <tile gid="130"/>
    <tile gid="130"/>
    <tile gid="131"/>
    <tile gid="130"/>
    <tile gid="130"/>
    <tile gid="130"/>
    <tile gid="130"/>
    <tile gid="130"/>
    <tile gid="130"/>
    <tile gid="130"/>
    <tile gid="130"/>
    <tile gid="130"/>
    <tile gid="130"/>
    <tile gid="231"/>
    <tile gid="130"/>
    <tile gid="130"/>
    <tile gid="130"/>
    <tile gid="231"/>
    <tile gid="130"/>
    <tile gid="130"/>
    <tile gid="130"/>
    <tile gid="231"/>
    <tile gid="130"/>
    <tile gid="130"/>
    <tile gid="130"/>
    <tile gid="130"/>
    <tile gid="130"/>
    <tile gid="130"/>
    <tile gid="131"/>
    <tile gid="130"/>
    <tile gid="130"/>
    <tile gid="130"/>
    <tile gid="131"/>
    <tile gid="131"/>
    <tile gid="130"/>
    <tile gid="130"/>
    <tile gid="130"/>
    <tile gid="130"/>
    <tile gid="130"/>
    <tile gid="1"/>
    <tile gid="1"/>
    <tile gid="1"/>
    <tile gid="130"/>
    <tile gid="130"/>
    <tile gid="130"/>
    <tile gid="130"/>
    <tile gid="1"/>
    <tile gid="1"/>
    <tile gid="1"/>
    <tile gid="1"/>
    <tile gid="130"/>
    <tile gid="130"/>
    <tile gid="130"/>
    <tile gid="130"/>
    <tile gid="130"/>
    <tile gid="130"/>
    <tile gid="194"/>
    <tile gid="195"/>
    <tile gid="130"/>
    <tile gid="130"/>
    <tile gid="130"/>
    <tile gid="130"/>
    <tile gid="130"/>
    <tile gid="130"/>
    <tile gid="130"/>
    <tile gid="130"/>
    <tile gid="162"/>
    <tile gid="130"/>
    <tile gid="130"/>
    <tile gid="130"/>
    <tile gid="130"/>
    <tile gid="130"/>
    <tile gid="130"/>
    <tile gid="194"/>
    <tile gid="195"/>
    <tile gid="130"/>
    <tile gid="130"/>
    <tile gid="162"/>
    <tile gid="130"/>
    <tile gid="130"/>
    <tile gid="130"/>
    <tile gid="130"/>
    <tile gid="162"/>
    <tile gid="130"/>
    <tile gid="130"/>
    <tile gid="130"/>
    <tile gid="162"/>
    <tile gid="130"/>
    <tile gid="130"/>
    <tile gid="1"/>
    <tile gid="1"/>
    <tile gid="1"/>
    <tile gid="130"/>
    <tile gid="131"/>
    <tile gid="130"/>
    <tile gid="130"/>
    <tile gid="1"/>
    <tile gid="1"/>
    <tile gid="1"/>
    <tile gid="1"/>
    <tile gid="130"/>
    <tile gid="131"/>
    <tile gid="130"/>
    <tile gid="130"/>
    <tile gid="162"/>
    <tile gid="130"/>
    <tile gid="194"/>
    <tile gid="195"/>
    <tile gid="130"/>
    <tile gid="130"/>
    <tile gid="130"/>
    <tile gid="130"/>
    <tile gid="162"/>
    <tile gid="130"/>
    <tile gid="130"/>
    <tile gid="162"/>
    <tile gid="130"/>
    <tile gid="162"/>
    <tile gid="130"/>
    <tile gid="130"/>
    <tile gid="162"/>
    <tile gid="130"/>
    <tile gid="130"/>
    <tile gid="194"/>
    <tile gid="195"/>
    <tile gid="130"/>
    <tile gid="130"/>
    <tile gid="130"/>
    <tile gid="130"/>
    <tile gid="130"/>
    <tile gid="130"/>
    <tile gid="130"/>
    <tile gid="130"/>
    <tile gid="130"/>
    <tile gid="194"/>
    <tile gid="195"/>
    <tile gid="130"/>
    <tile gid="130"/>
    <tile gid="130"/>
    <tile gid="1"/>
    <tile gid="1"/>
    <tile gid="1"/>
    <tile gid="130"/>
    <tile gid="130"/>
    <tile gid="130"/>
    <tile gid="131"/>
    <tile gid="1"/>
    <tile gid="1"/>
    <tile gid="1"/>
    <tile gid="1"/>
    <tile gid="130"/>
    <tile gid="130"/>
    <tile gid="131"/>
    <tile gid="131"/>
    <tile gid="130"/>
    <tile gid="130"/>
    <tile gid="130"/>
    <tile gid="130"/>
    <tile gid="130"/>
    <tile gid="130"/>
    <tile gid="130"/>
    <tile gid="130"/>
    <tile gid="130"/>
    <tile gid="130"/>
    <tile gid="130"/>
    <tile gid="130"/>
    <tile gid="130"/>
    <tile gid="130"/>
    <tile gid="130"/>
    <tile gid="130"/>
    <tile gid="130"/>
    <tile gid="130"/>
    <tile gid="130"/>
    <tile gid="130"/>
    <tile gid="130"/>
    <tile gid="130"/>
    <tile gid="194"/>
    <tile gid="195"/>
    <tile gid="130"/>
    <tile gid="162"/>
    <tile gid="194"/>
    <tile gid="195"/>
    <tile gid="130"/>
    <tile gid="130"/>
    <tile gid="130"/>
    <tile gid="130"/>
    <tile gid="130"/>
    <tile gid="130"/>
    <tile gid="130"/>
    <tile gid="1"/>
    <tile gid="1"/>
    <tile gid="1"/>
    <tile gid="130"/>
    <tile gid="131"/>
    <tile gid="130"/>
    <tile gid="130"/>
    <tile gid="1"/>
    <tile gid="1"/>
    <tile gid="1"/>
    <tile gid="1"/>
    <tile gid="130"/>
    <tile gid="130"/>
    <tile gid="130"/>
    <tile gid="130"/>
    <tile gid="162"/>
    <tile gid="130"/>
    <tile gid="131"/>
    <tile gid="130"/>
    <tile gid="130"/>
    <tile gid="1"/>
    <tile gid="1"/>
    <tile gid="1"/>
    <tile gid="1"/>
    <tile gid="1"/>
    <tile gid="1"/>
    <tile gid="1"/>
    <tile gid="1"/>
    <tile gid="1"/>
    <tile gid="1"/>
    <tile gid="1"/>
    <tile gid="1"/>
    <tile gid="1"/>
    <tile gid="1"/>
    <tile gid="1"/>
    <tile gid="1"/>
    <tile gid="130"/>
    <tile gid="130"/>
    <tile gid="130"/>
    <tile gid="130"/>
    <tile gid="130"/>
    <tile gid="130"/>
    <tile gid="130"/>
    <tile gid="130"/>
    <tile gid="130"/>
    <tile gid="162"/>
    <tile gid="194"/>
    <tile gid="195"/>
    <tile gid="130"/>
    <tile gid="130"/>
    <tile gid="1"/>
    <tile gid="1"/>
    <tile gid="1"/>
    <tile gid="194"/>
    <tile gid="195"/>
    <tile gid="131"/>
    <tile gid="130"/>
    <tile gid="1"/>
    <tile gid="1"/>
    <tile gid="1"/>
    <tile gid="1"/>
    <tile gid="130"/>
    <tile gid="130"/>
    <tile gid="130"/>
    <tile gid="130"/>
    <tile gid="130"/>
    <tile gid="194"/>
    <tile gid="195"/>
    <tile gid="130"/>
    <tile gid="130"/>
    <tile gid="1"/>
    <tile gid="1"/>
    <tile gid="1"/>
    <tile gid="1"/>
    <tile gid="1"/>
    <tile gid="1"/>
    <tile gid="1"/>
    <tile gid="1"/>
    <tile gid="1"/>
    <tile gid="1"/>
    <tile gid="1"/>
    <tile gid="1"/>
    <tile gid="1"/>
    <tile gid="1"/>
    <tile gid="1"/>
    <tile gid="1"/>
    <tile gid="130"/>
    <tile gid="130"/>
    <tile gid="130"/>
    <tile gid="130"/>
    <tile gid="194"/>
    <tile gid="195"/>
    <tile gid="130"/>
    <tile gid="130"/>
    <tile gid="131"/>
    <tile gid="130"/>
    <tile gid="194"/>
    <tile gid="195"/>
    <tile gid="130"/>
    <tile gid="130"/>
    <tile gid="1"/>
    <tile gid="1"/>
    <tile gid="1"/>
    <tile gid="194"/>
    <tile gid="195"/>
    <tile gid="130"/>
    <tile gid="130"/>
    <tile gid="1"/>
    <tile gid="1"/>
    <tile gid="1"/>
    <tile gid="1"/>
    <tile gid="130"/>
    <tile gid="130"/>
    <tile gid="130"/>
    <tile gid="131"/>
    <tile gid="130"/>
    <tile gid="130"/>
    <tile gid="130"/>
    <tile gid="130"/>
    <tile gid="130"/>
    <tile gid="1"/>
    <tile gid="1"/>
    <tile gid="1"/>
    <tile gid="1"/>
    <tile gid="1"/>
    <tile gid="1"/>
    <tile gid="1"/>
    <tile gid="1"/>
    <tile gid="1"/>
    <tile gid="1"/>
    <tile gid="1"/>
    <tile gid="1"/>
    <tile gid="1"/>
    <tile gid="1"/>
    <tile gid="1"/>
    <tile gid="1"/>
    <tile gid="195"/>
    <tile gid="130"/>
    <tile gid="162"/>
    <tile gid="130"/>
    <tile gid="130"/>
    <tile gid="130"/>
    <tile gid="130"/>
    <tile gid="130"/>
    <tile gid="162"/>
    <tile gid="130"/>
    <tile gid="130"/>
    <tile gid="162"/>
    <tile gid="130"/>
    <tile gid="130"/>
    <tile gid="1"/>
    <tile gid="1"/>
    <tile gid="1"/>
    <tile gid="130"/>
    <tile gid="130"/>
    <tile gid="130"/>
    <tile gid="130"/>
    <tile gid="1"/>
    <tile gid="1"/>
    <tile gid="1"/>
    <tile gid="1"/>
    <tile gid="1"/>
    <tile gid="1"/>
    <tile gid="1"/>
    <tile gid="1"/>
    <tile gid="1"/>
    <tile gid="1"/>
    <tile gid="1"/>
    <tile gid="1"/>
    <tile gid="1"/>
    <tile gid="1"/>
    <tile gid="1"/>
    <tile gid="1"/>
    <tile gid="1"/>
    <tile gid="1"/>
    <tile gid="1"/>
    <tile gid="1"/>
    <tile gid="1"/>
    <tile gid="1"/>
    <tile gid="1"/>
    <tile gid="1"/>
    <tile gid="1"/>
    <tile gid="1"/>
    <tile gid="1"/>
    <tile gid="1"/>
    <tile gid="1"/>
    <tile gid="130"/>
    <tile gid="194"/>
    <tile gid="195"/>
    <tile gid="130"/>
    <tile gid="130"/>
    <tile gid="130"/>
    <tile gid="130"/>
    <tile gid="130"/>
    <tile gid="130"/>
    <tile gid="130"/>
    <tile gid="130"/>
    <tile gid="194"/>
    <tile gid="195"/>
    <tile gid="130"/>
    <tile gid="1"/>
    <tile gid="1"/>
    <tile gid="1"/>
    <tile gid="130"/>
    <tile gid="131"/>
    <tile gid="130"/>
    <tile gid="130"/>
    <tile gid="1"/>
    <tile gid="1"/>
    <tile gid="1"/>
    <tile gid="1"/>
    <tile gid="1"/>
    <tile gid="1"/>
    <tile gid="1"/>
    <tile gid="1"/>
    <tile gid="1"/>
    <tile gid="1"/>
    <tile gid="1"/>
    <tile gid="1"/>
    <tile gid="1"/>
    <tile gid="1"/>
    <tile gid="1"/>
    <tile gid="1"/>
    <tile gid="1"/>
    <tile gid="1"/>
    <tile gid="1"/>
    <tile gid="1"/>
    <tile gid="1"/>
    <tile gid="1"/>
    <tile gid="1"/>
    <tile gid="1"/>
    <tile gid="1"/>
    <tile gid="1"/>
    <tile gid="1"/>
    <tile gid="1"/>
    <tile gid="1"/>
    <tile gid="130"/>
    <tile gid="130"/>
    <tile gid="130"/>
    <tile gid="130"/>
    <tile gid="130"/>
    <tile gid="194"/>
    <tile gid="195"/>
    <tile gid="130"/>
    <tile gid="130"/>
    <tile gid="130"/>
    <tile gid="130"/>
    <tile gid="130"/>
    <tile gid="130"/>
    <tile gid="130"/>
    <tile gid="1"/>
    <tile gid="1"/>
    <tile gid="1"/>
    <tile gid="130"/>
    <tile gid="130"/>
    <tile gid="130"/>
    <tile gid="130"/>
    <tile gid="1"/>
    <tile gid="1"/>
    <tile gid="1"/>
    <tile gid="1"/>
    <tile gid="1"/>
    <tile gid="1"/>
    <tile gid="1"/>
    <tile gid="1"/>
    <tile gid="1"/>
    <tile gid="1"/>
    <tile gid="1"/>
    <tile gid="1"/>
    <tile gid="1"/>
    <tile gid="1"/>
    <tile gid="1"/>
    <tile gid="1"/>
    <tile gid="1"/>
    <tile gid="1"/>
    <tile gid="1"/>
    <tile gid="1"/>
    <tile gid="1"/>
    <tile gid="1"/>
    <tile gid="1"/>
    <tile gid="1"/>
    <tile gid="1"/>
    <tile gid="1"/>
    <tile gid="1"/>
    <tile gid="1"/>
    <tile gid="1"/>
    <tile gid="1"/>
    <tile gid="1"/>
    <tile gid="1"/>
    <tile gid="1"/>
    <tile gid="1"/>
    <tile gid="1"/>
    <tile gid="1"/>
    <tile gid="1"/>
    <tile gid="1"/>
    <tile gid="1"/>
    <tile gid="1"/>
    <tile gid="1"/>
    <tile gid="1"/>
    <tile gid="1"/>
    <tile gid="1"/>
    <tile gid="1"/>
    <tile gid="1"/>
    <tile gid="130"/>
    <tile gid="130"/>
    <tile gid="131"/>
    <tile gid="130"/>
    <tile gid="1"/>
    <tile gid="1"/>
    <tile gid="1"/>
    <tile gid="1"/>
    <tile gid="1"/>
    <tile gid="1"/>
    <tile gid="1"/>
    <tile gid="1"/>
    <tile gid="1"/>
    <tile gid="1"/>
    <tile gid="1"/>
    <tile gid="1"/>
    <tile gid="1"/>
    <tile gid="1"/>
    <tile gid="1"/>
    <tile gid="1"/>
    <tile gid="1"/>
    <tile gid="1"/>
    <tile gid="1"/>
    <tile gid="1"/>
    <tile gid="1"/>
    <tile gid="1"/>
    <tile gid="1"/>
    <tile gid="1"/>
    <tile gid="1"/>
    <tile gid="1"/>
    <tile gid="1"/>
    <tile gid="1"/>
    <tile gid="1"/>
    <tile gid="1"/>
    <tile gid="1"/>
    <tile gid="1"/>
    <tile gid="1"/>
    <tile gid="1"/>
    <tile gid="1"/>
    <tile gid="1"/>
    <tile gid="1"/>
    <tile gid="1"/>
    <tile gid="1"/>
    <tile gid="1"/>
    <tile gid="1"/>
    <tile gid="1"/>
    <tile gid="1"/>
    <tile gid="1"/>
    <tile gid="1"/>
    <tile gid="1"/>
    <tile gid="130"/>
    <tile gid="130"/>
    <tile gid="131"/>
    <tile gid="130"/>
    <tile gid="1"/>
    <tile gid="1"/>
    <tile gid="1"/>
    <tile gid="1"/>
    <tile gid="1"/>
    <tile gid="1"/>
    <tile gid="1"/>
    <tile gid="1"/>
    <tile gid="1"/>
    <tile gid="1"/>
    <tile gid="1"/>
    <tile gid="1"/>
    <tile gid="1"/>
    <tile gid="1"/>
    <tile gid="1"/>
    <tile gid="1"/>
    <tile gid="1"/>
    <tile gid="1"/>
    <tile gid="1"/>
    <tile gid="1"/>
    <tile gid="1"/>
    <tile gid="1"/>
    <tile gid="1"/>
    <tile gid="1"/>
    <tile gid="1"/>
    <tile gid="1"/>
    <tile gid="1"/>
    <tile gid="1"/>
    <tile gid="1"/>
    <tile gid="1"/>
    <tile gid="1"/>
    <tile gid="1"/>
    <tile gid="1"/>
    <tile gid="1"/>
    <tile gid="1"/>
    <tile gid="1"/>
    <tile gid="1"/>
    <tile gid="1"/>
    <tile gid="1"/>
    <tile gid="1"/>
    <tile gid="1"/>
    <tile gid="1"/>
    <tile gid="1"/>
    <tile gid="1"/>
    <tile gid="1"/>
    <tile gid="1"/>
    <tile gid="130"/>
    <tile gid="130"/>
    <tile gid="130"/>
    <tile gid="131"/>
    <tile gid="1"/>
    <tile gid="1"/>
    <tile gid="1"/>
    <tile gid="1"/>
    <tile gid="1"/>
    <tile gid="1"/>
    <tile gid="1"/>
    <tile gid="1"/>
    <tile gid="1"/>
    <tile gid="1"/>
    <tile gid="1"/>
    <tile gid="1"/>
    <tile gid="1"/>
    <tile gid="1"/>
    <tile gid="1"/>
    <tile gid="1"/>
    <tile gid="1"/>
    <tile gid="1"/>
    <tile gid="1"/>
    <tile gid="1"/>
    <tile gid="1"/>
    <tile gid="1"/>
    <tile gid="1"/>
    <tile gid="1"/>
    <tile gid="1"/>
    <tile gid="1"/>
    <tile gid="1"/>
    <tile gid="1"/>
    <tile gid="1"/>
    <tile gid="1"/>
    <tile gid="1"/>
    <tile gid="1"/>
    <tile gid="1"/>
    <tile gid="1"/>
    <tile gid="1"/>
    <tile gid="1"/>
    <tile gid="1"/>
    <tile gid="1"/>
    <tile gid="1"/>
    <tile gid="1"/>
    <tile gid="1"/>
    <tile gid="1"/>
    <tile gid="1"/>
    <tile gid="1"/>
    <tile gid="1"/>
    <tile gid="1"/>
    <tile gid="130"/>
    <tile gid="194"/>
    <tile gid="195"/>
    <tile gid="130"/>
    <tile gid="1"/>
    <tile gid="1"/>
    <tile gid="1"/>
    <tile gid="1"/>
    <tile gid="1"/>
    <tile gid="1"/>
    <tile gid="1"/>
    <tile gid="1"/>
    <tile gid="1"/>
    <tile gid="1"/>
    <tile gid="1"/>
    <tile gid="1"/>
    <tile gid="1"/>
    <tile gid="1"/>
    <tile gid="1"/>
    <tile gid="1"/>
    <tile gid="1"/>
    <tile gid="1"/>
    <tile gid="1"/>
    <tile gid="1"/>
    <tile gid="1"/>
    <tile gid="1"/>
    <tile gid="1"/>
    <tile gid="1"/>
    <tile gid="1"/>
    <tile gid="1"/>
    <tile gid="1"/>
    <tile gid="1"/>
    <tile gid="1"/>
    <tile gid="1"/>
    <tile gid="1"/>
    <tile gid="1"/>
    <tile gid="1"/>
    <tile gid="1"/>
    <tile gid="1"/>
    <tile gid="1"/>
    <tile gid="1"/>
    <tile gid="1"/>
    <tile gid="1"/>
    <tile gid="1"/>
    <tile gid="1"/>
    <tile gid="1"/>
    <tile gid="1"/>
    <tile gid="1"/>
    <tile gid="1"/>
    <tile gid="1"/>
    <tile gid="130"/>
    <tile gid="130"/>
    <tile gid="130"/>
    <tile gid="130"/>
    <tile gid="1"/>
    <tile gid="1"/>
    <tile gid="1"/>
    <tile gid="1"/>
    <tile gid="1"/>
    <tile gid="1"/>
    <tile gid="1"/>
    <tile gid="1"/>
    <tile gid="1"/>
    <tile gid="1"/>
    <tile gid="1"/>
    <tile gid="1"/>
    <tile gid="1"/>
    <tile gid="1"/>
    <tile gid="1"/>
    <tile gid="1"/>
    <tile gid="1"/>
    <tile gid="1"/>
    <tile gid="1"/>
    <tile gid="1"/>
    <tile gid="1"/>
    <tile gid="1"/>
    <tile gid="1"/>
    <tile gid="1"/>
    <tile gid="1"/>
    <tile gid="1"/>
    <tile gid="1"/>
    <tile gid="1"/>
    <tile gid="1"/>
    <tile gid="1"/>
    <tile gid="1"/>
    <tile gid="1"/>
    <tile gid="1"/>
    <tile gid="1"/>
    <tile gid="1"/>
    <tile gid="1"/>
    <tile gid="1"/>
    <tile gid="1"/>
    <tile gid="1"/>
    <tile gid="1"/>
    <tile gid="1"/>
    <tile gid="1"/>
    <tile gid="1"/>
    <tile gid="1"/>
    <tile gid="1"/>
    <tile gid="1"/>
    <tile gid="130"/>
    <tile gid="130"/>
    <tile gid="130"/>
    <tile gid="130"/>
    <tile gid="1"/>
    <tile gid="1"/>
    <tile gid="1"/>
    <tile gid="1"/>
    <tile gid="1"/>
    <tile gid="1"/>
    <tile gid="1"/>
    <tile gid="1"/>
    <tile gid="1"/>
    <tile gid="1"/>
    <tile gid="1"/>
    <tile gid="1"/>
    <tile gid="1"/>
    <tile gid="1"/>
    <tile gid="1"/>
    <tile gid="1"/>
    <tile gid="1"/>
    <tile gid="1"/>
    <tile gid="1"/>
    <tile gid="1"/>
    <tile gid="1"/>
    <tile gid="1"/>
    <tile gid="1"/>
    <tile gid="1"/>
    <tile gid="1"/>
    <tile gid="1"/>
    <tile gid="1"/>
    <tile gid="1"/>
    <tile gid="1"/>
    <tile gid="1"/>
    <tile gid="1"/>
    <tile gid="1"/>
    <tile gid="1"/>
    <tile gid="1"/>
    <tile gid="1"/>
    <tile gid="1"/>
    <tile gid="1"/>
    <tile gid="1"/>
    <tile gid="1"/>
    <tile gid="1"/>
    <tile gid="1"/>
    <tile gid="1"/>
    <tile gid="1"/>
    <tile gid="1"/>
    <tile gid="1"/>
    <tile gid="1"/>
    <tile gid="130"/>
    <tile gid="194"/>
    <tile gid="195"/>
    <tile gid="130"/>
    <tile gid="1"/>
    <tile gid="1"/>
    <tile gid="1"/>
    <tile gid="1"/>
    <tile gid="130"/>
    <tile gid="130"/>
    <tile gid="130"/>
    <tile gid="130"/>
    <tile gid="130"/>
    <tile gid="130"/>
    <tile gid="130"/>
    <tile gid="130"/>
    <tile gid="130"/>
    <tile gid="1"/>
    <tile gid="1"/>
    <tile gid="1"/>
    <tile gid="1"/>
    <tile gid="1"/>
    <tile gid="1"/>
    <tile gid="1"/>
    <tile gid="1"/>
    <tile gid="1"/>
    <tile gid="1"/>
    <tile gid="1"/>
    <tile gid="1"/>
    <tile gid="1"/>
    <tile gid="1"/>
    <tile gid="1"/>
    <tile gid="1"/>
    <tile gid="1"/>
    <tile gid="1"/>
    <tile gid="1"/>
    <tile gid="1"/>
    <tile gid="1"/>
    <tile gid="1"/>
    <tile gid="1"/>
    <tile gid="1"/>
    <tile gid="1"/>
    <tile gid="1"/>
    <tile gid="1"/>
    <tile gid="1"/>
    <tile gid="1"/>
    <tile gid="1"/>
    <tile gid="130"/>
    <tile gid="130"/>
    <tile gid="130"/>
    <tile gid="130"/>
    <tile gid="194"/>
    <tile gid="195"/>
    <tile gid="130"/>
    <tile gid="130"/>
    <tile gid="130"/>
    <tile gid="1"/>
    <tile gid="1"/>
    <tile gid="130"/>
    <tile gid="130"/>
    <tile gid="194"/>
    <tile gid="195"/>
    <tile gid="131"/>
    <tile gid="130"/>
    <tile gid="130"/>
    <tile gid="130"/>
    <tile gid="130"/>
    <tile gid="1"/>
    <tile gid="1"/>
    <tile gid="1"/>
    <tile gid="1"/>
    <tile gid="1"/>
    <tile gid="1"/>
    <tile gid="1"/>
    <tile gid="1"/>
    <tile gid="1"/>
    <tile gid="1"/>
    <tile gid="1"/>
    <tile gid="1"/>
    <tile gid="1"/>
    <tile gid="1"/>
    <tile gid="1"/>
    <tile gid="1"/>
    <tile gid="1"/>
    <tile gid="1"/>
    <tile gid="1"/>
    <tile gid="1"/>
    <tile gid="1"/>
    <tile gid="1"/>
    <tile gid="1"/>
    <tile gid="1"/>
    <tile gid="1"/>
    <tile gid="1"/>
    <tile gid="1"/>
    <tile gid="1"/>
    <tile gid="1"/>
    <tile gid="1"/>
    <tile gid="130"/>
    <tile gid="130"/>
    <tile gid="130"/>
    <tile gid="194"/>
    <tile gid="195"/>
    <tile gid="130"/>
    <tile gid="130"/>
    <tile gid="130"/>
    <tile gid="130"/>
    <tile gid="1"/>
    <tile gid="1"/>
    <tile gid="130"/>
    <tile gid="130"/>
    <tile gid="130"/>
    <tile gid="131"/>
    <tile gid="130"/>
    <tile gid="130"/>
    <tile gid="194"/>
    <tile gid="195"/>
    <tile gid="130"/>
    <tile gid="1"/>
    <tile gid="1"/>
    <tile gid="1"/>
    <tile gid="1"/>
    <tile gid="1"/>
    <tile gid="1"/>
    <tile gid="1"/>
    <tile gid="1"/>
    <tile gid="1"/>
    <tile gid="1"/>
    <tile gid="1"/>
    <tile gid="1"/>
    <tile gid="1"/>
    <tile gid="1"/>
    <tile gid="1"/>
    <tile gid="1"/>
    <tile gid="1"/>
    <tile gid="1"/>
    <tile gid="1"/>
    <tile gid="1"/>
    <tile gid="1"/>
    <tile gid="1"/>
    <tile gid="1"/>
    <tile gid="1"/>
    <tile gid="1"/>
    <tile gid="1"/>
    <tile gid="1"/>
    <tile gid="1"/>
    <tile gid="1"/>
    <tile gid="1"/>
    <tile gid="130"/>
    <tile gid="130"/>
    <tile gid="131"/>
    <tile gid="130"/>
    <tile gid="130"/>
    <tile gid="130"/>
    <tile gid="130"/>
    <tile gid="130"/>
    <tile gid="130"/>
    <tile gid="1"/>
    <tile gid="1"/>
    <tile gid="131"/>
    <tile gid="130"/>
    <tile gid="130"/>
    <tile gid="130"/>
    <tile gid="130"/>
    <tile gid="130"/>
    <tile gid="130"/>
    <tile gid="130"/>
    <tile gid="130"/>
    <tile gid="130"/>
    <tile gid="130"/>
    <tile gid="130"/>
    <tile gid="130"/>
    <tile gid="194"/>
    <tile gid="231"/>
    <tile gid="130"/>
    <tile gid="130"/>
    <tile gid="130"/>
    <tile gid="130"/>
    <tile gid="231"/>
    <tile gid="130"/>
    <tile gid="130"/>
    <tile gid="130"/>
    <tile gid="130"/>
    <tile gid="231"/>
    <tile gid="130"/>
    <tile gid="130"/>
    <tile gid="130"/>
    <tile gid="130"/>
    <tile gid="231"/>
    <tile gid="130"/>
    <tile gid="130"/>
    <tile gid="130"/>
    <tile gid="130"/>
    <tile gid="231"/>
    <tile gid="130"/>
    <tile gid="194"/>
    <tile gid="195"/>
    <tile gid="130"/>
    <tile gid="130"/>
    <tile gid="130"/>
    <tile gid="130"/>
    <tile gid="130"/>
    <tile gid="130"/>
    <tile gid="194"/>
    <tile gid="195"/>
    <tile gid="131"/>
    <tile gid="130"/>
    <tile gid="1"/>
    <tile gid="1"/>
    <tile gid="130"/>
    <tile gid="130"/>
    <tile gid="131"/>
    <tile gid="131"/>
    <tile gid="130"/>
    <tile gid="194"/>
    <tile gid="195"/>
    <tile gid="130"/>
    <tile gid="130"/>
    <tile gid="130"/>
    <tile gid="130"/>
    <tile gid="130"/>
    <tile gid="130"/>
    <tile gid="130"/>
    <tile gid="130"/>
    <tile gid="130"/>
    <tile gid="130"/>
    <tile gid="130"/>
    <tile gid="130"/>
    <tile gid="130"/>
    <tile gid="130"/>
    <tile gid="194"/>
    <tile gid="195"/>
    <tile gid="130"/>
    <tile gid="130"/>
    <tile gid="130"/>
    <tile gid="194"/>
    <tile gid="195"/>
    <tile gid="130"/>
    <tile gid="130"/>
    <tile gid="130"/>
    <tile gid="130"/>
    <tile gid="130"/>
    <tile gid="130"/>
    <tile gid="130"/>
    <tile gid="130"/>
    <tile gid="130"/>
    <tile gid="194"/>
    <tile gid="195"/>
    <tile gid="130"/>
    <tile gid="194"/>
    <tile gid="195"/>
    <tile gid="130"/>
    <tile gid="131"/>
    <tile gid="194"/>
    <tile gid="195"/>
    <tile gid="130"/>
    <tile gid="130"/>
    <tile gid="1"/>
    <tile gid="1"/>
    <tile gid="130"/>
    <tile gid="130"/>
    <tile gid="194"/>
    <tile gid="195"/>
    <tile gid="130"/>
    <tile gid="131"/>
    <tile gid="130"/>
    <tile gid="130"/>
    <tile gid="194"/>
    <tile gid="195"/>
    <tile gid="130"/>
    <tile gid="130"/>
    <tile gid="131"/>
    <tile gid="194"/>
    <tile gid="195"/>
    <tile gid="130"/>
    <tile gid="130"/>
    <tile gid="130"/>
    <tile gid="130"/>
    <tile gid="130"/>
    <tile gid="131"/>
    <tile gid="131"/>
    <tile gid="130"/>
    <tile gid="130"/>
    <tile gid="130"/>
    <tile gid="130"/>
    <tile gid="130"/>
    <tile gid="130"/>
    <tile gid="131"/>
    <tile gid="131"/>
    <tile gid="131"/>
    <tile gid="131"/>
    <tile gid="130"/>
    <tile gid="130"/>
    <tile gid="130"/>
    <tile gid="130"/>
    <tile gid="130"/>
    <tile gid="194"/>
    <tile gid="195"/>
    <tile gid="130"/>
    <tile gid="131"/>
    <tile gid="130"/>
    <tile gid="130"/>
    <tile gid="130"/>
    <tile gid="130"/>
    <tile gid="130"/>
    <tile gid="130"/>
    <tile gid="130"/>
    <tile gid="1"/>
    <tile gid="1"/>
    <tile gid="130"/>
    <tile gid="131"/>
    <tile gid="131"/>
    <tile gid="130"/>
    <tile gid="130"/>
    <tile gid="130"/>
    <tile gid="130"/>
    <tile gid="131"/>
    <tile gid="130"/>
    <tile gid="130"/>
    <tile gid="130"/>
    <tile gid="130"/>
    <tile gid="130"/>
    <tile gid="130"/>
    <tile gid="130"/>
    <tile gid="130"/>
    <tile gid="130"/>
    <tile gid="130"/>
    <tile gid="130"/>
    <tile gid="130"/>
    <tile gid="194"/>
    <tile gid="194"/>
    <tile gid="195"/>
    <tile gid="130"/>
    <tile gid="130"/>
    <tile gid="130"/>
    <tile gid="130"/>
    <tile gid="130"/>
    <tile gid="130"/>
    <tile gid="130"/>
    <tile gid="130"/>
    <tile gid="194"/>
    <tile gid="194"/>
    <tile gid="195"/>
    <tile gid="130"/>
    <tile gid="130"/>
    <tile gid="130"/>
    <tile gid="130"/>
    <tile gid="130"/>
    <tile gid="130"/>
    <tile gid="130"/>
    <tile gid="130"/>
    <tile gid="130"/>
    <tile gid="131"/>
    <tile gid="130"/>
    <tile gid="130"/>
    <tile gid="194"/>
    <tile gid="195"/>
    <tile gid="1"/>
    <tile gid="1"/>
    <tile gid="130"/>
    <tile gid="130"/>
    <tile gid="131"/>
    <tile gid="130"/>
    <tile gid="130"/>
    <tile gid="131"/>
    <tile gid="130"/>
    <tile gid="130"/>
    <tile gid="130"/>
    <tile gid="1"/>
    <tile gid="1"/>
    <tile gid="1"/>
    <tile gid="1"/>
    <tile gid="1"/>
    <tile gid="1"/>
    <tile gid="1"/>
    <tile gid="1"/>
    <tile gid="1"/>
    <tile gid="1"/>
    <tile gid="1"/>
    <tile gid="1"/>
    <tile gid="1"/>
    <tile gid="1"/>
    <tile gid="1"/>
    <tile gid="1"/>
    <tile gid="1"/>
    <tile gid="1"/>
    <tile gid="1"/>
    <tile gid="1"/>
    <tile gid="1"/>
    <tile gid="1"/>
    <tile gid="1"/>
    <tile gid="1"/>
    <tile gid="1"/>
    <tile gid="1"/>
    <tile gid="1"/>
    <tile gid="1"/>
    <tile gid="1"/>
    <tile gid="1"/>
    <tile gid="130"/>
    <tile gid="130"/>
    <tile gid="131"/>
    <tile gid="130"/>
    <tile gid="130"/>
    <tile gid="131"/>
    <tile gid="130"/>
    <tile gid="131"/>
    <tile gid="130"/>
    <tile gid="1"/>
    <tile gid="1"/>
    <tile gid="130"/>
    <tile gid="194"/>
    <tile gid="195"/>
    <tile gid="130"/>
    <tile gid="131"/>
    <tile gid="130"/>
    <tile gid="130"/>
    <tile gid="130"/>
    <tile gid="130"/>
    <tile gid="1"/>
    <tile gid="1"/>
    <tile gid="1"/>
    <tile gid="1"/>
    <tile gid="1"/>
    <tile gid="1"/>
    <tile gid="1"/>
    <tile gid="1"/>
    <tile gid="1"/>
    <tile gid="1"/>
    <tile gid="1"/>
    <tile gid="1"/>
    <tile gid="1"/>
    <tile gid="1"/>
    <tile gid="1"/>
    <tile gid="1"/>
    <tile gid="1"/>
    <tile gid="1"/>
    <tile gid="1"/>
    <tile gid="1"/>
    <tile gid="1"/>
    <tile gid="1"/>
    <tile gid="1"/>
    <tile gid="1"/>
    <tile gid="1"/>
    <tile gid="1"/>
    <tile gid="1"/>
    <tile gid="1"/>
    <tile gid="1"/>
    <tile gid="1"/>
    <tile gid="130"/>
    <tile gid="130"/>
    <tile gid="131"/>
    <tile gid="130"/>
    <tile gid="130"/>
    <tile gid="194"/>
    <tile gid="195"/>
    <tile gid="130"/>
    <tile gid="130"/>
    <tile gid="1"/>
    <tile gid="1"/>
    <tile gid="130"/>
    <tile gid="130"/>
    <tile gid="130"/>
    <tile gid="130"/>
    <tile gid="130"/>
    <tile gid="194"/>
    <tile gid="195"/>
    <tile gid="130"/>
    <tile gid="130"/>
    <tile gid="1"/>
    <tile gid="1"/>
    <tile gid="1"/>
    <tile gid="1"/>
    <tile gid="1"/>
    <tile gid="1"/>
    <tile gid="1"/>
    <tile gid="1"/>
    <tile gid="1"/>
    <tile gid="1"/>
    <tile gid="1"/>
    <tile gid="1"/>
    <tile gid="1"/>
    <tile gid="1"/>
    <tile gid="1"/>
    <tile gid="1"/>
    <tile gid="1"/>
    <tile gid="1"/>
    <tile gid="1"/>
    <tile gid="1"/>
    <tile gid="1"/>
    <tile gid="1"/>
    <tile gid="1"/>
    <tile gid="1"/>
    <tile gid="1"/>
    <tile gid="1"/>
    <tile gid="1"/>
    <tile gid="1"/>
    <tile gid="1"/>
    <tile gid="1"/>
    <tile gid="130"/>
    <tile gid="194"/>
    <tile gid="194"/>
    <tile gid="195"/>
    <tile gid="130"/>
    <tile gid="130"/>
    <tile gid="130"/>
    <tile gid="130"/>
    <tile gid="130"/>
    <tile gid="1"/>
    <tile gid="1"/>
    <tile gid="1"/>
    <tile gid="1"/>
    <tile gid="1"/>
    <tile gid="1"/>
    <tile gid="1"/>
    <tile gid="1"/>
    <tile gid="1"/>
    <tile gid="1"/>
    <tile gid="1"/>
    <tile gid="1"/>
    <tile gid="1"/>
    <tile gid="1"/>
    <tile gid="1"/>
    <tile gid="1"/>
    <tile gid="1"/>
    <tile gid="1"/>
    <tile gid="1"/>
    <tile gid="1"/>
    <tile gid="1"/>
    <tile gid="1"/>
    <tile gid="1"/>
    <tile gid="1"/>
    <tile gid="1"/>
    <tile gid="1"/>
    <tile gid="1"/>
    <tile gid="1"/>
    <tile gid="1"/>
    <tile gid="1"/>
    <tile gid="1"/>
    <tile gid="1"/>
    <tile gid="1"/>
    <tile gid="1"/>
    <tile gid="1"/>
    <tile gid="1"/>
    <tile gid="1"/>
    <tile gid="1"/>
    <tile gid="1"/>
    <tile gid="1"/>
    <tile gid="1"/>
    <tile gid="1"/>
    <tile gid="1"/>
    <tile gid="1"/>
    <tile gid="1"/>
    <tile gid="1"/>
    <tile gid="1"/>
    <tile gid="1"/>
    <tile gid="1"/>
    <tile gid="1"/>
    <tile gid="1"/>
   </data>
  </layer>
  <layer id="71" name="lower_walls" width="50" height="50">
   <data>
    <tile gid="225"/>
    <tile gid="2"/>
    <tile gid="2"/>
    <tile gid="2"/>
    <tile gid="2"/>
    <tile gid="2"/>
    <tile gid="2"/>
    <tile gid="2"/>
    <tile gid="2"/>
    <tile gid="3"/>
    <tile gid="226"/>
    <tile gid="1"/>
    <tile gid="1"/>
    <tile gid="1"/>
    <tile gid="1"/>
    <tile gid="1"/>
    <tile gid="1"/>
    <tile gid="1"/>
    <tile gid="1"/>
    <tile gid="1"/>
    <tile gid="1"/>
    <tile gid="1"/>
    <tile gid="1"/>
    <tile gid="1"/>
    <tile gid="1"/>
    <tile gid="1"/>
    <tile gid="1"/>
    <tile gid="1"/>
    <tile gid="1"/>
    <tile gid="1"/>
    <tile gid="1"/>
    <tile gid="1"/>
    <tile gid="1"/>
    <tile gid="1"/>
    <tile gid="1"/>
    <tile gid="1"/>
    <tile gid="1"/>
    <tile gid="1"/>
    <tile gid="1"/>
    <tile gid="225"/>
    <tile gid="227"/>
    <tile gid="2"/>
    <tile gid="2"/>
    <tile gid="2"/>
    <tile gid="2"/>
    <tile gid="2"/>
    <tile gid="2"/>
    <tile gid="2"/>
    <tile gid="2"/>
    <tile gid="226"/>
    <tile gid="257"/>
    <tile gid="165"/>
    <tile gid="34"/>
    <tile gid="34"/>
    <tile gid="165"/>
    <tile gid="34"/>
    <tile gid="34"/>
    <tile gid="165"/>
    <tile gid="165"/>
    <tile gid="324"/>
    <tile gid="258"/>
    <tile gid="1"/>
    <tile gid="1"/>
    <tile gid="1"/>
    <tile gid="1"/>
    <tile gid="1"/>
    <tile gid="1"/>
    <tile gid="1"/>
    <tile gid="1"/>
    <tile gid="1"/>
    <tile gid="1"/>
    <tile gid="1"/>
    <tile gid="1"/>
    <tile gid="1"/>
    <tile gid="1"/>
    <tile gid="1"/>
    <tile gid="1"/>
    <tile gid="1"/>
    <tile gid="1"/>
    <tile gid="1"/>
    <tile gid="1"/>
    <tile gid="1"/>
    <tile gid="1"/>
    <tile gid="1"/>
    <tile gid="1"/>
    <tile gid="1"/>
    <tile gid="1"/>
    <tile gid="1"/>
    <tile gid="1"/>
    <tile gid="257"/>
    <tile gid="323"/>
    <tile gid="34"/>
    <tile gid="165"/>
    <tile gid="34"/>
    <tile gid="165"/>
    <tile gid="34"/>
    <tile gid="34"/>
    <tile gid="165"/>
    <tile gid="34"/>
    <tile gid="258"/>
    <tile gid="257"/>
    <tile gid="1"/>
    <tile gid="1"/>
    <tile gid="1"/>
    <tile gid="1"/>
    <tile gid="1"/>
    <tile gid="1"/>
    <tile gid="197"/>
    <tile gid="197"/>
    <tile gid="1"/>
    <tile gid="258"/>
    <tile gid="1"/>
    <tile gid="1"/>
    <tile gid="1"/>
    <tile gid="1"/>
    <tile gid="1"/>
    <tile gid="1"/>
    <tile gid="1"/>
    <tile gid="1"/>
    <tile gid="1"/>
    <tile gid="1"/>
    <tile gid="1"/>
    <tile gid="1"/>
    <tile gid="1"/>
    <tile gid="1"/>
    <tile gid="1"/>
    <tile gid="1"/>
    <tile gid="1"/>
    <tile gid="1"/>
    <tile gid="1"/>
    <tile gid="1"/>
    <tile gid="1"/>
    <tile gid="1"/>
    <tile gid="1"/>
    <tile gid="1"/>
    <tile gid="1"/>
    <tile gid="1"/>
    <tile gid="1"/>
    <tile gid="1"/>
    <tile gid="257"/>
    <tile gid="1"/>
    <tile gid="1"/>
    <tile gid="1"/>
    <tile gid="1"/>
    <tile gid="1"/>
    <tile gid="1"/>
    <tile gid="1"/>
    <tile gid="1"/>
    <tile gid="1"/>
    <tile gid="258"/>
    <tile gid="257"/>
    <tile gid="1"/>
    <tile gid="1"/>
    <tile gid="1"/>
    <tile gid="1"/>
    <tile gid="1"/>
    <tile gid="1"/>
    <tile gid="1"/>
    <tile gid="1"/>
    <tile gid="1"/>
    <tile gid="262"/>
    <tile gid="2"/>
    <tile gid="2"/>
    <tile gid="2"/>
    <tile gid="2"/>
    <tile gid="167"/>
    <tile gid="2"/>
    <tile gid="2"/>
    <tile gid="2"/>
    <tile gid="2"/>
    <tile gid="2"/>
    <tile gid="2"/>
    <tile gid="2"/>
    <tile gid="2"/>
    <tile gid="2"/>
    <tile gid="2"/>
    <tile gid="2"/>
    <tile gid="2"/>
    <tile gid="2"/>
    <tile gid="2"/>
    <tile gid="2"/>
    <tile gid="2"/>
    <tile gid="2"/>
    <tile gid="2"/>
    <tile gid="2"/>
    <tile gid="2"/>
    <tile gid="167"/>
    <tile gid="2"/>
    <tile gid="2"/>
    <tile gid="261"/>
    <tile gid="1"/>
    <tile gid="1"/>
    <tile gid="1"/>
    <tile gid="1"/>
    <tile gid="1"/>
    <tile gid="1"/>
    <tile gid="1"/>
    <tile gid="1"/>
    <tile gid="1"/>
    <tile gid="258"/>
    <tile gid="257"/>
    <tile gid="1"/>
    <tile gid="1"/>
    <tile gid="1"/>
    <tile gid="1"/>
    <tile gid="1"/>
    <tile gid="1"/>
    <tile gid="1"/>
    <tile gid="1"/>
    <tile gid="1"/>
    <tile gid="34"/>
    <tile gid="34"/>
    <tile gid="165"/>
    <tile gid="34"/>
    <tile gid="34"/>
    <tile gid="199"/>
    <tile gid="34"/>
    <tile gid="165"/>
    <tile gid="34"/>
    <tile gid="34"/>
    <tile gid="34"/>
    <tile gid="34"/>
    <tile gid="165"/>
    <tile gid="34"/>
    <tile gid="34"/>
    <tile gid="34"/>
    <tile gid="165"/>
    <tile gid="34"/>
    <tile gid="34"/>
    <tile gid="165"/>
    <tile gid="34"/>
    <tile gid="34"/>
    <tile gid="165"/>
    <tile gid="34"/>
    <tile gid="34"/>
    <tile gid="34"/>
    <tile gid="199"/>
    <tile gid="34"/>
    <tile gid="165"/>
    <tile gid="34"/>
    <tile gid="1"/>
    <tile gid="1"/>
    <tile gid="1"/>
    <tile gid="1"/>
    <tile gid="1"/>
    <tile gid="1"/>
    <tile gid="1"/>
    <tile gid="1"/>
    <tile gid="1"/>
    <tile gid="258"/>
    <tile gid="257"/>
    <tile gid="1"/>
    <tile gid="1"/>
    <tile gid="1"/>
    <tile gid="1"/>
    <tile gid="1"/>
    <tile gid="1"/>
    <tile gid="1"/>
    <tile gid="1"/>
    <tile gid="1"/>
    <tile gid="1"/>
    <tile gid="1"/>
    <tile gid="1"/>
    <tile gid="1"/>
    <tile gid="1"/>
    <tile gid="1"/>
    <tile gid="1"/>
    <tile gid="1"/>
    <tile gid="1"/>
    <tile gid="1"/>
    <tile gid="1"/>
    <tile gid="1"/>
    <tile gid="1"/>
    <tile gid="1"/>
    <tile gid="1"/>
    <tile gid="1"/>
    <tile gid="1"/>
    <tile gid="1"/>
    <tile gid="1"/>
    <tile gid="1"/>
    <tile gid="1"/>
    <tile gid="1"/>
    <tile gid="1"/>
    <tile gid="1"/>
    <tile gid="1"/>
    <tile gid="1"/>
    <tile gid="1"/>
    <tile gid="1"/>
    <tile gid="1"/>
    <tile gid="1"/>
    <tile gid="1"/>
    <tile gid="1"/>
    <tile gid="1"/>
    <tile gid="1"/>
    <tile gid="1"/>
    <tile gid="1"/>
    <tile gid="1"/>
    <tile gid="1"/>
    <tile gid="1"/>
    <tile gid="258"/>
    <tile gid="257"/>
    <tile gid="1"/>
    <tile gid="1"/>
    <tile gid="1"/>
    <tile gid="1"/>
    <tile gid="1"/>
    <tile gid="1"/>
    <tile gid="1"/>
    <tile gid="1"/>
    <tile gid="1"/>
    <tile gid="1"/>
    <tile gid="1"/>
    <tile gid="1"/>
    <tile gid="1"/>
    <tile gid="1"/>
    <tile gid="1"/>
    <tile gid="1"/>
    <tile gid="1"/>
    <tile gid="1"/>
    <tile gid="1"/>
    <tile gid="1"/>
    <tile gid="1"/>
    <tile gid="1"/>
    <tile gid="1"/>
    <tile gid="1"/>
    <tile gid="1"/>
    <tile gid="1"/>
    <tile gid="1"/>
    <tile gid="1"/>
    <tile gid="1"/>
    <tile gid="1"/>
    <tile gid="1"/>
    <tile gid="1"/>
    <tile gid="1"/>
    <tile gid="1"/>
    <tile gid="1"/>
    <tile gid="1"/>
    <tile gid="1"/>
    <tile gid="1"/>
    <tile gid="1"/>
    <tile gid="1"/>
    <tile gid="1"/>
    <tile gid="1"/>
    <tile gid="1"/>
    <tile gid="1"/>
    <tile gid="1"/>
    <tile gid="1"/>
    <tile gid="1"/>
    <tile gid="1"/>
    <tile gid="258"/>
    <tile gid="257"/>
    <tile gid="1"/>
    <tile gid="1"/>
    <tile gid="1"/>
    <tile gid="1"/>
    <tile gid="1"/>
    <tile gid="1"/>
    <tile gid="1"/>
    <tile gid="1"/>
    <tile gid="1"/>
    <tile gid="1"/>
    <tile gid="1"/>
    <tile gid="1"/>
    <tile gid="1"/>
    <tile gid="1"/>
    <tile gid="1"/>
    <tile gid="1"/>
    <tile gid="1"/>
    <tile gid="1"/>
    <tile gid="1"/>
    <tile gid="1"/>
    <tile gid="1"/>
    <tile gid="1"/>
    <tile gid="1"/>
    <tile gid="1"/>
    <tile gid="1"/>
    <tile gid="1"/>
    <tile gid="1"/>
    <tile gid="1"/>
    <tile gid="1"/>
    <tile gid="1"/>
    <tile gid="1"/>
    <tile gid="1"/>
    <tile gid="1"/>
    <tile gid="1"/>
    <tile gid="1"/>
    <tile gid="1"/>
    <tile gid="1"/>
    <tile gid="1"/>
    <tile gid="1"/>
    <tile gid="1"/>
    <tile gid="1"/>
    <tile gid="1"/>
    <tile gid="1"/>
    <tile gid="1"/>
    <tile gid="1"/>
    <tile gid="1"/>
    <tile gid="1"/>
    <tile gid="1"/>
    <tile gid="258"/>
    <tile gid="257"/>
    <tile gid="1"/>
    <tile gid="1"/>
    <tile gid="1"/>
    <tile gid="1"/>
    <tile gid="1"/>
    <tile gid="1"/>
    <tile gid="1"/>
    <tile gid="1"/>
    <tile gid="1"/>
    <tile gid="1"/>
    <tile gid="1"/>
    <tile gid="1"/>
    <tile gid="1"/>
    <tile gid="1"/>
    <tile gid="1"/>
    <tile gid="1"/>
    <tile gid="1"/>
    <tile gid="1"/>
    <tile gid="1"/>
    <tile gid="1"/>
    <tile gid="1"/>
    <tile gid="1"/>
    <tile gid="1"/>
    <tile gid="1"/>
    <tile gid="1"/>
    <tile gid="1"/>
    <tile gid="1"/>
    <tile gid="1"/>
    <tile gid="1"/>
    <tile gid="1"/>
    <tile gid="1"/>
    <tile gid="1"/>
    <tile gid="1"/>
    <tile gid="1"/>
    <tile gid="1"/>
    <tile gid="1"/>
    <tile gid="1"/>
    <tile gid="1"/>
    <tile gid="1"/>
    <tile gid="1"/>
    <tile gid="1"/>
    <tile gid="1"/>
    <tile gid="1"/>
    <tile gid="1"/>
    <tile gid="1"/>
    <tile gid="1"/>
    <tile gid="1"/>
    <tile gid="1"/>
    <tile gid="258"/>
    <tile gid="257"/>
    <tile gid="1"/>
    <tile gid="1"/>
    <tile gid="1"/>
    <tile gid="1"/>
    <tile gid="1"/>
    <tile gid="1"/>
    <tile gid="1"/>
    <tile gid="1"/>
    <tile gid="1"/>
    <tile gid="258"/>
    <tile gid="1"/>
    <tile gid="1"/>
    <tile gid="1"/>
    <tile gid="1"/>
    <tile gid="1"/>
    <tile gid="1"/>
    <tile gid="1"/>
    <tile gid="1"/>
    <tile gid="1"/>
    <tile gid="1"/>
    <tile gid="1"/>
    <tile gid="1"/>
    <tile gid="1"/>
    <tile gid="1"/>
    <tile gid="1"/>
    <tile gid="1"/>
    <tile gid="1"/>
    <tile gid="1"/>
    <tile gid="1"/>
    <tile gid="1"/>
    <tile gid="1"/>
    <tile gid="1"/>
    <tile gid="1"/>
    <tile gid="1"/>
    <tile gid="1"/>
    <tile gid="1"/>
    <tile gid="1"/>
    <tile gid="1"/>
    <tile gid="260"/>
    <tile gid="1"/>
    <tile gid="1"/>
    <tile gid="1"/>
    <tile gid="1"/>
    <tile gid="1"/>
    <tile gid="1"/>
    <tile gid="1"/>
    <tile gid="1"/>
    <tile gid="1"/>
    <tile gid="258"/>
    <tile gid="257"/>
    <tile gid="1"/>
    <tile gid="1"/>
    <tile gid="1"/>
    <tile gid="1"/>
    <tile gid="1"/>
    <tile gid="1"/>
    <tile gid="1"/>
    <tile gid="1"/>
    <tile gid="1"/>
    <tile gid="258"/>
    <tile gid="1"/>
    <tile gid="1"/>
    <tile gid="1"/>
    <tile gid="1"/>
    <tile gid="1"/>
    <tile gid="1"/>
    <tile gid="1"/>
    <tile gid="1"/>
    <tile gid="1"/>
    <tile gid="1"/>
    <tile gid="1"/>
    <tile gid="1"/>
    <tile gid="1"/>
    <tile gid="1"/>
    <tile gid="1"/>
    <tile gid="1"/>
    <tile gid="1"/>
    <tile gid="1"/>
    <tile gid="1"/>
    <tile gid="1"/>
    <tile gid="1"/>
    <tile gid="1"/>
    <tile gid="1"/>
    <tile gid="1"/>
    <tile gid="1"/>
    <tile gid="1"/>
    <tile gid="1"/>
    <tile gid="1"/>
    <tile gid="257"/>
    <tile gid="1"/>
    <tile gid="1"/>
    <tile gid="1"/>
    <tile gid="1"/>
    <tile gid="1"/>
    <tile gid="1"/>
    <tile gid="1"/>
    <tile gid="1"/>
    <tile gid="1"/>
    <tile gid="258"/>
    <tile gid="257"/>
    <tile gid="1"/>
    <tile gid="1"/>
    <tile gid="1"/>
    <tile gid="1"/>
    <tile gid="1"/>
    <tile gid="1"/>
    <tile gid="1"/>
    <tile gid="1"/>
    <tile gid="1"/>
    <tile gid="258"/>
    <tile gid="1"/>
    <tile gid="1"/>
    <tile gid="1"/>
    <tile gid="1"/>
    <tile gid="1"/>
    <tile gid="1"/>
    <tile gid="1"/>
    <tile gid="1"/>
    <tile gid="1"/>
    <tile gid="1"/>
    <tile gid="1"/>
    <tile gid="1"/>
    <tile gid="1"/>
    <tile gid="1"/>
    <tile gid="1"/>
    <tile gid="1"/>
    <tile gid="1"/>
    <tile gid="1"/>
    <tile gid="1"/>
    <tile gid="1"/>
    <tile gid="1"/>
    <tile gid="1"/>
    <tile gid="1"/>
    <tile gid="1"/>
    <tile gid="1"/>
    <tile gid="1"/>
    <tile gid="1"/>
    <tile gid="1"/>
    <tile gid="257"/>
    <tile gid="1"/>
    <tile gid="1"/>
    <tile gid="1"/>
    <tile gid="1"/>
    <tile gid="1"/>
    <tile gid="1"/>
    <tile gid="1"/>
    <tile gid="1"/>
    <tile gid="1"/>
    <tile gid="258"/>
    <tile gid="1"/>
    <tile gid="1"/>
    <tile gid="1"/>
    <tile gid="1"/>
    <tile gid="1"/>
    <tile gid="1"/>
    <tile gid="1"/>
    <tile gid="1"/>
    <tile gid="1"/>
    <tile gid="1"/>
    <tile gid="290"/>
    <tile gid="1"/>
    <tile gid="1"/>
    <tile gid="1"/>
    <tile gid="1"/>
    <tile gid="1"/>
    <tile gid="1"/>
    <tile gid="1"/>
    <tile gid="1"/>
    <tile gid="1"/>
    <tile gid="1"/>
    <tile gid="1"/>
    <tile gid="1"/>
    <tile gid="1"/>
    <tile gid="1"/>
    <tile gid="1"/>
    <tile gid="1"/>
    <tile gid="1"/>
    <tile gid="1"/>
    <tile gid="1"/>
    <tile gid="1"/>
    <tile gid="1"/>
    <tile gid="1"/>
    <tile gid="1"/>
    <tile gid="1"/>
    <tile gid="1"/>
    <tile gid="1"/>
    <tile gid="1"/>
    <tile gid="1"/>
    <tile gid="289"/>
    <tile gid="1"/>
    <tile gid="1"/>
    <tile gid="1"/>
    <tile gid="1"/>
    <tile gid="1"/>
    <tile gid="1"/>
    <tile gid="1"/>
    <tile gid="1"/>
    <tile gid="1"/>
    <tile gid="290"/>
    <tile gid="1"/>
    <tile gid="1"/>
    <tile gid="257"/>
    <tile gid="1"/>
    <tile gid="1"/>
    <tile gid="1"/>
    <tile gid="1"/>
    <tile gid="258"/>
    <tile gid="1"/>
    <tile gid="1"/>
    <tile gid="1"/>
    <tile gid="1"/>
    <tile gid="1"/>
    <tile gid="1"/>
    <tile gid="1"/>
    <tile gid="1"/>
    <tile gid="1"/>
    <tile gid="1"/>
    <tile gid="1"/>
    <tile gid="1"/>
    <tile gid="1"/>
    <tile gid="1"/>
    <tile gid="1"/>
    <tile gid="1"/>
    <tile gid="1"/>
    <tile gid="1"/>
    <tile gid="1"/>
    <tile gid="1"/>
    <tile gid="1"/>
    <tile gid="1"/>
    <tile gid="1"/>
    <tile gid="1"/>
    <tile gid="1"/>
    <tile gid="1"/>
    <tile gid="1"/>
    <tile gid="1"/>
    <tile gid="1"/>
    <tile gid="1"/>
    <tile gid="1"/>
    <tile gid="1"/>
    <tile gid="1"/>
    <tile gid="1"/>
    <tile gid="257"/>
    <tile gid="1"/>
    <tile gid="1"/>
    <tile gid="1"/>
    <tile gid="1"/>
    <tile gid="258"/>
    <tile gid="1"/>
    <tile gid="1"/>
    <tile gid="1"/>
    <tile gid="1"/>
    <tile gid="257"/>
    <tile gid="1"/>
    <tile gid="1"/>
    <tile gid="1"/>
    <tile gid="1"/>
    <tile gid="258"/>
    <tile gid="1"/>
    <tile gid="1"/>
    <tile gid="1"/>
    <tile gid="1"/>
    <tile gid="1"/>
    <tile gid="1"/>
    <tile gid="1"/>
    <tile gid="1"/>
    <tile gid="1"/>
    <tile gid="1"/>
    <tile gid="1"/>
    <tile gid="1"/>
    <tile gid="1"/>
    <tile gid="1"/>
    <tile gid="1"/>
    <tile gid="1"/>
    <tile gid="1"/>
    <tile gid="1"/>
    <tile gid="1"/>
    <tile gid="1"/>
    <tile gid="1"/>
    <tile gid="1"/>
    <tile gid="1"/>
    <tile gid="1"/>
    <tile gid="1"/>
    <tile gid="1"/>
    <tile gid="1"/>
    <tile gid="1"/>
    <tile gid="1"/>
    <tile gid="1"/>
    <tile gid="1"/>
    <tile gid="1"/>
    <tile gid="1"/>
    <tile gid="1"/>
    <tile gid="257"/>
    <tile gid="1"/>
    <tile gid="1"/>
    <tile gid="1"/>
    <tile gid="1"/>
    <tile gid="258"/>
    <tile gid="1"/>
    <tile gid="1"/>
    <tile gid="1"/>
    <tile gid="1"/>
    <tile gid="257"/>
    <tile gid="1"/>
    <tile gid="1"/>
    <tile gid="1"/>
    <tile gid="1"/>
    <tile gid="258"/>
    <tile gid="1"/>
    <tile gid="1"/>
    <tile gid="1"/>
    <tile gid="1"/>
    <tile gid="1"/>
    <tile gid="1"/>
    <tile gid="1"/>
    <tile gid="1"/>
    <tile gid="1"/>
    <tile gid="1"/>
    <tile gid="1"/>
    <tile gid="1"/>
    <tile gid="1"/>
    <tile gid="1"/>
    <tile gid="1"/>
    <tile gid="1"/>
    <tile gid="1"/>
    <tile gid="1"/>
    <tile gid="1"/>
    <tile gid="1"/>
    <tile gid="1"/>
    <tile gid="1"/>
    <tile gid="1"/>
    <tile gid="418"/>
    <tile gid="419"/>
    <tile gid="420"/>
    <tile gid="421"/>
    <tile gid="1"/>
    <tile gid="1"/>
    <tile gid="1"/>
    <tile gid="1"/>
    <tile gid="1"/>
    <tile gid="1"/>
    <tile gid="1"/>
    <tile gid="257"/>
    <tile gid="1"/>
    <tile gid="1"/>
    <tile gid="1"/>
    <tile gid="1"/>
    <tile gid="258"/>
    <tile gid="1"/>
    <tile gid="1"/>
    <tile gid="1"/>
    <tile gid="1"/>
    <tile gid="257"/>
    <tile gid="1"/>
    <tile gid="1"/>
    <tile gid="1"/>
    <tile gid="1"/>
    <tile gid="258"/>
    <tile gid="1"/>
    <tile gid="1"/>
    <tile gid="1"/>
    <tile gid="1"/>
    <tile gid="1"/>
    <tile gid="1"/>
    <tile gid="1"/>
    <tile gid="1"/>
    <tile gid="1"/>
    <tile gid="1"/>
    <tile gid="1"/>
    <tile gid="1"/>
    <tile gid="1"/>
    <tile gid="1"/>
    <tile gid="1"/>
    <tile gid="1"/>
    <tile gid="1"/>
    <tile gid="225"/>
    <tile gid="227"/>
    <tile gid="5"/>
    <tile gid="6"/>
    <tile gid="7"/>
    <tile gid="5"/>
    <tile gid="450"/>
    <tile gid="454"/>
    <tile gid="455"/>
    <tile gid="453"/>
    <tile gid="7"/>
    <tile gid="5"/>
    <tile gid="6"/>
    <tile gid="7"/>
    <tile gid="228"/>
    <tile gid="226"/>
    <tile gid="1"/>
    <tile gid="257"/>
    <tile gid="1"/>
    <tile gid="1"/>
    <tile gid="1"/>
    <tile gid="1"/>
    <tile gid="258"/>
    <tile gid="1"/>
    <tile gid="1"/>
    <tile gid="1"/>
    <tile gid="1"/>
    <tile gid="257"/>
    <tile gid="1"/>
    <tile gid="1"/>
    <tile gid="1"/>
    <tile gid="1"/>
    <tile gid="258"/>
    <tile gid="1"/>
    <tile gid="1"/>
    <tile gid="1"/>
    <tile gid="1"/>
    <tile gid="1"/>
    <tile gid="1"/>
    <tile gid="1"/>
    <tile gid="1"/>
    <tile gid="1"/>
    <tile gid="1"/>
    <tile gid="1"/>
    <tile gid="1"/>
    <tile gid="1"/>
    <tile gid="1"/>
    <tile gid="1"/>
    <tile gid="1"/>
    <tile gid="1"/>
    <tile gid="257"/>
    <tile gid="323"/>
    <tile gid="37"/>
    <tile gid="38"/>
    <tile gid="39"/>
    <tile gid="37"/>
    <tile gid="482"/>
    <tile gid="486"/>
    <tile gid="487"/>
    <tile gid="485"/>
    <tile gid="39"/>
    <tile gid="37"/>
    <tile gid="38"/>
    <tile gid="39"/>
    <tile gid="36"/>
    <tile gid="258"/>
    <tile gid="1"/>
    <tile gid="257"/>
    <tile gid="1"/>
    <tile gid="1"/>
    <tile gid="1"/>
    <tile gid="1"/>
    <tile gid="258"/>
    <tile gid="1"/>
    <tile gid="1"/>
    <tile gid="225"/>
    <tile gid="2"/>
    <tile gid="292"/>
    <tile gid="1"/>
    <tile gid="1"/>
    <tile gid="1"/>
    <tile gid="1"/>
    <tile gid="291"/>
    <tile gid="2"/>
    <tile gid="228"/>
    <tile gid="226"/>
    <tile gid="1"/>
    <tile gid="1"/>
    <tile gid="1"/>
    <tile gid="1"/>
    <tile gid="1"/>
    <tile gid="1"/>
    <tile gid="1"/>
    <tile gid="1"/>
    <tile gid="1"/>
    <tile gid="1"/>
    <tile gid="1"/>
    <tile gid="1"/>
    <tile gid="1"/>
    <tile gid="1"/>
    <tile gid="257"/>
    <tile gid="1"/>
    <tile gid="69"/>
    <tile gid="70"/>
    <tile gid="71"/>
    <tile gid="69"/>
    <tile gid="163"/>
    <tile gid="130"/>
    <tile gid="130"/>
    <tile gid="132"/>
    <tile gid="71"/>
    <tile gid="69"/>
    <tile gid="70"/>
    <tile gid="71"/>
    <tile gid="1"/>
    <tile gid="258"/>
    <tile gid="1"/>
    <tile gid="257"/>
    <tile gid="1"/>
    <tile gid="1"/>
    <tile gid="1"/>
    <tile gid="1"/>
    <tile gid="258"/>
    <tile gid="1"/>
    <tile gid="1"/>
    <tile gid="257"/>
    <tile gid="34"/>
    <tile gid="324"/>
    <tile gid="1"/>
    <tile gid="1"/>
    <tile gid="1"/>
    <tile gid="1"/>
    <tile gid="323"/>
    <tile gid="34"/>
    <tile gid="324"/>
    <tile gid="258"/>
    <tile gid="1"/>
    <tile gid="1"/>
    <tile gid="1"/>
    <tile gid="1"/>
    <tile gid="1"/>
    <tile gid="1"/>
    <tile gid="1"/>
    <tile gid="1"/>
    <tile gid="1"/>
    <tile gid="1"/>
    <tile gid="1"/>
    <tile gid="1"/>
    <tile gid="1"/>
    <tile gid="1"/>
    <tile gid="257"/>
    <tile gid="1"/>
    <tile gid="1"/>
    <tile gid="1"/>
    <tile gid="1"/>
    <tile gid="1"/>
    <tile gid="1"/>
    <tile gid="1"/>
    <tile gid="1"/>
    <tile gid="1"/>
    <tile gid="1"/>
    <tile gid="1"/>
    <tile gid="1"/>
    <tile gid="1"/>
    <tile gid="1"/>
    <tile gid="258"/>
    <tile gid="1"/>
    <tile gid="257"/>
    <tile gid="1"/>
    <tile gid="1"/>
    <tile gid="1"/>
    <tile gid="1"/>
    <tile gid="258"/>
    <tile gid="1"/>
    <tile gid="1"/>
    <tile gid="257"/>
    <tile gid="1"/>
    <tile gid="1"/>
    <tile gid="1"/>
    <tile gid="1"/>
    <tile gid="1"/>
    <tile gid="1"/>
    <tile gid="1"/>
    <tile gid="1"/>
    <tile gid="1"/>
    <tile gid="258"/>
    <tile gid="1"/>
    <tile gid="1"/>
    <tile gid="1"/>
    <tile gid="1"/>
    <tile gid="1"/>
    <tile gid="1"/>
    <tile gid="1"/>
    <tile gid="1"/>
    <tile gid="1"/>
    <tile gid="1"/>
    <tile gid="1"/>
    <tile gid="1"/>
    <tile gid="1"/>
    <tile gid="1"/>
    <tile gid="257"/>
    <tile gid="1"/>
    <tile gid="1"/>
    <tile gid="1"/>
    <tile gid="1"/>
    <tile gid="1"/>
    <tile gid="1"/>
    <tile gid="1"/>
    <tile gid="1"/>
    <tile gid="1"/>
    <tile gid="1"/>
    <tile gid="1"/>
    <tile gid="1"/>
    <tile gid="1"/>
    <tile gid="1"/>
    <tile gid="258"/>
    <tile gid="1"/>
    <tile gid="257"/>
    <tile gid="1"/>
    <tile gid="1"/>
    <tile gid="1"/>
    <tile gid="1"/>
    <tile gid="258"/>
    <tile gid="1"/>
    <tile gid="1"/>
    <tile gid="257"/>
    <tile gid="1"/>
    <tile gid="1"/>
    <tile gid="1"/>
    <tile gid="1"/>
    <tile gid="1"/>
    <tile gid="1"/>
    <tile gid="1"/>
    <tile gid="1"/>
    <tile gid="1"/>
    <tile gid="262"/>
    <tile gid="2"/>
    <tile gid="2"/>
    <tile gid="2"/>
    <tile gid="167"/>
    <tile gid="2"/>
    <tile gid="2"/>
    <tile gid="2"/>
    <tile gid="167"/>
    <tile gid="2"/>
    <tile gid="2"/>
    <tile gid="2"/>
    <tile gid="167"/>
    <tile gid="2"/>
    <tile gid="2"/>
    <tile gid="261"/>
    <tile gid="1"/>
    <tile gid="1"/>
    <tile gid="1"/>
    <tile gid="1"/>
    <tile gid="1"/>
    <tile gid="1"/>
    <tile gid="1"/>
    <tile gid="1"/>
    <tile gid="1"/>
    <tile gid="1"/>
    <tile gid="1"/>
    <tile gid="1"/>
    <tile gid="1"/>
    <tile gid="1"/>
    <tile gid="258"/>
    <tile gid="1"/>
    <tile gid="257"/>
    <tile gid="1"/>
    <tile gid="1"/>
    <tile gid="1"/>
    <tile gid="1"/>
    <tile gid="258"/>
    <tile gid="1"/>
    <tile gid="1"/>
    <tile gid="257"/>
    <tile gid="1"/>
    <tile gid="1"/>
    <tile gid="1"/>
    <tile gid="1"/>
    <tile gid="1"/>
    <tile gid="1"/>
    <tile gid="1"/>
    <tile gid="1"/>
    <tile gid="1"/>
    <tile gid="323"/>
    <tile gid="165"/>
    <tile gid="34"/>
    <tile gid="165"/>
    <tile gid="199"/>
    <tile gid="165"/>
    <tile gid="34"/>
    <tile gid="165"/>
    <tile gid="199"/>
    <tile gid="165"/>
    <tile gid="34"/>
    <tile gid="165"/>
    <tile gid="199"/>
    <tile gid="165"/>
    <tile gid="34"/>
    <tile gid="165"/>
    <tile gid="1"/>
    <tile gid="1"/>
    <tile gid="1"/>
    <tile gid="1"/>
    <tile gid="1"/>
    <tile gid="1"/>
    <tile gid="1"/>
    <tile gid="1"/>
    <tile gid="1"/>
    <tile gid="1"/>
    <tile gid="1"/>
    <tile gid="1"/>
    <tile gid="1"/>
    <tile gid="1"/>
    <tile gid="258"/>
    <tile gid="1"/>
    <tile gid="257"/>
    <tile gid="1"/>
    <tile gid="1"/>
    <tile gid="1"/>
    <tile gid="1"/>
    <tile gid="258"/>
    <tile gid="1"/>
    <tile gid="1"/>
    <tile gid="257"/>
    <tile gid="1"/>
    <tile gid="1"/>
    <tile gid="1"/>
    <tile gid="1"/>
    <tile gid="1"/>
    <tile gid="1"/>
    <tile gid="1"/>
    <tile gid="1"/>
    <tile gid="1"/>
    <tile gid="1"/>
    <tile gid="197"/>
    <tile gid="1"/>
    <tile gid="197"/>
    <tile gid="1"/>
    <tile gid="197"/>
    <tile gid="1"/>
    <tile gid="197"/>
    <tile gid="1"/>
    <tile gid="197"/>
    <tile gid="1"/>
    <tile gid="197"/>
    <tile gid="1"/>
    <tile gid="197"/>
    <tile gid="1"/>
    <tile gid="197"/>
    <tile gid="1"/>
    <tile gid="1"/>
    <tile gid="1"/>
    <tile gid="1"/>
    <tile gid="1"/>
    <tile gid="1"/>
    <tile gid="1"/>
    <tile gid="1"/>
    <tile gid="1"/>
    <tile gid="1"/>
    <tile gid="1"/>
    <tile gid="1"/>
    <tile gid="1"/>
    <tile gid="1"/>
    <tile gid="258"/>
    <tile gid="1"/>
    <tile gid="257"/>
    <tile gid="1"/>
    <tile gid="1"/>
    <tile gid="1"/>
    <tile gid="1"/>
    <tile gid="258"/>
    <tile gid="1"/>
    <tile gid="1"/>
    <tile gid="257"/>
    <tile gid="1"/>
    <tile gid="1"/>
    <tile gid="1"/>
    <tile gid="1"/>
    <tile gid="1"/>
    <tile gid="1"/>
    <tile gid="1"/>
    <tile gid="1"/>
    <tile gid="1"/>
    <tile gid="1"/>
    <tile gid="1"/>
    <tile gid="1"/>
    <tile gid="1"/>
    <tile gid="1"/>
    <tile gid="1"/>
    <tile gid="1"/>
    <tile gid="1"/>
    <tile gid="1"/>
    <tile gid="1"/>
    <tile gid="1"/>
    <tile gid="1"/>
    <tile gid="1"/>
    <tile gid="1"/>
    <tile gid="1"/>
    <tile gid="1"/>
    <tile gid="1"/>
    <tile gid="1"/>
    <tile gid="1"/>
    <tile gid="1"/>
    <tile gid="1"/>
    <tile gid="1"/>
    <tile gid="1"/>
    <tile gid="1"/>
    <tile gid="1"/>
    <tile gid="1"/>
    <tile gid="1"/>
    <tile gid="1"/>
    <tile gid="1"/>
    <tile gid="1"/>
    <tile gid="258"/>
    <tile gid="1"/>
    <tile gid="257"/>
    <tile gid="1"/>
    <tile gid="1"/>
    <tile gid="1"/>
    <tile gid="1"/>
    <tile gid="258"/>
    <tile gid="1"/>
    <tile gid="1"/>
    <tile gid="257"/>
    <tile gid="1"/>
    <tile gid="1"/>
    <tile gid="1"/>
    <tile gid="1"/>
    <tile gid="1"/>
    <tile gid="1"/>
    <tile gid="1"/>
    <tile gid="1"/>
    <tile gid="1"/>
    <tile gid="1"/>
    <tile gid="1"/>
    <tile gid="1"/>
    <tile gid="1"/>
    <tile gid="1"/>
    <tile gid="1"/>
    <tile gid="1"/>
    <tile gid="1"/>
    <tile gid="1"/>
    <tile gid="1"/>
    <tile gid="1"/>
    <tile gid="1"/>
    <tile gid="1"/>
    <tile gid="1"/>
    <tile gid="1"/>
    <tile gid="1"/>
    <tile gid="1"/>
    <tile gid="1"/>
    <tile gid="1"/>
    <tile gid="1"/>
    <tile gid="1"/>
    <tile gid="1"/>
    <tile gid="1"/>
    <tile gid="1"/>
    <tile gid="1"/>
    <tile gid="1"/>
    <tile gid="1"/>
    <tile gid="1"/>
    <tile gid="1"/>
    <tile gid="1"/>
    <tile gid="258"/>
    <tile gid="1"/>
    <tile gid="257"/>
    <tile gid="1"/>
    <tile gid="1"/>
    <tile gid="1"/>
    <tile gid="1"/>
    <tile gid="258"/>
    <tile gid="1"/>
    <tile gid="1"/>
    <tile gid="257"/>
    <tile gid="1"/>
    <tile gid="1"/>
    <tile gid="1"/>
    <tile gid="1"/>
    <tile gid="1"/>
    <tile gid="1"/>
    <tile gid="1"/>
    <tile gid="1"/>
    <tile gid="1"/>
    <tile gid="1"/>
    <tile gid="1"/>
    <tile gid="1"/>
    <tile gid="1"/>
    <tile gid="1"/>
    <tile gid="1"/>
    <tile gid="1"/>
    <tile gid="1"/>
    <tile gid="1"/>
    <tile gid="1"/>
    <tile gid="1"/>
    <tile gid="1"/>
    <tile gid="1"/>
    <tile gid="1"/>
    <tile gid="1"/>
    <tile gid="1"/>
    <tile gid="1"/>
    <tile gid="1"/>
    <tile gid="1"/>
    <tile gid="1"/>
    <tile gid="1"/>
    <tile gid="1"/>
    <tile gid="1"/>
    <tile gid="1"/>
    <tile gid="1"/>
    <tile gid="1"/>
    <tile gid="1"/>
    <tile gid="1"/>
    <tile gid="1"/>
    <tile gid="1"/>
    <tile gid="258"/>
    <tile gid="1"/>
    <tile gid="257"/>
    <tile gid="1"/>
    <tile gid="1"/>
    <tile gid="1"/>
    <tile gid="1"/>
    <tile gid="258"/>
    <tile gid="1"/>
    <tile gid="1"/>
    <tile gid="257"/>
    <tile gid="1"/>
    <tile gid="1"/>
    <tile gid="1"/>
    <tile gid="1"/>
    <tile gid="1"/>
    <tile gid="1"/>
    <tile gid="1"/>
    <tile gid="1"/>
    <tile gid="1"/>
    <tile gid="258"/>
    <tile gid="1"/>
    <tile gid="1"/>
    <tile gid="1"/>
    <tile gid="1"/>
    <tile gid="1"/>
    <tile gid="1"/>
    <tile gid="1"/>
    <tile gid="1"/>
    <tile gid="1"/>
    <tile gid="1"/>
    <tile gid="1"/>
    <tile gid="1"/>
    <tile gid="1"/>
    <tile gid="1"/>
    <tile gid="260"/>
    <tile gid="1"/>
    <tile gid="1"/>
    <tile gid="1"/>
    <tile gid="1"/>
    <tile gid="1"/>
    <tile gid="1"/>
    <tile gid="1"/>
    <tile gid="1"/>
    <tile gid="1"/>
    <tile gid="1"/>
    <tile gid="1"/>
    <tile gid="1"/>
    <tile gid="1"/>
    <tile gid="1"/>
    <tile gid="258"/>
    <tile gid="1"/>
    <tile gid="257"/>
    <tile gid="1"/>
    <tile gid="1"/>
    <tile gid="1"/>
    <tile gid="1"/>
    <tile gid="258"/>
    <tile gid="1"/>
    <tile gid="1"/>
    <tile gid="257"/>
    <tile gid="1"/>
    <tile gid="1"/>
    <tile gid="1"/>
    <tile gid="1"/>
    <tile gid="1"/>
    <tile gid="1"/>
    <tile gid="1"/>
    <tile gid="1"/>
    <tile gid="1"/>
    <tile gid="258"/>
    <tile gid="1"/>
    <tile gid="1"/>
    <tile gid="1"/>
    <tile gid="1"/>
    <tile gid="1"/>
    <tile gid="1"/>
    <tile gid="1"/>
    <tile gid="1"/>
    <tile gid="1"/>
    <tile gid="1"/>
    <tile gid="1"/>
    <tile gid="1"/>
    <tile gid="1"/>
    <tile gid="1"/>
    <tile gid="257"/>
    <tile gid="1"/>
    <tile gid="1"/>
    <tile gid="1"/>
    <tile gid="1"/>
    <tile gid="1"/>
    <tile gid="1"/>
    <tile gid="1"/>
    <tile gid="1"/>
    <tile gid="1"/>
    <tile gid="1"/>
    <tile gid="1"/>
    <tile gid="1"/>
    <tile gid="1"/>
    <tile gid="1"/>
    <tile gid="258"/>
    <tile gid="1"/>
    <tile gid="257"/>
    <tile gid="1"/>
    <tile gid="1"/>
    <tile gid="1"/>
    <tile gid="1"/>
    <tile gid="258"/>
    <tile gid="1"/>
    <tile gid="1"/>
    <tile gid="257"/>
    <tile gid="1"/>
    <tile gid="1"/>
    <tile gid="1"/>
    <tile gid="1"/>
    <tile gid="1"/>
    <tile gid="1"/>
    <tile gid="1"/>
    <tile gid="1"/>
    <tile gid="1"/>
    <tile gid="258"/>
    <tile gid="1"/>
    <tile gid="1"/>
    <tile gid="1"/>
    <tile gid="1"/>
    <tile gid="1"/>
    <tile gid="1"/>
    <tile gid="1"/>
    <tile gid="1"/>
    <tile gid="1"/>
    <tile gid="1"/>
    <tile gid="1"/>
    <tile gid="1"/>
    <tile gid="1"/>
    <tile gid="1"/>
    <tile gid="257"/>
    <tile gid="1"/>
    <tile gid="1"/>
    <tile gid="1"/>
    <tile gid="1"/>
    <tile gid="1"/>
    <tile gid="1"/>
    <tile gid="1"/>
    <tile gid="1"/>
    <tile gid="1"/>
    <tile gid="1"/>
    <tile gid="1"/>
    <tile gid="1"/>
    <tile gid="1"/>
    <tile gid="1"/>
    <tile gid="258"/>
    <tile gid="1"/>
    <tile gid="257"/>
    <tile gid="1"/>
    <tile gid="1"/>
    <tile gid="1"/>
    <tile gid="1"/>
    <tile gid="258"/>
    <tile gid="1"/>
    <tile gid="1"/>
    <tile gid="289"/>
    <tile gid="1"/>
    <tile gid="98"/>
    <tile gid="98"/>
    <tile gid="1"/>
    <tile gid="1"/>
    <tile gid="98"/>
    <tile gid="1"/>
    <tile gid="1"/>
    <tile gid="1"/>
    <tile gid="290"/>
    <tile gid="1"/>
    <tile gid="1"/>
    <tile gid="1"/>
    <tile gid="1"/>
    <tile gid="1"/>
    <tile gid="1"/>
    <tile gid="1"/>
    <tile gid="1"/>
    <tile gid="1"/>
    <tile gid="1"/>
    <tile gid="1"/>
    <tile gid="1"/>
    <tile gid="1"/>
    <tile gid="1"/>
    <tile gid="257"/>
    <tile gid="1"/>
    <tile gid="1"/>
    <tile gid="1"/>
    <tile gid="1"/>
    <tile gid="1"/>
    <tile gid="1"/>
    <tile gid="1"/>
    <tile gid="1"/>
    <tile gid="1"/>
    <tile gid="1"/>
    <tile gid="1"/>
    <tile gid="1"/>
    <tile gid="1"/>
    <tile gid="1"/>
    <tile gid="258"/>
    <tile gid="1"/>
    <tile gid="257"/>
    <tile gid="1"/>
    <tile gid="1"/>
    <tile gid="1"/>
    <tile gid="1"/>
    <tile gid="258"/>
    <tile gid="1"/>
    <tile gid="1"/>
    <tile gid="1"/>
    <tile gid="1"/>
    <tile gid="1"/>
    <tile gid="1"/>
    <tile gid="1"/>
    <tile gid="1"/>
    <tile gid="1"/>
    <tile gid="1"/>
    <tile gid="1"/>
    <tile gid="1"/>
    <tile gid="1"/>
    <tile gid="1"/>
    <tile gid="1"/>
    <tile gid="1"/>
    <tile gid="1"/>
    <tile gid="1"/>
    <tile gid="1"/>
    <tile gid="1"/>
    <tile gid="1"/>
    <tile gid="1"/>
    <tile gid="1"/>
    <tile gid="1"/>
    <tile gid="1"/>
    <tile gid="1"/>
    <tile gid="1"/>
    <tile gid="257"/>
    <tile gid="1"/>
    <tile gid="1"/>
    <tile gid="1"/>
    <tile gid="1"/>
    <tile gid="1"/>
    <tile gid="1"/>
    <tile gid="1"/>
    <tile gid="1"/>
    <tile gid="1"/>
    <tile gid="1"/>
    <tile gid="1"/>
    <tile gid="1"/>
    <tile gid="1"/>
    <tile gid="1"/>
    <tile gid="258"/>
    <tile gid="1"/>
    <tile gid="257"/>
    <tile gid="1"/>
    <tile gid="1"/>
    <tile gid="1"/>
    <tile gid="1"/>
    <tile gid="258"/>
    <tile gid="1"/>
    <tile gid="1"/>
    <tile gid="1"/>
    <tile gid="1"/>
    <tile gid="1"/>
    <tile gid="1"/>
    <tile gid="1"/>
    <tile gid="1"/>
    <tile gid="1"/>
    <tile gid="1"/>
    <tile gid="1"/>
    <tile gid="1"/>
    <tile gid="1"/>
    <tile gid="1"/>
    <tile gid="1"/>
    <tile gid="1"/>
    <tile gid="1"/>
    <tile gid="1"/>
    <tile gid="1"/>
    <tile gid="1"/>
    <tile gid="1"/>
    <tile gid="1"/>
    <tile gid="1"/>
    <tile gid="1"/>
    <tile gid="1"/>
    <tile gid="1"/>
    <tile gid="1"/>
    <tile gid="289"/>
    <tile gid="1"/>
    <tile gid="1"/>
    <tile gid="1"/>
    <tile gid="1"/>
    <tile gid="1"/>
    <tile gid="1"/>
    <tile gid="1"/>
    <tile gid="1"/>
    <tile gid="1"/>
    <tile gid="1"/>
    <tile gid="1"/>
    <tile gid="1"/>
    <tile gid="1"/>
    <tile gid="1"/>
    <tile gid="290"/>
    <tile gid="1"/>
    <tile gid="257"/>
    <tile gid="1"/>
    <tile gid="1"/>
    <tile gid="1"/>
    <tile gid="1"/>
    <tile gid="258"/>
    <tile gid="1"/>
    <tile gid="1"/>
    <tile gid="1"/>
    <tile gid="1"/>
    <tile gid="1"/>
    <tile gid="1"/>
    <tile gid="1"/>
    <tile gid="1"/>
    <tile gid="1"/>
    <tile gid="1"/>
    <tile gid="1"/>
    <tile gid="1"/>
    <tile gid="1"/>
    <tile gid="1"/>
    <tile gid="1"/>
    <tile gid="1"/>
    <tile gid="1"/>
    <tile gid="1"/>
    <tile gid="1"/>
    <tile gid="1"/>
    <tile gid="1"/>
    <tile gid="1"/>
    <tile gid="1"/>
    <tile gid="1"/>
    <tile gid="1"/>
    <tile gid="1"/>
    <tile gid="1"/>
    <tile gid="1"/>
    <tile gid="1"/>
    <tile gid="1"/>
    <tile gid="1"/>
    <tile gid="1"/>
    <tile gid="1"/>
    <tile gid="1"/>
    <tile gid="1"/>
    <tile gid="1"/>
    <tile gid="1"/>
    <tile gid="1"/>
    <tile gid="1"/>
    <tile gid="1"/>
    <tile gid="1"/>
    <tile gid="1"/>
    <tile gid="1"/>
    <tile gid="1"/>
    <tile gid="257"/>
    <tile gid="1"/>
    <tile gid="1"/>
    <tile gid="1"/>
    <tile gid="1"/>
    <tile gid="258"/>
    <tile gid="1"/>
    <tile gid="1"/>
    <tile gid="1"/>
    <tile gid="1"/>
    <tile gid="1"/>
    <tile gid="1"/>
    <tile gid="1"/>
    <tile gid="1"/>
    <tile gid="1"/>
    <tile gid="1"/>
    <tile gid="1"/>
    <tile gid="1"/>
    <tile gid="1"/>
    <tile gid="1"/>
    <tile gid="1"/>
    <tile gid="1"/>
    <tile gid="1"/>
    <tile gid="1"/>
    <tile gid="1"/>
    <tile gid="1"/>
    <tile gid="1"/>
    <tile gid="1"/>
    <tile gid="1"/>
    <tile gid="1"/>
    <tile gid="1"/>
    <tile gid="1"/>
    <tile gid="1"/>
    <tile gid="1"/>
    <tile gid="1"/>
    <tile gid="1"/>
    <tile gid="1"/>
    <tile gid="1"/>
    <tile gid="1"/>
    <tile gid="1"/>
    <tile gid="1"/>
    <tile gid="1"/>
    <tile gid="1"/>
    <tile gid="1"/>
    <tile gid="1"/>
    <tile gid="1"/>
    <tile gid="1"/>
    <tile gid="1"/>
    <tile gid="1"/>
    <tile gid="1"/>
    <tile gid="257"/>
    <tile gid="1"/>
    <tile gid="1"/>
    <tile gid="1"/>
    <tile gid="1"/>
    <tile gid="258"/>
    <tile gid="1"/>
    <tile gid="1"/>
    <tile gid="1"/>
    <tile gid="1"/>
    <tile gid="1"/>
    <tile gid="1"/>
    <tile gid="1"/>
    <tile gid="1"/>
    <tile gid="1"/>
    <tile gid="1"/>
    <tile gid="1"/>
    <tile gid="1"/>
    <tile gid="1"/>
    <tile gid="1"/>
    <tile gid="1"/>
    <tile gid="1"/>
    <tile gid="1"/>
    <tile gid="1"/>
    <tile gid="1"/>
    <tile gid="1"/>
    <tile gid="1"/>
    <tile gid="1"/>
    <tile gid="1"/>
    <tile gid="1"/>
    <tile gid="1"/>
    <tile gid="1"/>
    <tile gid="1"/>
    <tile gid="1"/>
    <tile gid="1"/>
    <tile gid="1"/>
    <tile gid="1"/>
    <tile gid="1"/>
    <tile gid="1"/>
    <tile gid="1"/>
    <tile gid="1"/>
    <tile gid="1"/>
    <tile gid="1"/>
    <tile gid="1"/>
    <tile gid="1"/>
    <tile gid="1"/>
    <tile gid="1"/>
    <tile gid="1"/>
    <tile gid="1"/>
    <tile gid="1"/>
    <tile gid="257"/>
    <tile gid="1"/>
    <tile gid="1"/>
    <tile gid="1"/>
    <tile gid="1"/>
    <tile gid="258"/>
    <tile gid="1"/>
    <tile gid="1"/>
    <tile gid="1"/>
    <tile gid="1"/>
    <tile gid="1"/>
    <tile gid="1"/>
    <tile gid="1"/>
    <tile gid="1"/>
    <tile gid="1"/>
    <tile gid="1"/>
    <tile gid="1"/>
    <tile gid="1"/>
    <tile gid="1"/>
    <tile gid="1"/>
    <tile gid="1"/>
    <tile gid="1"/>
    <tile gid="1"/>
    <tile gid="1"/>
    <tile gid="1"/>
    <tile gid="1"/>
    <tile gid="1"/>
    <tile gid="1"/>
    <tile gid="1"/>
    <tile gid="1"/>
    <tile gid="1"/>
    <tile gid="1"/>
    <tile gid="1"/>
    <tile gid="1"/>
    <tile gid="1"/>
    <tile gid="1"/>
    <tile gid="1"/>
    <tile gid="1"/>
    <tile gid="1"/>
    <tile gid="1"/>
    <tile gid="1"/>
    <tile gid="1"/>
    <tile gid="1"/>
    <tile gid="1"/>
    <tile gid="1"/>
    <tile gid="1"/>
    <tile gid="1"/>
    <tile gid="1"/>
    <tile gid="1"/>
    <tile gid="1"/>
    <tile gid="257"/>
    <tile gid="1"/>
    <tile gid="1"/>
    <tile gid="1"/>
    <tile gid="1"/>
    <tile gid="258"/>
    <tile gid="1"/>
    <tile gid="1"/>
    <tile gid="225"/>
    <tile gid="2"/>
    <tile gid="2"/>
    <tile gid="2"/>
    <tile gid="2"/>
    <tile gid="2"/>
    <tile gid="2"/>
    <tile gid="2"/>
    <tile gid="2"/>
    <tile gid="228"/>
    <tile gid="226"/>
    <tile gid="1"/>
    <tile gid="1"/>
    <tile gid="1"/>
    <tile gid="1"/>
    <tile gid="1"/>
    <tile gid="1"/>
    <tile gid="1"/>
    <tile gid="1"/>
    <tile gid="1"/>
    <tile gid="1"/>
    <tile gid="1"/>
    <tile gid="1"/>
    <tile gid="1"/>
    <tile gid="1"/>
    <tile gid="1"/>
    <tile gid="1"/>
    <tile gid="1"/>
    <tile gid="1"/>
    <tile gid="1"/>
    <tile gid="1"/>
    <tile gid="1"/>
    <tile gid="1"/>
    <tile gid="1"/>
    <tile gid="1"/>
    <tile gid="1"/>
    <tile gid="1"/>
    <tile gid="1"/>
    <tile gid="1"/>
    <tile gid="225"/>
    <tile gid="227"/>
    <tile gid="2"/>
    <tile gid="292"/>
    <tile gid="1"/>
    <tile gid="1"/>
    <tile gid="1"/>
    <tile gid="1"/>
    <tile gid="291"/>
    <tile gid="2"/>
    <tile gid="226"/>
    <tile gid="257"/>
    <tile gid="34"/>
    <tile gid="34"/>
    <tile gid="34"/>
    <tile gid="34"/>
    <tile gid="34"/>
    <tile gid="34"/>
    <tile gid="34"/>
    <tile gid="34"/>
    <tile gid="35"/>
    <tile gid="258"/>
    <tile gid="1"/>
    <tile gid="1"/>
    <tile gid="1"/>
    <tile gid="1"/>
    <tile gid="1"/>
    <tile gid="1"/>
    <tile gid="1"/>
    <tile gid="1"/>
    <tile gid="1"/>
    <tile gid="1"/>
    <tile gid="1"/>
    <tile gid="1"/>
    <tile gid="1"/>
    <tile gid="1"/>
    <tile gid="1"/>
    <tile gid="1"/>
    <tile gid="1"/>
    <tile gid="1"/>
    <tile gid="1"/>
    <tile gid="1"/>
    <tile gid="1"/>
    <tile gid="1"/>
    <tile gid="1"/>
    <tile gid="1"/>
    <tile gid="1"/>
    <tile gid="1"/>
    <tile gid="1"/>
    <tile gid="1"/>
    <tile gid="257"/>
    <tile gid="323"/>
    <tile gid="34"/>
    <tile gid="324"/>
    <tile gid="1"/>
    <tile gid="1"/>
    <tile gid="1"/>
    <tile gid="1"/>
    <tile gid="323"/>
    <tile gid="34"/>
    <tile gid="258"/>
    <tile gid="257"/>
    <tile gid="1"/>
    <tile gid="1"/>
    <tile gid="1"/>
    <tile gid="1"/>
    <tile gid="1"/>
    <tile gid="1"/>
    <tile gid="1"/>
    <tile gid="1"/>
    <tile gid="1"/>
    <tile gid="258"/>
    <tile gid="1"/>
    <tile gid="1"/>
    <tile gid="1"/>
    <tile gid="1"/>
    <tile gid="1"/>
    <tile gid="1"/>
    <tile gid="1"/>
    <tile gid="1"/>
    <tile gid="1"/>
    <tile gid="1"/>
    <tile gid="1"/>
    <tile gid="1"/>
    <tile gid="1"/>
    <tile gid="1"/>
    <tile gid="1"/>
    <tile gid="1"/>
    <tile gid="1"/>
    <tile gid="1"/>
    <tile gid="1"/>
    <tile gid="1"/>
    <tile gid="1"/>
    <tile gid="1"/>
    <tile gid="1"/>
    <tile gid="1"/>
    <tile gid="1"/>
    <tile gid="1"/>
    <tile gid="1"/>
    <tile gid="1"/>
    <tile gid="257"/>
    <tile gid="1"/>
    <tile gid="1"/>
    <tile gid="1"/>
    <tile gid="1"/>
    <tile gid="1"/>
    <tile gid="1"/>
    <tile gid="1"/>
    <tile gid="1"/>
    <tile gid="1"/>
    <tile gid="258"/>
    <tile gid="257"/>
    <tile gid="1"/>
    <tile gid="1"/>
    <tile gid="1"/>
    <tile gid="1"/>
    <tile gid="1"/>
    <tile gid="1"/>
    <tile gid="1"/>
    <tile gid="1"/>
    <tile gid="1"/>
    <tile gid="262"/>
    <tile gid="2"/>
    <tile gid="2"/>
    <tile gid="2"/>
    <tile gid="2"/>
    <tile gid="167"/>
    <tile gid="2"/>
    <tile gid="2"/>
    <tile gid="2"/>
    <tile gid="2"/>
    <tile gid="167"/>
    <tile gid="2"/>
    <tile gid="2"/>
    <tile gid="2"/>
    <tile gid="2"/>
    <tile gid="167"/>
    <tile gid="2"/>
    <tile gid="2"/>
    <tile gid="2"/>
    <tile gid="2"/>
    <tile gid="167"/>
    <tile gid="2"/>
    <tile gid="2"/>
    <tile gid="2"/>
    <tile gid="2"/>
    <tile gid="167"/>
    <tile gid="2"/>
    <tile gid="2"/>
    <tile gid="2"/>
    <tile gid="261"/>
    <tile gid="1"/>
    <tile gid="1"/>
    <tile gid="1"/>
    <tile gid="1"/>
    <tile gid="1"/>
    <tile gid="1"/>
    <tile gid="1"/>
    <tile gid="1"/>
    <tile gid="1"/>
    <tile gid="258"/>
    <tile gid="257"/>
    <tile gid="1"/>
    <tile gid="198"/>
    <tile gid="1"/>
    <tile gid="1"/>
    <tile gid="1"/>
    <tile gid="1"/>
    <tile gid="1"/>
    <tile gid="198"/>
    <tile gid="1"/>
    <tile gid="34"/>
    <tile gid="34"/>
    <tile gid="165"/>
    <tile gid="165"/>
    <tile gid="34"/>
    <tile gid="199"/>
    <tile gid="34"/>
    <tile gid="165"/>
    <tile gid="165"/>
    <tile gid="34"/>
    <tile gid="199"/>
    <tile gid="34"/>
    <tile gid="165"/>
    <tile gid="165"/>
    <tile gid="34"/>
    <tile gid="199"/>
    <tile gid="34"/>
    <tile gid="165"/>
    <tile gid="165"/>
    <tile gid="34"/>
    <tile gid="199"/>
    <tile gid="34"/>
    <tile gid="165"/>
    <tile gid="165"/>
    <tile gid="34"/>
    <tile gid="199"/>
    <tile gid="34"/>
    <tile gid="165"/>
    <tile gid="165"/>
    <tile gid="34"/>
    <tile gid="1"/>
    <tile gid="1"/>
    <tile gid="1"/>
    <tile gid="1"/>
    <tile gid="1"/>
    <tile gid="1"/>
    <tile gid="1"/>
    <tile gid="1"/>
    <tile gid="1"/>
    <tile gid="258"/>
    <tile gid="257"/>
    <tile gid="1"/>
    <tile gid="230"/>
    <tile gid="1"/>
    <tile gid="1"/>
    <tile gid="1"/>
    <tile gid="1"/>
    <tile gid="1"/>
    <tile gid="230"/>
    <tile gid="1"/>
    <tile gid="1"/>
    <tile gid="1"/>
    <tile gid="197"/>
    <tile gid="197"/>
    <tile gid="1"/>
    <tile gid="1"/>
    <tile gid="1"/>
    <tile gid="197"/>
    <tile gid="197"/>
    <tile gid="1"/>
    <tile gid="1"/>
    <tile gid="1"/>
    <tile gid="197"/>
    <tile gid="197"/>
    <tile gid="1"/>
    <tile gid="1"/>
    <tile gid="1"/>
    <tile gid="197"/>
    <tile gid="197"/>
    <tile gid="1"/>
    <tile gid="1"/>
    <tile gid="1"/>
    <tile gid="197"/>
    <tile gid="197"/>
    <tile gid="1"/>
    <tile gid="1"/>
    <tile gid="1"/>
    <tile gid="197"/>
    <tile gid="197"/>
    <tile gid="1"/>
    <tile gid="1"/>
    <tile gid="1"/>
    <tile gid="1"/>
    <tile gid="1"/>
    <tile gid="1"/>
    <tile gid="1"/>
    <tile gid="1"/>
    <tile gid="1"/>
    <tile gid="1"/>
    <tile gid="258"/>
    <tile gid="257"/>
    <tile gid="1"/>
    <tile gid="1"/>
    <tile gid="1"/>
    <tile gid="1"/>
    <tile gid="1"/>
    <tile gid="1"/>
    <tile gid="1"/>
    <tile gid="1"/>
    <tile gid="1"/>
    <tile gid="1"/>
    <tile gid="1"/>
    <tile gid="1"/>
    <tile gid="1"/>
    <tile gid="1"/>
    <tile gid="1"/>
    <tile gid="1"/>
    <tile gid="1"/>
    <tile gid="1"/>
    <tile gid="1"/>
    <tile gid="1"/>
    <tile gid="1"/>
    <tile gid="1"/>
    <tile gid="1"/>
    <tile gid="1"/>
    <tile gid="1"/>
    <tile gid="1"/>
    <tile gid="1"/>
    <tile gid="1"/>
    <tile gid="1"/>
    <tile gid="1"/>
    <tile gid="1"/>
    <tile gid="1"/>
    <tile gid="1"/>
    <tile gid="1"/>
    <tile gid="1"/>
    <tile gid="1"/>
    <tile gid="1"/>
    <tile gid="1"/>
    <tile gid="1"/>
    <tile gid="1"/>
    <tile gid="1"/>
    <tile gid="1"/>
    <tile gid="1"/>
    <tile gid="1"/>
    <tile gid="1"/>
    <tile gid="1"/>
    <tile gid="1"/>
    <tile gid="1"/>
    <tile gid="258"/>
    <tile gid="257"/>
    <tile gid="1"/>
    <tile gid="1"/>
    <tile gid="1"/>
    <tile gid="1"/>
    <tile gid="1"/>
    <tile gid="1"/>
    <tile gid="1"/>
    <tile gid="1"/>
    <tile gid="1"/>
    <tile gid="1"/>
    <tile gid="1"/>
    <tile gid="1"/>
    <tile gid="1"/>
    <tile gid="1"/>
    <tile gid="1"/>
    <tile gid="1"/>
    <tile gid="1"/>
    <tile gid="1"/>
    <tile gid="1"/>
    <tile gid="1"/>
    <tile gid="1"/>
    <tile gid="1"/>
    <tile gid="1"/>
    <tile gid="1"/>
    <tile gid="1"/>
    <tile gid="1"/>
    <tile gid="1"/>
    <tile gid="1"/>
    <tile gid="1"/>
    <tile gid="1"/>
    <tile gid="1"/>
    <tile gid="1"/>
    <tile gid="1"/>
    <tile gid="1"/>
    <tile gid="1"/>
    <tile gid="1"/>
    <tile gid="1"/>
    <tile gid="1"/>
    <tile gid="1"/>
    <tile gid="1"/>
    <tile gid="1"/>
    <tile gid="1"/>
    <tile gid="1"/>
    <tile gid="1"/>
    <tile gid="1"/>
    <tile gid="1"/>
    <tile gid="1"/>
    <tile gid="1"/>
    <tile gid="258"/>
    <tile gid="257"/>
    <tile gid="1"/>
    <tile gid="1"/>
    <tile gid="1"/>
    <tile gid="1"/>
    <tile gid="1"/>
    <tile gid="1"/>
    <tile gid="1"/>
    <tile gid="1"/>
    <tile gid="1"/>
    <tile gid="1"/>
    <tile gid="1"/>
    <tile gid="1"/>
    <tile gid="1"/>
    <tile gid="1"/>
    <tile gid="1"/>
    <tile gid="1"/>
    <tile gid="1"/>
    <tile gid="1"/>
    <tile gid="1"/>
    <tile gid="1"/>
    <tile gid="1"/>
    <tile gid="1"/>
    <tile gid="1"/>
    <tile gid="1"/>
    <tile gid="1"/>
    <tile gid="1"/>
    <tile gid="1"/>
    <tile gid="1"/>
    <tile gid="1"/>
    <tile gid="1"/>
    <tile gid="1"/>
    <tile gid="1"/>
    <tile gid="1"/>
    <tile gid="1"/>
    <tile gid="1"/>
    <tile gid="1"/>
    <tile gid="1"/>
    <tile gid="1"/>
    <tile gid="1"/>
    <tile gid="1"/>
    <tile gid="1"/>
    <tile gid="1"/>
    <tile gid="1"/>
    <tile gid="1"/>
    <tile gid="1"/>
    <tile gid="1"/>
    <tile gid="1"/>
    <tile gid="1"/>
    <tile gid="258"/>
    <tile gid="257"/>
    <tile gid="1"/>
    <tile gid="198"/>
    <tile gid="1"/>
    <tile gid="1"/>
    <tile gid="1"/>
    <tile gid="1"/>
    <tile gid="1"/>
    <tile gid="198"/>
    <tile gid="1"/>
    <tile gid="258"/>
    <tile gid="1"/>
    <tile gid="1"/>
    <tile gid="1"/>
    <tile gid="1"/>
    <tile gid="1"/>
    <tile gid="1"/>
    <tile gid="1"/>
    <tile gid="1"/>
    <tile gid="1"/>
    <tile gid="1"/>
    <tile gid="1"/>
    <tile gid="1"/>
    <tile gid="1"/>
    <tile gid="1"/>
    <tile gid="1"/>
    <tile gid="1"/>
    <tile gid="1"/>
    <tile gid="1"/>
    <tile gid="1"/>
    <tile gid="1"/>
    <tile gid="1"/>
    <tile gid="1"/>
    <tile gid="1"/>
    <tile gid="1"/>
    <tile gid="1"/>
    <tile gid="1"/>
    <tile gid="1"/>
    <tile gid="1"/>
    <tile gid="260"/>
    <tile gid="1"/>
    <tile gid="1"/>
    <tile gid="1"/>
    <tile gid="1"/>
    <tile gid="1"/>
    <tile gid="1"/>
    <tile gid="1"/>
    <tile gid="1"/>
    <tile gid="1"/>
    <tile gid="258"/>
    <tile gid="257"/>
    <tile gid="1"/>
    <tile gid="230"/>
    <tile gid="1"/>
    <tile gid="1"/>
    <tile gid="1"/>
    <tile gid="1"/>
    <tile gid="1"/>
    <tile gid="230"/>
    <tile gid="1"/>
    <tile gid="258"/>
    <tile gid="1"/>
    <tile gid="1"/>
    <tile gid="1"/>
    <tile gid="1"/>
    <tile gid="1"/>
    <tile gid="1"/>
    <tile gid="1"/>
    <tile gid="1"/>
    <tile gid="1"/>
    <tile gid="1"/>
    <tile gid="1"/>
    <tile gid="1"/>
    <tile gid="1"/>
    <tile gid="1"/>
    <tile gid="1"/>
    <tile gid="1"/>
    <tile gid="1"/>
    <tile gid="1"/>
    <tile gid="1"/>
    <tile gid="1"/>
    <tile gid="1"/>
    <tile gid="1"/>
    <tile gid="1"/>
    <tile gid="1"/>
    <tile gid="1"/>
    <tile gid="1"/>
    <tile gid="1"/>
    <tile gid="1"/>
    <tile gid="257"/>
    <tile gid="1"/>
    <tile gid="1"/>
    <tile gid="1"/>
    <tile gid="1"/>
    <tile gid="1"/>
    <tile gid="1"/>
    <tile gid="1"/>
    <tile gid="1"/>
    <tile gid="1"/>
    <tile gid="258"/>
    <tile gid="257"/>
    <tile gid="1"/>
    <tile gid="1"/>
    <tile gid="1"/>
    <tile gid="1"/>
    <tile gid="1"/>
    <tile gid="1"/>
    <tile gid="1"/>
    <tile gid="1"/>
    <tile gid="1"/>
    <tile gid="258"/>
    <tile gid="1"/>
    <tile gid="1"/>
    <tile gid="1"/>
    <tile gid="1"/>
    <tile gid="1"/>
    <tile gid="1"/>
    <tile gid="1"/>
    <tile gid="1"/>
    <tile gid="1"/>
    <tile gid="1"/>
    <tile gid="1"/>
    <tile gid="1"/>
    <tile gid="1"/>
    <tile gid="1"/>
    <tile gid="1"/>
    <tile gid="1"/>
    <tile gid="1"/>
    <tile gid="1"/>
    <tile gid="1"/>
    <tile gid="1"/>
    <tile gid="1"/>
    <tile gid="1"/>
    <tile gid="1"/>
    <tile gid="1"/>
    <tile gid="1"/>
    <tile gid="1"/>
    <tile gid="1"/>
    <tile gid="1"/>
    <tile gid="257"/>
    <tile gid="1"/>
    <tile gid="1"/>
    <tile gid="1"/>
    <tile gid="1"/>
    <tile gid="1"/>
    <tile gid="1"/>
    <tile gid="1"/>
    <tile gid="1"/>
    <tile gid="1"/>
    <tile gid="258"/>
    <tile gid="289"/>
    <tile gid="1"/>
    <tile gid="1"/>
    <tile gid="1"/>
    <tile gid="1"/>
    <tile gid="1"/>
    <tile gid="1"/>
    <tile gid="1"/>
    <tile gid="1"/>
    <tile gid="1"/>
    <tile gid="290"/>
    <tile gid="1"/>
    <tile gid="1"/>
    <tile gid="1"/>
    <tile gid="1"/>
    <tile gid="1"/>
    <tile gid="1"/>
    <tile gid="1"/>
    <tile gid="1"/>
    <tile gid="1"/>
    <tile gid="1"/>
    <tile gid="1"/>
    <tile gid="1"/>
    <tile gid="1"/>
    <tile gid="1"/>
    <tile gid="1"/>
    <tile gid="1"/>
    <tile gid="1"/>
    <tile gid="1"/>
    <tile gid="1"/>
    <tile gid="1"/>
    <tile gid="1"/>
    <tile gid="1"/>
    <tile gid="1"/>
    <tile gid="1"/>
    <tile gid="1"/>
    <tile gid="1"/>
    <tile gid="1"/>
    <tile gid="1"/>
    <tile gid="289"/>
    <tile gid="1"/>
    <tile gid="1"/>
    <tile gid="1"/>
    <tile gid="1"/>
    <tile gid="1"/>
    <tile gid="1"/>
    <tile gid="1"/>
    <tile gid="1"/>
    <tile gid="1"/>
    <tile gid="290"/>
   </data>
  </layer>
  <layer id="72" name="upper_walls" width="50" height="50">
   <data>
    <tile gid="1"/>
    <tile gid="1"/>
    <tile gid="1"/>
    <tile gid="1"/>
    <tile gid="1"/>
    <tile gid="1"/>
    <tile gid="1"/>
    <tile gid="1"/>
    <tile gid="1"/>
    <tile gid="1"/>
    <tile gid="1"/>
    <tile gid="1"/>
    <tile gid="1"/>
    <tile gid="1"/>
    <tile gid="1"/>
    <tile gid="1"/>
    <tile gid="1"/>
    <tile gid="1"/>
    <tile gid="1"/>
    <tile gid="1"/>
    <tile gid="1"/>
    <tile gid="1"/>
    <tile gid="1"/>
    <tile gid="1"/>
    <tile gid="1"/>
    <tile gid="1"/>
    <tile gid="1"/>
    <tile gid="1"/>
    <tile gid="1"/>
    <tile gid="1"/>
    <tile gid="1"/>
    <tile gid="1"/>
    <tile gid="1"/>
    <tile gid="1"/>
    <tile gid="1"/>
    <tile gid="1"/>
    <tile gid="1"/>
    <tile gid="1"/>
    <tile gid="1"/>
    <tile gid="1"/>
    <tile gid="1"/>
    <tile gid="1"/>
    <tile gid="1"/>
    <tile gid="1"/>
    <tile gid="1"/>
    <tile gid="1"/>
    <tile gid="1"/>
    <tile gid="1"/>
    <tile gid="1"/>
    <tile gid="1"/>
    <tile gid="1"/>
    <tile gid="1"/>
    <tile gid="1"/>
    <tile gid="1"/>
    <tile gid="1"/>
    <tile gid="1"/>
    <tile gid="1"/>
    <tile gid="1"/>
    <tile gid="1"/>
    <tile gid="1"/>
    <tile gid="1"/>
    <tile gid="1"/>
    <tile gid="1"/>
    <tile gid="1"/>
    <tile gid="1"/>
    <tile gid="1"/>
    <tile gid="1"/>
    <tile gid="1"/>
    <tile gid="1"/>
    <tile gid="1"/>
    <tile gid="1"/>
    <tile gid="1"/>
    <tile gid="1"/>
    <tile gid="1"/>
    <tile gid="1"/>
    <tile gid="1"/>
    <tile gid="1"/>
    <tile gid="1"/>
    <tile gid="1"/>
    <tile gid="1"/>
    <tile gid="1"/>
    <tile gid="1"/>
    <tile gid="1"/>
    <tile gid="1"/>
    <tile gid="1"/>
    <tile gid="1"/>
    <tile gid="1"/>
    <tile gid="1"/>
    <tile gid="1"/>
    <tile gid="1"/>
    <tile gid="1"/>
    <tile gid="1"/>
    <tile gid="1"/>
    <tile gid="1"/>
    <tile gid="1"/>
    <tile gid="1"/>
    <tile gid="1"/>
    <tile gid="1"/>
    <tile gid="1"/>
    <tile gid="1"/>
    <tile gid="1"/>
    <tile gid="1"/>
    <tile gid="1"/>
    <tile gid="1"/>
    <tile gid="1"/>
    <tile gid="1"/>
    <tile gid="1"/>
    <tile gid="1"/>
    <tile gid="1"/>
    <tile gid="1"/>
    <tile gid="1"/>
    <tile gid="1"/>
    <tile gid="1"/>
    <tile gid="1"/>
    <tile gid="1"/>
    <tile gid="1"/>
    <tile gid="1"/>
    <tile gid="1"/>
    <tile gid="1"/>
    <tile gid="1"/>
    <tile gid="1"/>
    <tile gid="1"/>
    <tile gid="1"/>
    <tile gid="1"/>
    <tile gid="1"/>
    <tile gid="1"/>
    <tile gid="1"/>
    <tile gid="1"/>
    <tile gid="1"/>
    <tile gid="1"/>
    <tile gid="1"/>
    <tile gid="1"/>
    <tile gid="1"/>
    <tile gid="1"/>
    <tile gid="1"/>
    <tile gid="1"/>
    <tile gid="1"/>
    <tile gid="1"/>
    <tile gid="1"/>
    <tile gid="1"/>
    <tile gid="1"/>
    <tile gid="1"/>
    <tile gid="1"/>
    <tile gid="1"/>
    <tile gid="1"/>
    <tile gid="1"/>
    <tile gid="1"/>
    <tile gid="1"/>
    <tile gid="1"/>
    <tile gid="1"/>
    <tile gid="1"/>
    <tile gid="1"/>
    <tile gid="1"/>
    <tile gid="1"/>
    <tile gid="1"/>
    <tile gid="1"/>
    <tile gid="1"/>
    <tile gid="1"/>
    <tile gid="1"/>
    <tile gid="1"/>
    <tile gid="1"/>
    <tile gid="1"/>
    <tile gid="1"/>
    <tile gid="1"/>
    <tile gid="1"/>
    <tile gid="1"/>
    <tile gid="1"/>
    <tile gid="1"/>
    <tile gid="1"/>
    <tile gid="1"/>
    <tile gid="1"/>
    <tile gid="1"/>
    <tile gid="1"/>
    <tile gid="1"/>
    <tile gid="1"/>
    <tile gid="1"/>
    <tile gid="1"/>
    <tile gid="1"/>
    <tile gid="1"/>
    <tile gid="1"/>
    <tile gid="1"/>
    <tile gid="1"/>
    <tile gid="1"/>
    <tile gid="1"/>
    <tile gid="1"/>
    <tile gid="1"/>
    <tile gid="1"/>
    <tile gid="1"/>
    <tile gid="1"/>
    <tile gid="1"/>
    <tile gid="1"/>
    <tile gid="1"/>
    <tile gid="1"/>
    <tile gid="1"/>
    <tile gid="1"/>
    <tile gid="1"/>
    <tile gid="1"/>
    <tile gid="1"/>
    <tile gid="1"/>
    <tile gid="1"/>
    <tile gid="1"/>
    <tile gid="1"/>
    <tile gid="1"/>
    <tile gid="1"/>
    <tile gid="1"/>
    <tile gid="1"/>
    <tile gid="1"/>
    <tile gid="1"/>
    <tile gid="1"/>
    <tile gid="1"/>
    <tile gid="1"/>
    <tile gid="1"/>
    <tile gid="1"/>
    <tile gid="1"/>
    <tile gid="1"/>
    <tile gid="1"/>
    <tile gid="1"/>
    <tile gid="1"/>
    <tile gid="1"/>
    <tile gid="1"/>
    <tile gid="1"/>
    <tile gid="1"/>
    <tile gid="1"/>
    <tile gid="1"/>
    <tile gid="1"/>
    <tile gid="1"/>
    <tile gid="1"/>
    <tile gid="1"/>
    <tile gid="1"/>
    <tile gid="1"/>
    <tile gid="1"/>
    <tile gid="1"/>
    <tile gid="1"/>
    <tile gid="1"/>
    <tile gid="1"/>
    <tile gid="1"/>
    <tile gid="1"/>
    <tile gid="1"/>
    <tile gid="1"/>
    <tile gid="1"/>
    <tile gid="1"/>
    <tile gid="1"/>
    <tile gid="1"/>
    <tile gid="1"/>
    <tile gid="1"/>
    <tile gid="1"/>
    <tile gid="1"/>
    <tile gid="1"/>
    <tile gid="1"/>
    <tile gid="1"/>
    <tile gid="1"/>
    <tile gid="1"/>
    <tile gid="1"/>
    <tile gid="1"/>
    <tile gid="1"/>
    <tile gid="1"/>
    <tile gid="1"/>
    <tile gid="1"/>
    <tile gid="1"/>
    <tile gid="1"/>
    <tile gid="1"/>
    <tile gid="1"/>
    <tile gid="1"/>
    <tile gid="1"/>
    <tile gid="1"/>
    <tile gid="1"/>
    <tile gid="1"/>
    <tile gid="1"/>
    <tile gid="1"/>
    <tile gid="1"/>
    <tile gid="1"/>
    <tile gid="1"/>
    <tile gid="1"/>
    <tile gid="1"/>
    <tile gid="1"/>
    <tile gid="1"/>
    <tile gid="1"/>
    <tile gid="1"/>
    <tile gid="1"/>
    <tile gid="1"/>
    <tile gid="1"/>
    <tile gid="1"/>
    <tile gid="1"/>
    <tile gid="1"/>
    <tile gid="1"/>
    <tile gid="1"/>
    <tile gid="1"/>
    <tile gid="1"/>
    <tile gid="1"/>
    <tile gid="1"/>
    <tile gid="1"/>
    <tile gid="1"/>
    <tile gid="1"/>
    <tile gid="1"/>
    <tile gid="1"/>
    <tile gid="1"/>
    <tile gid="1"/>
    <tile gid="1"/>
    <tile gid="1"/>
    <tile gid="1"/>
    <tile gid="1"/>
    <tile gid="1"/>
    <tile gid="1"/>
    <tile gid="1"/>
    <tile gid="1"/>
    <tile gid="1"/>
    <tile gid="1"/>
    <tile gid="1"/>
    <tile gid="1"/>
    <tile gid="1"/>
    <tile gid="1"/>
    <tile gid="1"/>
    <tile gid="1"/>
    <tile gid="1"/>
    <tile gid="1"/>
    <tile gid="1"/>
    <tile gid="1"/>
    <tile gid="1"/>
    <tile gid="1"/>
    <tile gid="1"/>
    <tile gid="1"/>
    <tile gid="1"/>
    <tile gid="1"/>
    <tile gid="1"/>
    <tile gid="1"/>
    <tile gid="1"/>
    <tile gid="1"/>
    <tile gid="1"/>
    <tile gid="1"/>
    <tile gid="1"/>
    <tile gid="1"/>
    <tile gid="1"/>
    <tile gid="1"/>
    <tile gid="1"/>
    <tile gid="1"/>
    <tile gid="1"/>
    <tile gid="1"/>
    <tile gid="1"/>
    <tile gid="1"/>
    <tile gid="1"/>
    <tile gid="1"/>
    <tile gid="1"/>
    <tile gid="1"/>
    <tile gid="1"/>
    <tile gid="1"/>
    <tile gid="1"/>
    <tile gid="1"/>
    <tile gid="1"/>
    <tile gid="1"/>
    <tile gid="1"/>
    <tile gid="1"/>
    <tile gid="1"/>
    <tile gid="1"/>
    <tile gid="1"/>
    <tile gid="1"/>
    <tile gid="1"/>
    <tile gid="1"/>
    <tile gid="1"/>
    <tile gid="1"/>
    <tile gid="1"/>
    <tile gid="1"/>
    <tile gid="1"/>
    <tile gid="1"/>
    <tile gid="1"/>
    <tile gid="1"/>
    <tile gid="1"/>
    <tile gid="1"/>
    <tile gid="1"/>
    <tile gid="1"/>
    <tile gid="1"/>
    <tile gid="1"/>
    <tile gid="1"/>
    <tile gid="1"/>
    <tile gid="1"/>
    <tile gid="1"/>
    <tile gid="1"/>
    <tile gid="1"/>
    <tile gid="1"/>
    <tile gid="1"/>
    <tile gid="1"/>
    <tile gid="1"/>
    <tile gid="1"/>
    <tile gid="1"/>
    <tile gid="1"/>
    <tile gid="1"/>
    <tile gid="1"/>
    <tile gid="1"/>
    <tile gid="1"/>
    <tile gid="1"/>
    <tile gid="1"/>
    <tile gid="1"/>
    <tile gid="1"/>
    <tile gid="1"/>
    <tile gid="1"/>
    <tile gid="1"/>
    <tile gid="1"/>
    <tile gid="1"/>
    <tile gid="1"/>
    <tile gid="1"/>
    <tile gid="1"/>
    <tile gid="1"/>
    <tile gid="1"/>
    <tile gid="1"/>
    <tile gid="1"/>
    <tile gid="1"/>
    <tile gid="1"/>
    <tile gid="1"/>
    <tile gid="1"/>
    <tile gid="1"/>
    <tile gid="1"/>
    <tile gid="2"/>
    <tile gid="2"/>
    <tile gid="2"/>
    <tile gid="2"/>
    <tile gid="2"/>
    <tile gid="2"/>
    <tile gid="2"/>
    <tile gid="2"/>
    <tile gid="2"/>
    <tile gid="2"/>
    <tile gid="2"/>
    <tile gid="2"/>
    <tile gid="2"/>
    <tile gid="2"/>
    <tile gid="2"/>
    <tile gid="2"/>
    <tile gid="2"/>
    <tile gid="2"/>
    <tile gid="2"/>
    <tile gid="2"/>
    <tile gid="2"/>
    <tile gid="2"/>
    <tile gid="2"/>
    <tile gid="2"/>
    <tile gid="2"/>
    <tile gid="2"/>
    <tile gid="2"/>
    <tile gid="2"/>
    <tile gid="2"/>
    <tile gid="228"/>
    <tile gid="1"/>
    <tile gid="1"/>
    <tile gid="1"/>
    <tile gid="1"/>
    <tile gid="1"/>
    <tile gid="1"/>
    <tile gid="1"/>
    <tile gid="1"/>
    <tile gid="1"/>
    <tile gid="1"/>
    <tile gid="1"/>
    <tile gid="1"/>
    <tile gid="1"/>
    <tile gid="1"/>
    <tile gid="1"/>
    <tile gid="1"/>
    <tile gid="1"/>
    <tile gid="1"/>
    <tile gid="1"/>
    <tile gid="1"/>
    <tile gid="259"/>
    <tile gid="34"/>
    <tile gid="34"/>
    <tile gid="34"/>
    <tile gid="34"/>
    <tile gid="34"/>
    <tile gid="34"/>
    <tile gid="34"/>
    <tile gid="34"/>
    <tile gid="34"/>
    <tile gid="34"/>
    <tile gid="34"/>
    <tile gid="34"/>
    <tile gid="34"/>
    <tile gid="34"/>
    <tile gid="34"/>
    <tile gid="34"/>
    <tile gid="34"/>
    <tile gid="34"/>
    <tile gid="34"/>
    <tile gid="34"/>
    <tile gid="34"/>
    <tile gid="34"/>
    <tile gid="34"/>
    <tile gid="34"/>
    <tile gid="34"/>
    <tile gid="34"/>
    <tile gid="34"/>
    <tile gid="34"/>
    <tile gid="260"/>
    <tile gid="1"/>
    <tile gid="1"/>
    <tile gid="1"/>
    <tile gid="1"/>
    <tile gid="1"/>
    <tile gid="1"/>
    <tile gid="1"/>
    <tile gid="1"/>
    <tile gid="1"/>
    <tile gid="1"/>
    <tile gid="1"/>
    <tile gid="1"/>
    <tile gid="1"/>
    <tile gid="1"/>
    <tile gid="1"/>
    <tile gid="1"/>
    <tile gid="1"/>
    <tile gid="1"/>
    <tile gid="1"/>
    <tile gid="1"/>
    <tile gid="1"/>
    <tile gid="1"/>
    <tile gid="1"/>
    <tile gid="1"/>
    <tile gid="1"/>
    <tile gid="1"/>
    <tile gid="1"/>
    <tile gid="1"/>
    <tile gid="1"/>
    <tile gid="1"/>
    <tile gid="1"/>
    <tile gid="1"/>
    <tile gid="1"/>
    <tile gid="1"/>
    <tile gid="1"/>
    <tile gid="1"/>
    <tile gid="1"/>
    <tile gid="1"/>
    <tile gid="1"/>
    <tile gid="1"/>
    <tile gid="1"/>
    <tile gid="1"/>
    <tile gid="1"/>
    <tile gid="1"/>
    <tile gid="1"/>
    <tile gid="1"/>
    <tile gid="1"/>
    <tile gid="1"/>
    <tile gid="1"/>
    <tile gid="1"/>
    <tile gid="1"/>
    <tile gid="1"/>
    <tile gid="1"/>
    <tile gid="1"/>
    <tile gid="1"/>
    <tile gid="1"/>
    <tile gid="1"/>
    <tile gid="1"/>
    <tile gid="1"/>
    <tile gid="1"/>
    <tile gid="1"/>
    <tile gid="2"/>
    <tile gid="228"/>
    <tile gid="1"/>
    <tile gid="1"/>
    <tile gid="1"/>
    <tile gid="1"/>
    <tile gid="227"/>
    <tile gid="2"/>
    <tile gid="228"/>
    <tile gid="1"/>
    <tile gid="1"/>
    <tile gid="1"/>
    <tile gid="1"/>
    <tile gid="1"/>
    <tile gid="1"/>
    <tile gid="1"/>
    <tile gid="1"/>
    <tile gid="1"/>
    <tile gid="1"/>
    <tile gid="1"/>
    <tile gid="1"/>
    <tile gid="1"/>
    <tile gid="1"/>
    <tile gid="1"/>
    <tile gid="1"/>
    <tile gid="1"/>
    <tile gid="1"/>
    <tile gid="1"/>
    <tile gid="1"/>
    <tile gid="1"/>
    <tile gid="1"/>
    <tile gid="1"/>
    <tile gid="1"/>
    <tile gid="1"/>
    <tile gid="1"/>
    <tile gid="1"/>
    <tile gid="1"/>
    <tile gid="1"/>
    <tile gid="1"/>
    <tile gid="227"/>
    <tile gid="2"/>
    <tile gid="228"/>
    <tile gid="1"/>
    <tile gid="1"/>
    <tile gid="1"/>
    <tile gid="1"/>
    <tile gid="227"/>
    <tile gid="2"/>
    <tile gid="1"/>
    <tile gid="289"/>
    <tile gid="98"/>
    <tile gid="260"/>
    <tile gid="1"/>
    <tile gid="1"/>
    <tile gid="1"/>
    <tile gid="1"/>
    <tile gid="259"/>
    <tile gid="98"/>
    <tile gid="324"/>
    <tile gid="1"/>
    <tile gid="1"/>
    <tile gid="1"/>
    <tile gid="1"/>
    <tile gid="1"/>
    <tile gid="1"/>
    <tile gid="1"/>
    <tile gid="1"/>
    <tile gid="1"/>
    <tile gid="1"/>
    <tile gid="1"/>
    <tile gid="1"/>
    <tile gid="1"/>
    <tile gid="1"/>
    <tile gid="1"/>
    <tile gid="1"/>
    <tile gid="1"/>
    <tile gid="1"/>
    <tile gid="1"/>
    <tile gid="1"/>
    <tile gid="1"/>
    <tile gid="1"/>
    <tile gid="1"/>
    <tile gid="1"/>
    <tile gid="1"/>
    <tile gid="1"/>
    <tile gid="1"/>
    <tile gid="1"/>
    <tile gid="1"/>
    <tile gid="1"/>
    <tile gid="323"/>
    <tile gid="98"/>
    <tile gid="260"/>
    <tile gid="1"/>
    <tile gid="1"/>
    <tile gid="1"/>
    <tile gid="1"/>
    <tile gid="259"/>
    <tile gid="98"/>
    <tile gid="1"/>
    <tile gid="1"/>
    <tile gid="1"/>
    <tile gid="1"/>
    <tile gid="1"/>
    <tile gid="1"/>
    <tile gid="1"/>
    <tile gid="1"/>
    <tile gid="1"/>
    <tile gid="1"/>
    <tile gid="1"/>
    <tile gid="1"/>
    <tile gid="1"/>
    <tile gid="1"/>
    <tile gid="1"/>
    <tile gid="1"/>
    <tile gid="1"/>
    <tile gid="1"/>
    <tile gid="1"/>
    <tile gid="1"/>
    <tile gid="1"/>
    <tile gid="1"/>
    <tile gid="1"/>
    <tile gid="1"/>
    <tile gid="1"/>
    <tile gid="1"/>
    <tile gid="1"/>
    <tile gid="1"/>
    <tile gid="1"/>
    <tile gid="1"/>
    <tile gid="1"/>
    <tile gid="1"/>
    <tile gid="1"/>
    <tile gid="1"/>
    <tile gid="1"/>
    <tile gid="1"/>
    <tile gid="1"/>
    <tile gid="1"/>
    <tile gid="1"/>
    <tile gid="1"/>
    <tile gid="1"/>
    <tile gid="1"/>
    <tile gid="1"/>
    <tile gid="1"/>
    <tile gid="1"/>
    <tile gid="1"/>
    <tile gid="1"/>
    <tile gid="1"/>
    <tile gid="1"/>
    <tile gid="1"/>
    <tile gid="1"/>
    <tile gid="1"/>
    <tile gid="1"/>
    <tile gid="1"/>
    <tile gid="1"/>
    <tile gid="1"/>
    <tile gid="1"/>
    <tile gid="1"/>
    <tile gid="1"/>
    <tile gid="1"/>
    <tile gid="1"/>
    <tile gid="1"/>
    <tile gid="1"/>
    <tile gid="1"/>
    <tile gid="1"/>
    <tile gid="1"/>
    <tile gid="1"/>
    <tile gid="1"/>
    <tile gid="1"/>
    <tile gid="1"/>
    <tile gid="1"/>
    <tile gid="1"/>
    <tile gid="1"/>
    <tile gid="1"/>
    <tile gid="1"/>
    <tile gid="1"/>
    <tile gid="1"/>
    <tile gid="1"/>
    <tile gid="1"/>
    <tile gid="1"/>
    <tile gid="1"/>
    <tile gid="1"/>
    <tile gid="1"/>
    <tile gid="1"/>
    <tile gid="1"/>
    <tile gid="1"/>
    <tile gid="1"/>
    <tile gid="1"/>
    <tile gid="1"/>
    <tile gid="1"/>
    <tile gid="1"/>
    <tile gid="1"/>
    <tile gid="1"/>
    <tile gid="1"/>
    <tile gid="1"/>
    <tile gid="1"/>
    <tile gid="1"/>
    <tile gid="1"/>
    <tile gid="1"/>
    <tile gid="1"/>
    <tile gid="1"/>
    <tile gid="1"/>
    <tile gid="1"/>
    <tile gid="1"/>
    <tile gid="1"/>
    <tile gid="1"/>
    <tile gid="1"/>
    <tile gid="1"/>
    <tile gid="1"/>
    <tile gid="1"/>
    <tile gid="1"/>
    <tile gid="1"/>
    <tile gid="1"/>
    <tile gid="1"/>
    <tile gid="1"/>
    <tile gid="1"/>
    <tile gid="1"/>
    <tile gid="1"/>
    <tile gid="1"/>
    <tile gid="1"/>
    <tile gid="1"/>
    <tile gid="1"/>
    <tile gid="1"/>
    <tile gid="1"/>
    <tile gid="1"/>
    <tile gid="1"/>
    <tile gid="1"/>
    <tile gid="1"/>
    <tile gid="1"/>
    <tile gid="1"/>
    <tile gid="1"/>
    <tile gid="1"/>
    <tile gid="1"/>
    <tile gid="1"/>
    <tile gid="1"/>
    <tile gid="1"/>
    <tile gid="1"/>
    <tile gid="1"/>
    <tile gid="1"/>
    <tile gid="1"/>
    <tile gid="1"/>
    <tile gid="1"/>
    <tile gid="1"/>
    <tile gid="1"/>
    <tile gid="1"/>
    <tile gid="1"/>
    <tile gid="1"/>
    <tile gid="1"/>
    <tile gid="1"/>
    <tile gid="1"/>
    <tile gid="1"/>
    <tile gid="1"/>
    <tile gid="1"/>
    <tile gid="1"/>
    <tile gid="1"/>
    <tile gid="1"/>
    <tile gid="1"/>
    <tile gid="1"/>
    <tile gid="1"/>
    <tile gid="1"/>
    <tile gid="1"/>
    <tile gid="1"/>
    <tile gid="1"/>
    <tile gid="1"/>
    <tile gid="1"/>
    <tile gid="1"/>
    <tile gid="1"/>
    <tile gid="1"/>
    <tile gid="1"/>
    <tile gid="1"/>
    <tile gid="1"/>
    <tile gid="1"/>
    <tile gid="1"/>
    <tile gid="1"/>
    <tile gid="1"/>
    <tile gid="1"/>
    <tile gid="1"/>
    <tile gid="1"/>
    <tile gid="1"/>
    <tile gid="1"/>
    <tile gid="1"/>
    <tile gid="1"/>
    <tile gid="1"/>
    <tile gid="1"/>
    <tile gid="1"/>
    <tile gid="1"/>
    <tile gid="1"/>
    <tile gid="1"/>
    <tile gid="1"/>
    <tile gid="1"/>
    <tile gid="1"/>
    <tile gid="1"/>
    <tile gid="1"/>
    <tile gid="1"/>
    <tile gid="1"/>
    <tile gid="1"/>
    <tile gid="1"/>
    <tile gid="1"/>
    <tile gid="1"/>
    <tile gid="1"/>
    <tile gid="1"/>
    <tile gid="1"/>
    <tile gid="1"/>
    <tile gid="1"/>
    <tile gid="1"/>
    <tile gid="1"/>
    <tile gid="1"/>
    <tile gid="1"/>
    <tile gid="1"/>
    <tile gid="1"/>
    <tile gid="1"/>
    <tile gid="1"/>
    <tile gid="1"/>
    <tile gid="1"/>
    <tile gid="1"/>
    <tile gid="1"/>
    <tile gid="1"/>
    <tile gid="1"/>
    <tile gid="1"/>
    <tile gid="1"/>
    <tile gid="1"/>
    <tile gid="1"/>
    <tile gid="1"/>
    <tile gid="1"/>
    <tile gid="1"/>
    <tile gid="1"/>
    <tile gid="1"/>
    <tile gid="1"/>
    <tile gid="1"/>
    <tile gid="1"/>
    <tile gid="1"/>
    <tile gid="1"/>
    <tile gid="1"/>
    <tile gid="1"/>
    <tile gid="1"/>
    <tile gid="1"/>
    <tile gid="1"/>
    <tile gid="1"/>
    <tile gid="1"/>
    <tile gid="1"/>
    <tile gid="1"/>
    <tile gid="1"/>
    <tile gid="1"/>
    <tile gid="1"/>
    <tile gid="1"/>
    <tile gid="1"/>
    <tile gid="1"/>
    <tile gid="1"/>
    <tile gid="1"/>
    <tile gid="1"/>
    <tile gid="1"/>
    <tile gid="1"/>
    <tile gid="1"/>
    <tile gid="1"/>
    <tile gid="1"/>
    <tile gid="1"/>
    <tile gid="1"/>
    <tile gid="1"/>
    <tile gid="1"/>
    <tile gid="1"/>
    <tile gid="1"/>
    <tile gid="1"/>
    <tile gid="1"/>
    <tile gid="1"/>
    <tile gid="1"/>
    <tile gid="1"/>
    <tile gid="1"/>
    <tile gid="1"/>
    <tile gid="1"/>
    <tile gid="1"/>
    <tile gid="1"/>
    <tile gid="1"/>
    <tile gid="1"/>
    <tile gid="1"/>
    <tile gid="1"/>
    <tile gid="1"/>
    <tile gid="1"/>
    <tile gid="1"/>
    <tile gid="1"/>
    <tile gid="1"/>
    <tile gid="1"/>
    <tile gid="1"/>
    <tile gid="1"/>
    <tile gid="1"/>
    <tile gid="1"/>
    <tile gid="1"/>
    <tile gid="1"/>
    <tile gid="1"/>
    <tile gid="1"/>
    <tile gid="1"/>
    <tile gid="1"/>
    <tile gid="1"/>
    <tile gid="1"/>
    <tile gid="1"/>
    <tile gid="1"/>
    <tile gid="1"/>
    <tile gid="1"/>
    <tile gid="1"/>
    <tile gid="1"/>
    <tile gid="1"/>
    <tile gid="1"/>
    <tile gid="1"/>
    <tile gid="1"/>
    <tile gid="1"/>
    <tile gid="1"/>
    <tile gid="1"/>
    <tile gid="1"/>
    <tile gid="1"/>
    <tile gid="1"/>
    <tile gid="1"/>
    <tile gid="1"/>
    <tile gid="1"/>
    <tile gid="1"/>
    <tile gid="1"/>
    <tile gid="1"/>
    <tile gid="1"/>
    <tile gid="1"/>
    <tile gid="1"/>
    <tile gid="1"/>
    <tile gid="1"/>
    <tile gid="1"/>
    <tile gid="1"/>
    <tile gid="1"/>
    <tile gid="1"/>
    <tile gid="1"/>
    <tile gid="1"/>
    <tile gid="1"/>
    <tile gid="1"/>
    <tile gid="1"/>
    <tile gid="1"/>
    <tile gid="1"/>
    <tile gid="1"/>
    <tile gid="1"/>
    <tile gid="1"/>
    <tile gid="1"/>
    <tile gid="1"/>
    <tile gid="1"/>
    <tile gid="1"/>
    <tile gid="1"/>
    <tile gid="1"/>
    <tile gid="1"/>
    <tile gid="1"/>
    <tile gid="1"/>
    <tile gid="1"/>
    <tile gid="1"/>
    <tile gid="1"/>
    <tile gid="1"/>
    <tile gid="1"/>
    <tile gid="1"/>
    <tile gid="1"/>
    <tile gid="1"/>
    <tile gid="1"/>
    <tile gid="1"/>
    <tile gid="1"/>
    <tile gid="1"/>
    <tile gid="1"/>
    <tile gid="1"/>
    <tile gid="1"/>
    <tile gid="1"/>
    <tile gid="1"/>
    <tile gid="1"/>
    <tile gid="1"/>
    <tile gid="1"/>
    <tile gid="1"/>
    <tile gid="1"/>
    <tile gid="1"/>
    <tile gid="1"/>
    <tile gid="1"/>
    <tile gid="1"/>
    <tile gid="1"/>
    <tile gid="1"/>
    <tile gid="1"/>
    <tile gid="1"/>
    <tile gid="1"/>
    <tile gid="1"/>
    <tile gid="1"/>
    <tile gid="1"/>
    <tile gid="1"/>
    <tile gid="1"/>
    <tile gid="1"/>
    <tile gid="1"/>
    <tile gid="1"/>
    <tile gid="1"/>
    <tile gid="1"/>
    <tile gid="1"/>
    <tile gid="1"/>
    <tile gid="1"/>
    <tile gid="1"/>
    <tile gid="1"/>
    <tile gid="1"/>
    <tile gid="1"/>
    <tile gid="1"/>
    <tile gid="1"/>
    <tile gid="1"/>
    <tile gid="1"/>
    <tile gid="1"/>
    <tile gid="1"/>
    <tile gid="1"/>
    <tile gid="1"/>
    <tile gid="1"/>
    <tile gid="1"/>
    <tile gid="1"/>
    <tile gid="1"/>
    <tile gid="1"/>
    <tile gid="1"/>
    <tile gid="1"/>
    <tile gid="1"/>
    <tile gid="1"/>
    <tile gid="1"/>
    <tile gid="1"/>
    <tile gid="1"/>
    <tile gid="1"/>
    <tile gid="1"/>
    <tile gid="1"/>
    <tile gid="1"/>
    <tile gid="1"/>
    <tile gid="1"/>
    <tile gid="1"/>
    <tile gid="1"/>
    <tile gid="1"/>
    <tile gid="1"/>
    <tile gid="1"/>
    <tile gid="1"/>
    <tile gid="1"/>
    <tile gid="1"/>
    <tile gid="1"/>
    <tile gid="1"/>
    <tile gid="1"/>
    <tile gid="1"/>
    <tile gid="1"/>
    <tile gid="1"/>
    <tile gid="1"/>
    <tile gid="1"/>
    <tile gid="1"/>
    <tile gid="1"/>
    <tile gid="1"/>
    <tile gid="1"/>
    <tile gid="1"/>
    <tile gid="1"/>
    <tile gid="1"/>
    <tile gid="1"/>
    <tile gid="1"/>
    <tile gid="1"/>
    <tile gid="1"/>
    <tile gid="1"/>
    <tile gid="1"/>
    <tile gid="1"/>
    <tile gid="1"/>
    <tile gid="1"/>
    <tile gid="1"/>
    <tile gid="1"/>
    <tile gid="1"/>
    <tile gid="1"/>
    <tile gid="1"/>
    <tile gid="1"/>
    <tile gid="1"/>
    <tile gid="1"/>
    <tile gid="1"/>
    <tile gid="1"/>
    <tile gid="1"/>
    <tile gid="1"/>
    <tile gid="1"/>
    <tile gid="1"/>
    <tile gid="1"/>
    <tile gid="1"/>
    <tile gid="1"/>
    <tile gid="1"/>
    <tile gid="1"/>
    <tile gid="1"/>
    <tile gid="1"/>
    <tile gid="1"/>
    <tile gid="1"/>
    <tile gid="1"/>
    <tile gid="1"/>
    <tile gid="1"/>
    <tile gid="1"/>
    <tile gid="1"/>
    <tile gid="1"/>
    <tile gid="1"/>
    <tile gid="1"/>
    <tile gid="1"/>
    <tile gid="1"/>
    <tile gid="1"/>
    <tile gid="1"/>
    <tile gid="1"/>
    <tile gid="1"/>
    <tile gid="1"/>
    <tile gid="1"/>
    <tile gid="1"/>
    <tile gid="1"/>
    <tile gid="1"/>
    <tile gid="1"/>
    <tile gid="1"/>
    <tile gid="1"/>
    <tile gid="1"/>
    <tile gid="1"/>
    <tile gid="1"/>
    <tile gid="1"/>
    <tile gid="1"/>
    <tile gid="1"/>
    <tile gid="1"/>
    <tile gid="1"/>
    <tile gid="1"/>
    <tile gid="1"/>
    <tile gid="1"/>
    <tile gid="1"/>
    <tile gid="1"/>
    <tile gid="1"/>
    <tile gid="1"/>
    <tile gid="1"/>
    <tile gid="1"/>
    <tile gid="1"/>
    <tile gid="1"/>
    <tile gid="1"/>
    <tile gid="1"/>
    <tile gid="1"/>
    <tile gid="1"/>
    <tile gid="1"/>
    <tile gid="1"/>
    <tile gid="1"/>
    <tile gid="1"/>
    <tile gid="1"/>
    <tile gid="1"/>
    <tile gid="1"/>
    <tile gid="1"/>
    <tile gid="1"/>
    <tile gid="1"/>
    <tile gid="1"/>
    <tile gid="1"/>
    <tile gid="1"/>
    <tile gid="1"/>
    <tile gid="1"/>
    <tile gid="1"/>
    <tile gid="1"/>
    <tile gid="1"/>
    <tile gid="1"/>
    <tile gid="1"/>
    <tile gid="1"/>
    <tile gid="1"/>
    <tile gid="1"/>
    <tile gid="1"/>
    <tile gid="1"/>
    <tile gid="1"/>
    <tile gid="1"/>
    <tile gid="1"/>
    <tile gid="1"/>
    <tile gid="1"/>
    <tile gid="1"/>
    <tile gid="1"/>
    <tile gid="1"/>
    <tile gid="1"/>
    <tile gid="1"/>
    <tile gid="1"/>
    <tile gid="1"/>
    <tile gid="1"/>
    <tile gid="1"/>
    <tile gid="1"/>
    <tile gid="1"/>
    <tile gid="1"/>
    <tile gid="1"/>
    <tile gid="1"/>
    <tile gid="1"/>
    <tile gid="1"/>
    <tile gid="1"/>
    <tile gid="1"/>
    <tile gid="1"/>
    <tile gid="1"/>
    <tile gid="1"/>
    <tile gid="1"/>
    <tile gid="1"/>
    <tile gid="1"/>
    <tile gid="1"/>
    <tile gid="1"/>
    <tile gid="1"/>
    <tile gid="1"/>
    <tile gid="1"/>
    <tile gid="1"/>
    <tile gid="1"/>
    <tile gid="1"/>
    <tile gid="1"/>
    <tile gid="1"/>
    <tile gid="1"/>
    <tile gid="1"/>
    <tile gid="1"/>
    <tile gid="1"/>
    <tile gid="1"/>
    <tile gid="1"/>
    <tile gid="1"/>
    <tile gid="1"/>
    <tile gid="1"/>
    <tile gid="1"/>
    <tile gid="1"/>
    <tile gid="1"/>
    <tile gid="1"/>
    <tile gid="1"/>
    <tile gid="1"/>
    <tile gid="1"/>
    <tile gid="1"/>
    <tile gid="1"/>
    <tile gid="1"/>
    <tile gid="1"/>
    <tile gid="1"/>
    <tile gid="1"/>
    <tile gid="1"/>
    <tile gid="1"/>
    <tile gid="1"/>
    <tile gid="1"/>
    <tile gid="1"/>
    <tile gid="1"/>
    <tile gid="1"/>
    <tile gid="1"/>
    <tile gid="1"/>
    <tile gid="1"/>
    <tile gid="1"/>
    <tile gid="1"/>
    <tile gid="1"/>
    <tile gid="1"/>
    <tile gid="1"/>
    <tile gid="1"/>
    <tile gid="1"/>
    <tile gid="1"/>
    <tile gid="1"/>
    <tile gid="1"/>
    <tile gid="1"/>
    <tile gid="1"/>
    <tile gid="1"/>
    <tile gid="1"/>
    <tile gid="1"/>
    <tile gid="1"/>
    <tile gid="1"/>
    <tile gid="1"/>
    <tile gid="1"/>
    <tile gid="1"/>
    <tile gid="1"/>
    <tile gid="1"/>
    <tile gid="1"/>
    <tile gid="1"/>
    <tile gid="1"/>
    <tile gid="1"/>
    <tile gid="1"/>
    <tile gid="1"/>
    <tile gid="1"/>
    <tile gid="1"/>
    <tile gid="1"/>
    <tile gid="1"/>
    <tile gid="1"/>
    <tile gid="1"/>
    <tile gid="1"/>
    <tile gid="1"/>
    <tile gid="1"/>
    <tile gid="1"/>
    <tile gid="1"/>
    <tile gid="1"/>
    <tile gid="1"/>
    <tile gid="1"/>
    <tile gid="1"/>
    <tile gid="1"/>
    <tile gid="1"/>
    <tile gid="1"/>
    <tile gid="1"/>
    <tile gid="1"/>
    <tile gid="2"/>
    <tile gid="2"/>
    <tile gid="2"/>
    <tile gid="2"/>
    <tile gid="2"/>
    <tile gid="2"/>
    <tile gid="2"/>
    <tile gid="2"/>
    <tile gid="2"/>
    <tile gid="2"/>
    <tile gid="2"/>
    <tile gid="2"/>
    <tile gid="2"/>
    <tile gid="2"/>
    <tile gid="2"/>
    <tile gid="2"/>
    <tile gid="1"/>
    <tile gid="1"/>
    <tile gid="1"/>
    <tile gid="1"/>
    <tile gid="1"/>
    <tile gid="1"/>
    <tile gid="1"/>
    <tile gid="1"/>
    <tile gid="1"/>
    <tile gid="1"/>
    <tile gid="1"/>
    <tile gid="1"/>
    <tile gid="1"/>
    <tile gid="1"/>
    <tile gid="1"/>
    <tile gid="1"/>
    <tile gid="1"/>
    <tile gid="1"/>
    <tile gid="1"/>
    <tile gid="1"/>
    <tile gid="1"/>
    <tile gid="1"/>
    <tile gid="1"/>
    <tile gid="1"/>
    <tile gid="1"/>
    <tile gid="1"/>
    <tile gid="1"/>
    <tile gid="1"/>
    <tile gid="1"/>
    <tile gid="1"/>
    <tile gid="1"/>
    <tile gid="1"/>
    <tile gid="1"/>
    <tile gid="1"/>
    <tile gid="259"/>
    <tile gid="34"/>
    <tile gid="98"/>
    <tile gid="34"/>
    <tile gid="98"/>
    <tile gid="34"/>
    <tile gid="98"/>
    <tile gid="34"/>
    <tile gid="98"/>
    <tile gid="34"/>
    <tile gid="98"/>
    <tile gid="34"/>
    <tile gid="98"/>
    <tile gid="34"/>
    <tile gid="98"/>
    <tile gid="260"/>
    <tile gid="1"/>
    <tile gid="1"/>
    <tile gid="1"/>
    <tile gid="1"/>
    <tile gid="1"/>
    <tile gid="1"/>
    <tile gid="1"/>
    <tile gid="1"/>
    <tile gid="1"/>
    <tile gid="1"/>
    <tile gid="1"/>
    <tile gid="1"/>
    <tile gid="1"/>
    <tile gid="1"/>
    <tile gid="1"/>
    <tile gid="1"/>
    <tile gid="1"/>
    <tile gid="1"/>
    <tile gid="1"/>
    <tile gid="1"/>
    <tile gid="1"/>
    <tile gid="1"/>
    <tile gid="1"/>
    <tile gid="1"/>
    <tile gid="1"/>
    <tile gid="1"/>
    <tile gid="1"/>
    <tile gid="1"/>
    <tile gid="1"/>
    <tile gid="1"/>
    <tile gid="1"/>
    <tile gid="1"/>
    <tile gid="1"/>
    <tile gid="1"/>
    <tile gid="1"/>
    <tile gid="1"/>
    <tile gid="1"/>
    <tile gid="1"/>
    <tile gid="1"/>
    <tile gid="1"/>
    <tile gid="1"/>
    <tile gid="1"/>
    <tile gid="1"/>
    <tile gid="1"/>
    <tile gid="1"/>
    <tile gid="1"/>
    <tile gid="1"/>
    <tile gid="1"/>
    <tile gid="1"/>
    <tile gid="1"/>
    <tile gid="1"/>
    <tile gid="1"/>
    <tile gid="1"/>
    <tile gid="1"/>
    <tile gid="1"/>
    <tile gid="1"/>
    <tile gid="1"/>
    <tile gid="1"/>
    <tile gid="1"/>
    <tile gid="1"/>
    <tile gid="1"/>
    <tile gid="1"/>
    <tile gid="1"/>
    <tile gid="1"/>
    <tile gid="1"/>
    <tile gid="1"/>
    <tile gid="1"/>
    <tile gid="1"/>
    <tile gid="1"/>
    <tile gid="1"/>
    <tile gid="1"/>
    <tile gid="1"/>
    <tile gid="1"/>
    <tile gid="1"/>
    <tile gid="1"/>
    <tile gid="2"/>
    <tile gid="2"/>
    <tile gid="2"/>
    <tile gid="2"/>
    <tile gid="2"/>
    <tile gid="2"/>
    <tile gid="2"/>
    <tile gid="2"/>
    <tile gid="3"/>
    <tile gid="1"/>
    <tile gid="1"/>
    <tile gid="1"/>
    <tile gid="1"/>
    <tile gid="1"/>
    <tile gid="1"/>
    <tile gid="1"/>
    <tile gid="1"/>
    <tile gid="1"/>
    <tile gid="1"/>
    <tile gid="1"/>
    <tile gid="1"/>
    <tile gid="1"/>
    <tile gid="1"/>
    <tile gid="1"/>
    <tile gid="1"/>
    <tile gid="1"/>
    <tile gid="1"/>
    <tile gid="1"/>
    <tile gid="1"/>
    <tile gid="1"/>
    <tile gid="1"/>
    <tile gid="1"/>
    <tile gid="1"/>
    <tile gid="1"/>
    <tile gid="1"/>
    <tile gid="1"/>
    <tile gid="1"/>
    <tile gid="1"/>
    <tile gid="1"/>
    <tile gid="1"/>
    <tile gid="1"/>
    <tile gid="1"/>
    <tile gid="1"/>
    <tile gid="1"/>
    <tile gid="1"/>
    <tile gid="1"/>
    <tile gid="1"/>
    <tile gid="1"/>
    <tile gid="1"/>
    <tile gid="1"/>
    <tile gid="34"/>
    <tile gid="98"/>
    <tile gid="34"/>
    <tile gid="98"/>
    <tile gid="98"/>
    <tile gid="34"/>
    <tile gid="98"/>
    <tile gid="34"/>
    <tile gid="324"/>
    <tile gid="1"/>
    <tile gid="1"/>
    <tile gid="1"/>
    <tile gid="1"/>
    <tile gid="1"/>
    <tile gid="1"/>
    <tile gid="1"/>
    <tile gid="1"/>
    <tile gid="1"/>
    <tile gid="1"/>
    <tile gid="1"/>
    <tile gid="1"/>
    <tile gid="1"/>
    <tile gid="1"/>
    <tile gid="1"/>
    <tile gid="1"/>
    <tile gid="1"/>
    <tile gid="1"/>
    <tile gid="1"/>
    <tile gid="1"/>
    <tile gid="1"/>
    <tile gid="1"/>
    <tile gid="1"/>
    <tile gid="1"/>
    <tile gid="1"/>
    <tile gid="1"/>
    <tile gid="1"/>
    <tile gid="1"/>
    <tile gid="1"/>
    <tile gid="1"/>
    <tile gid="1"/>
    <tile gid="1"/>
    <tile gid="1"/>
    <tile gid="1"/>
    <tile gid="1"/>
    <tile gid="1"/>
    <tile gid="1"/>
    <tile gid="1"/>
    <tile gid="1"/>
    <tile gid="1"/>
    <tile gid="1"/>
    <tile gid="1"/>
    <tile gid="1"/>
    <tile gid="1"/>
    <tile gid="1"/>
    <tile gid="1"/>
    <tile gid="1"/>
    <tile gid="1"/>
    <tile gid="1"/>
    <tile gid="1"/>
    <tile gid="1"/>
    <tile gid="1"/>
    <tile gid="1"/>
    <tile gid="1"/>
    <tile gid="1"/>
    <tile gid="1"/>
    <tile gid="1"/>
    <tile gid="1"/>
    <tile gid="1"/>
    <tile gid="1"/>
    <tile gid="1"/>
    <tile gid="1"/>
    <tile gid="1"/>
    <tile gid="1"/>
    <tile gid="1"/>
    <tile gid="1"/>
    <tile gid="227"/>
    <tile gid="2"/>
    <tile gid="2"/>
    <tile gid="2"/>
    <tile gid="2"/>
    <tile gid="2"/>
    <tile gid="2"/>
    <tile gid="2"/>
    <tile gid="2"/>
    <tile gid="2"/>
    <tile gid="2"/>
    <tile gid="2"/>
    <tile gid="2"/>
    <tile gid="228"/>
    <tile gid="1"/>
    <tile gid="1"/>
    <tile gid="1"/>
    <tile gid="1"/>
    <tile gid="1"/>
    <tile gid="1"/>
    <tile gid="1"/>
    <tile gid="1"/>
    <tile gid="1"/>
    <tile gid="1"/>
    <tile gid="1"/>
    <tile gid="1"/>
    <tile gid="1"/>
    <tile gid="1"/>
    <tile gid="1"/>
    <tile gid="1"/>
    <tile gid="1"/>
    <tile gid="1"/>
    <tile gid="1"/>
    <tile gid="1"/>
    <tile gid="1"/>
    <tile gid="1"/>
    <tile gid="1"/>
    <tile gid="1"/>
    <tile gid="1"/>
    <tile gid="1"/>
    <tile gid="1"/>
    <tile gid="1"/>
    <tile gid="1"/>
    <tile gid="1"/>
    <tile gid="1"/>
    <tile gid="1"/>
    <tile gid="1"/>
    <tile gid="1"/>
    <tile gid="1"/>
    <tile gid="1"/>
    <tile gid="323"/>
    <tile gid="34"/>
    <tile gid="34"/>
    <tile gid="34"/>
    <tile gid="98"/>
    <tile gid="34"/>
    <tile gid="34"/>
    <tile gid="34"/>
    <tile gid="98"/>
    <tile gid="34"/>
    <tile gid="34"/>
    <tile gid="34"/>
    <tile gid="98"/>
    <tile gid="324"/>
    <tile gid="1"/>
    <tile gid="1"/>
    <tile gid="1"/>
    <tile gid="1"/>
    <tile gid="1"/>
    <tile gid="1"/>
    <tile gid="1"/>
    <tile gid="1"/>
    <tile gid="1"/>
    <tile gid="1"/>
    <tile gid="1"/>
    <tile gid="1"/>
    <tile gid="1"/>
    <tile gid="1"/>
    <tile gid="1"/>
    <tile gid="1"/>
    <tile gid="1"/>
    <tile gid="1"/>
    <tile gid="1"/>
    <tile gid="1"/>
    <tile gid="1"/>
    <tile gid="1"/>
    <tile gid="1"/>
    <tile gid="1"/>
    <tile gid="1"/>
    <tile gid="1"/>
    <tile gid="1"/>
    <tile gid="1"/>
    <tile gid="1"/>
    <tile gid="1"/>
    <tile gid="1"/>
    <tile gid="1"/>
    <tile gid="1"/>
    <tile gid="1"/>
    <tile gid="1"/>
    <tile gid="1"/>
    <tile gid="1"/>
    <tile gid="1"/>
    <tile gid="1"/>
    <tile gid="1"/>
    <tile gid="1"/>
    <tile gid="1"/>
    <tile gid="1"/>
    <tile gid="1"/>
    <tile gid="1"/>
    <tile gid="1"/>
    <tile gid="1"/>
    <tile gid="1"/>
    <tile gid="1"/>
    <tile gid="1"/>
    <tile gid="1"/>
    <tile gid="1"/>
    <tile gid="1"/>
    <tile gid="1"/>
    <tile gid="1"/>
    <tile gid="1"/>
    <tile gid="1"/>
    <tile gid="1"/>
    <tile gid="1"/>
    <tile gid="1"/>
    <tile gid="1"/>
    <tile gid="1"/>
    <tile gid="1"/>
    <tile gid="1"/>
    <tile gid="1"/>
    <tile gid="1"/>
    <tile gid="1"/>
    <tile gid="1"/>
    <tile gid="1"/>
    <tile gid="1"/>
    <tile gid="1"/>
    <tile gid="1"/>
    <tile gid="1"/>
    <tile gid="1"/>
    <tile gid="1"/>
    <tile gid="1"/>
    <tile gid="1"/>
    <tile gid="1"/>
    <tile gid="1"/>
    <tile gid="1"/>
    <tile gid="1"/>
    <tile gid="1"/>
    <tile gid="1"/>
    <tile gid="1"/>
    <tile gid="1"/>
    <tile gid="1"/>
    <tile gid="1"/>
    <tile gid="1"/>
    <tile gid="1"/>
    <tile gid="1"/>
    <tile gid="1"/>
    <tile gid="1"/>
    <tile gid="1"/>
    <tile gid="1"/>
    <tile gid="1"/>
    <tile gid="1"/>
    <tile gid="1"/>
    <tile gid="1"/>
    <tile gid="1"/>
    <tile gid="1"/>
    <tile gid="1"/>
    <tile gid="1"/>
    <tile gid="1"/>
    <tile gid="1"/>
    <tile gid="1"/>
    <tile gid="1"/>
    <tile gid="1"/>
    <tile gid="1"/>
    <tile gid="1"/>
    <tile gid="1"/>
    <tile gid="1"/>
    <tile gid="1"/>
    <tile gid="1"/>
    <tile gid="1"/>
    <tile gid="1"/>
    <tile gid="1"/>
    <tile gid="1"/>
    <tile gid="1"/>
    <tile gid="1"/>
    <tile gid="1"/>
    <tile gid="1"/>
    <tile gid="1"/>
    <tile gid="1"/>
    <tile gid="1"/>
    <tile gid="1"/>
    <tile gid="1"/>
    <tile gid="1"/>
    <tile gid="1"/>
    <tile gid="1"/>
    <tile gid="1"/>
    <tile gid="1"/>
    <tile gid="1"/>
    <tile gid="1"/>
    <tile gid="1"/>
    <tile gid="1"/>
    <tile gid="1"/>
    <tile gid="1"/>
    <tile gid="1"/>
    <tile gid="1"/>
    <tile gid="1"/>
    <tile gid="1"/>
    <tile gid="1"/>
    <tile gid="1"/>
    <tile gid="1"/>
    <tile gid="1"/>
    <tile gid="1"/>
    <tile gid="1"/>
    <tile gid="1"/>
    <tile gid="1"/>
    <tile gid="1"/>
    <tile gid="1"/>
    <tile gid="1"/>
    <tile gid="1"/>
    <tile gid="1"/>
    <tile gid="1"/>
    <tile gid="1"/>
    <tile gid="1"/>
    <tile gid="1"/>
    <tile gid="1"/>
    <tile gid="1"/>
    <tile gid="1"/>
    <tile gid="1"/>
    <tile gid="1"/>
    <tile gid="1"/>
    <tile gid="1"/>
    <tile gid="1"/>
    <tile gid="1"/>
    <tile gid="1"/>
    <tile gid="1"/>
    <tile gid="1"/>
    <tile gid="1"/>
    <tile gid="1"/>
    <tile gid="1"/>
    <tile gid="1"/>
    <tile gid="1"/>
    <tile gid="1"/>
    <tile gid="1"/>
    <tile gid="1"/>
    <tile gid="1"/>
    <tile gid="1"/>
    <tile gid="1"/>
    <tile gid="1"/>
    <tile gid="1"/>
    <tile gid="1"/>
    <tile gid="1"/>
    <tile gid="1"/>
    <tile gid="1"/>
    <tile gid="1"/>
    <tile gid="1"/>
    <tile gid="1"/>
    <tile gid="1"/>
    <tile gid="1"/>
    <tile gid="1"/>
    <tile gid="1"/>
    <tile gid="1"/>
    <tile gid="1"/>
    <tile gid="1"/>
    <tile gid="1"/>
    <tile gid="1"/>
    <tile gid="1"/>
    <tile gid="1"/>
    <tile gid="1"/>
    <tile gid="1"/>
    <tile gid="1"/>
    <tile gid="1"/>
    <tile gid="1"/>
    <tile gid="1"/>
    <tile gid="1"/>
    <tile gid="1"/>
    <tile gid="1"/>
    <tile gid="1"/>
    <tile gid="1"/>
    <tile gid="1"/>
    <tile gid="1"/>
    <tile gid="1"/>
    <tile gid="1"/>
    <tile gid="1"/>
    <tile gid="1"/>
    <tile gid="1"/>
    <tile gid="1"/>
    <tile gid="1"/>
    <tile gid="1"/>
    <tile gid="1"/>
    <tile gid="1"/>
    <tile gid="1"/>
    <tile gid="1"/>
    <tile gid="1"/>
    <tile gid="1"/>
    <tile gid="1"/>
    <tile gid="1"/>
    <tile gid="1"/>
    <tile gid="1"/>
    <tile gid="1"/>
    <tile gid="1"/>
    <tile gid="1"/>
    <tile gid="1"/>
    <tile gid="1"/>
    <tile gid="1"/>
    <tile gid="1"/>
    <tile gid="1"/>
    <tile gid="1"/>
    <tile gid="1"/>
    <tile gid="1"/>
    <tile gid="1"/>
    <tile gid="1"/>
    <tile gid="1"/>
    <tile gid="1"/>
    <tile gid="1"/>
    <tile gid="1"/>
    <tile gid="1"/>
    <tile gid="1"/>
    <tile gid="1"/>
    <tile gid="1"/>
    <tile gid="1"/>
    <tile gid="1"/>
    <tile gid="1"/>
    <tile gid="1"/>
    <tile gid="1"/>
    <tile gid="1"/>
    <tile gid="1"/>
    <tile gid="1"/>
    <tile gid="1"/>
    <tile gid="1"/>
    <tile gid="1"/>
    <tile gid="1"/>
    <tile gid="1"/>
    <tile gid="1"/>
    <tile gid="1"/>
    <tile gid="1"/>
    <tile gid="1"/>
    <tile gid="1"/>
    <tile gid="1"/>
    <tile gid="1"/>
    <tile gid="1"/>
    <tile gid="1"/>
    <tile gid="1"/>
    <tile gid="1"/>
    <tile gid="1"/>
    <tile gid="1"/>
    <tile gid="1"/>
    <tile gid="1"/>
    <tile gid="1"/>
    <tile gid="1"/>
    <tile gid="1"/>
    <tile gid="1"/>
    <tile gid="1"/>
    <tile gid="1"/>
    <tile gid="1"/>
    <tile gid="1"/>
    <tile gid="1"/>
    <tile gid="1"/>
    <tile gid="1"/>
    <tile gid="1"/>
    <tile gid="1"/>
    <tile gid="1"/>
    <tile gid="1"/>
    <tile gid="1"/>
    <tile gid="1"/>
    <tile gid="1"/>
    <tile gid="1"/>
    <tile gid="1"/>
    <tile gid="1"/>
    <tile gid="1"/>
    <tile gid="1"/>
    <tile gid="1"/>
    <tile gid="1"/>
    <tile gid="1"/>
    <tile gid="1"/>
    <tile gid="1"/>
    <tile gid="1"/>
    <tile gid="1"/>
    <tile gid="1"/>
    <tile gid="1"/>
    <tile gid="1"/>
    <tile gid="1"/>
    <tile gid="1"/>
    <tile gid="1"/>
    <tile gid="1"/>
    <tile gid="1"/>
    <tile gid="1"/>
    <tile gid="1"/>
    <tile gid="1"/>
    <tile gid="1"/>
    <tile gid="1"/>
    <tile gid="1"/>
    <tile gid="1"/>
    <tile gid="1"/>
    <tile gid="1"/>
    <tile gid="1"/>
    <tile gid="1"/>
    <tile gid="1"/>
    <tile gid="1"/>
    <tile gid="1"/>
    <tile gid="1"/>
    <tile gid="1"/>
    <tile gid="1"/>
    <tile gid="1"/>
    <tile gid="1"/>
    <tile gid="1"/>
    <tile gid="1"/>
    <tile gid="1"/>
    <tile gid="1"/>
    <tile gid="1"/>
    <tile gid="1"/>
    <tile gid="1"/>
    <tile gid="1"/>
    <tile gid="1"/>
    <tile gid="1"/>
    <tile gid="1"/>
    <tile gid="1"/>
    <tile gid="1"/>
    <tile gid="1"/>
    <tile gid="1"/>
    <tile gid="1"/>
    <tile gid="1"/>
    <tile gid="1"/>
    <tile gid="1"/>
    <tile gid="1"/>
    <tile gid="1"/>
    <tile gid="1"/>
    <tile gid="1"/>
    <tile gid="1"/>
    <tile gid="166"/>
    <tile gid="1"/>
    <tile gid="1"/>
    <tile gid="1"/>
    <tile gid="1"/>
    <tile gid="1"/>
    <tile gid="166"/>
    <tile gid="1"/>
    <tile gid="1"/>
    <tile gid="1"/>
    <tile gid="1"/>
    <tile gid="1"/>
    <tile gid="1"/>
    <tile gid="1"/>
    <tile gid="1"/>
    <tile gid="1"/>
    <tile gid="1"/>
    <tile gid="1"/>
    <tile gid="1"/>
    <tile gid="1"/>
    <tile gid="1"/>
    <tile gid="1"/>
    <tile gid="1"/>
    <tile gid="1"/>
    <tile gid="1"/>
    <tile gid="1"/>
    <tile gid="1"/>
    <tile gid="1"/>
    <tile gid="1"/>
    <tile gid="1"/>
    <tile gid="1"/>
    <tile gid="1"/>
    <tile gid="1"/>
    <tile gid="1"/>
    <tile gid="1"/>
    <tile gid="1"/>
    <tile gid="1"/>
    <tile gid="1"/>
    <tile gid="1"/>
    <tile gid="1"/>
    <tile gid="1"/>
    <tile gid="1"/>
    <tile gid="1"/>
    <tile gid="1"/>
    <tile gid="1"/>
    <tile gid="1"/>
    <tile gid="1"/>
    <tile gid="1"/>
    <tile gid="1"/>
    <tile gid="1"/>
    <tile gid="1"/>
    <tile gid="1"/>
    <tile gid="1"/>
    <tile gid="1"/>
    <tile gid="1"/>
    <tile gid="1"/>
    <tile gid="1"/>
    <tile gid="1"/>
    <tile gid="1"/>
    <tile gid="1"/>
    <tile gid="1"/>
    <tile gid="1"/>
    <tile gid="1"/>
    <tile gid="1"/>
    <tile gid="1"/>
    <tile gid="1"/>
    <tile gid="1"/>
    <tile gid="1"/>
    <tile gid="1"/>
    <tile gid="1"/>
    <tile gid="1"/>
    <tile gid="1"/>
    <tile gid="1"/>
    <tile gid="1"/>
    <tile gid="1"/>
    <tile gid="1"/>
    <tile gid="1"/>
    <tile gid="1"/>
    <tile gid="1"/>
    <tile gid="1"/>
    <tile gid="1"/>
    <tile gid="1"/>
    <tile gid="1"/>
    <tile gid="1"/>
    <tile gid="1"/>
    <tile gid="1"/>
    <tile gid="1"/>
    <tile gid="1"/>
    <tile gid="1"/>
    <tile gid="1"/>
    <tile gid="1"/>
    <tile gid="1"/>
    <tile gid="1"/>
    <tile gid="1"/>
    <tile gid="1"/>
    <tile gid="1"/>
    <tile gid="1"/>
    <tile gid="1"/>
    <tile gid="1"/>
    <tile gid="1"/>
    <tile gid="1"/>
    <tile gid="1"/>
    <tile gid="1"/>
    <tile gid="1"/>
    <tile gid="1"/>
    <tile gid="1"/>
    <tile gid="1"/>
    <tile gid="1"/>
    <tile gid="1"/>
    <tile gid="1"/>
    <tile gid="1"/>
    <tile gid="1"/>
    <tile gid="1"/>
    <tile gid="1"/>
    <tile gid="1"/>
    <tile gid="1"/>
    <tile gid="1"/>
    <tile gid="1"/>
    <tile gid="1"/>
    <tile gid="1"/>
    <tile gid="1"/>
    <tile gid="1"/>
    <tile gid="1"/>
    <tile gid="1"/>
    <tile gid="1"/>
    <tile gid="1"/>
    <tile gid="1"/>
    <tile gid="1"/>
    <tile gid="1"/>
    <tile gid="1"/>
    <tile gid="1"/>
    <tile gid="1"/>
    <tile gid="1"/>
    <tile gid="1"/>
    <tile gid="1"/>
    <tile gid="1"/>
    <tile gid="1"/>
    <tile gid="1"/>
    <tile gid="1"/>
    <tile gid="1"/>
    <tile gid="1"/>
    <tile gid="1"/>
    <tile gid="1"/>
    <tile gid="1"/>
    <tile gid="1"/>
    <tile gid="1"/>
    <tile gid="1"/>
    <tile gid="1"/>
    <tile gid="1"/>
    <tile gid="1"/>
    <tile gid="1"/>
    <tile gid="1"/>
    <tile gid="1"/>
    <tile gid="1"/>
    <tile gid="1"/>
    <tile gid="1"/>
    <tile gid="1"/>
    <tile gid="1"/>
    <tile gid="1"/>
    <tile gid="1"/>
    <tile gid="1"/>
    <tile gid="1"/>
    <tile gid="1"/>
    <tile gid="1"/>
    <tile gid="1"/>
    <tile gid="1"/>
    <tile gid="1"/>
    <tile gid="1"/>
    <tile gid="1"/>
    <tile gid="1"/>
    <tile gid="1"/>
    <tile gid="1"/>
    <tile gid="1"/>
    <tile gid="1"/>
    <tile gid="1"/>
    <tile gid="1"/>
    <tile gid="1"/>
    <tile gid="1"/>
    <tile gid="1"/>
    <tile gid="1"/>
    <tile gid="1"/>
    <tile gid="1"/>
    <tile gid="1"/>
    <tile gid="1"/>
    <tile gid="1"/>
    <tile gid="1"/>
    <tile gid="1"/>
    <tile gid="1"/>
    <tile gid="1"/>
    <tile gid="1"/>
    <tile gid="1"/>
    <tile gid="1"/>
    <tile gid="1"/>
    <tile gid="1"/>
    <tile gid="1"/>
    <tile gid="1"/>
    <tile gid="1"/>
    <tile gid="1"/>
    <tile gid="1"/>
    <tile gid="1"/>
    <tile gid="1"/>
    <tile gid="1"/>
    <tile gid="1"/>
    <tile gid="1"/>
    <tile gid="1"/>
    <tile gid="1"/>
    <tile gid="1"/>
    <tile gid="1"/>
    <tile gid="1"/>
    <tile gid="1"/>
    <tile gid="1"/>
    <tile gid="1"/>
    <tile gid="1"/>
    <tile gid="1"/>
    <tile gid="1"/>
    <tile gid="1"/>
    <tile gid="1"/>
    <tile gid="1"/>
    <tile gid="1"/>
    <tile gid="1"/>
    <tile gid="1"/>
    <tile gid="1"/>
    <tile gid="1"/>
    <tile gid="1"/>
    <tile gid="1"/>
    <tile gid="1"/>
    <tile gid="1"/>
    <tile gid="1"/>
    <tile gid="1"/>
    <tile gid="1"/>
    <tile gid="1"/>
    <tile gid="1"/>
    <tile gid="1"/>
    <tile gid="1"/>
    <tile gid="1"/>
    <tile gid="1"/>
    <tile gid="1"/>
    <tile gid="1"/>
    <tile gid="1"/>
    <tile gid="1"/>
    <tile gid="1"/>
    <tile gid="1"/>
    <tile gid="1"/>
    <tile gid="1"/>
    <tile gid="1"/>
    <tile gid="1"/>
    <tile gid="1"/>
    <tile gid="1"/>
    <tile gid="1"/>
    <tile gid="1"/>
    <tile gid="166"/>
    <tile gid="1"/>
    <tile gid="1"/>
    <tile gid="1"/>
    <tile gid="1"/>
    <tile gid="1"/>
    <tile gid="166"/>
    <tile gid="1"/>
    <tile gid="2"/>
    <tile gid="2"/>
    <tile gid="2"/>
    <tile gid="2"/>
    <tile gid="2"/>
    <tile gid="2"/>
    <tile gid="2"/>
    <tile gid="2"/>
    <tile gid="2"/>
    <tile gid="2"/>
    <tile gid="2"/>
    <tile gid="2"/>
    <tile gid="2"/>
    <tile gid="2"/>
    <tile gid="2"/>
    <tile gid="2"/>
    <tile gid="2"/>
    <tile gid="2"/>
    <tile gid="2"/>
    <tile gid="2"/>
    <tile gid="2"/>
    <tile gid="2"/>
    <tile gid="2"/>
    <tile gid="2"/>
    <tile gid="2"/>
    <tile gid="2"/>
    <tile gid="2"/>
    <tile gid="2"/>
    <tile gid="2"/>
    <tile gid="228"/>
    <tile gid="1"/>
    <tile gid="1"/>
    <tile gid="1"/>
    <tile gid="1"/>
    <tile gid="1"/>
    <tile gid="1"/>
    <tile gid="1"/>
    <tile gid="1"/>
    <tile gid="1"/>
    <tile gid="1"/>
    <tile gid="1"/>
    <tile gid="1"/>
    <tile gid="1"/>
    <tile gid="1"/>
    <tile gid="1"/>
    <tile gid="1"/>
    <tile gid="1"/>
    <tile gid="1"/>
    <tile gid="1"/>
    <tile gid="1"/>
    <tile gid="259"/>
    <tile gid="100"/>
    <tile gid="34"/>
    <tile gid="34"/>
    <tile gid="100"/>
    <tile gid="34"/>
    <tile gid="34"/>
    <tile gid="34"/>
    <tile gid="100"/>
    <tile gid="34"/>
    <tile gid="34"/>
    <tile gid="100"/>
    <tile gid="34"/>
    <tile gid="100"/>
    <tile gid="34"/>
    <tile gid="34"/>
    <tile gid="34"/>
    <tile gid="100"/>
    <tile gid="34"/>
    <tile gid="34"/>
    <tile gid="34"/>
    <tile gid="100"/>
    <tile gid="34"/>
    <tile gid="100"/>
    <tile gid="34"/>
    <tile gid="34"/>
    <tile gid="34"/>
    <tile gid="100"/>
    <tile gid="34"/>
    <tile gid="260"/>
    <tile gid="1"/>
    <tile gid="1"/>
    <tile gid="1"/>
    <tile gid="1"/>
    <tile gid="1"/>
    <tile gid="1"/>
    <tile gid="1"/>
    <tile gid="1"/>
    <tile gid="1"/>
    <tile gid="1"/>
    <tile gid="1"/>
    <tile gid="1"/>
    <tile gid="1"/>
    <tile gid="1"/>
    <tile gid="1"/>
    <tile gid="1"/>
    <tile gid="1"/>
    <tile gid="1"/>
    <tile gid="1"/>
    <tile gid="1"/>
    <tile gid="1"/>
    <tile gid="1"/>
    <tile gid="1"/>
    <tile gid="1"/>
    <tile gid="1"/>
    <tile gid="1"/>
    <tile gid="1"/>
    <tile gid="1"/>
    <tile gid="1"/>
    <tile gid="1"/>
    <tile gid="1"/>
    <tile gid="1"/>
    <tile gid="1"/>
    <tile gid="1"/>
    <tile gid="1"/>
    <tile gid="1"/>
    <tile gid="1"/>
    <tile gid="1"/>
    <tile gid="1"/>
    <tile gid="1"/>
    <tile gid="1"/>
    <tile gid="1"/>
    <tile gid="1"/>
    <tile gid="1"/>
    <tile gid="1"/>
    <tile gid="1"/>
    <tile gid="1"/>
    <tile gid="1"/>
    <tile gid="1"/>
    <tile gid="1"/>
    <tile gid="1"/>
    <tile gid="1"/>
    <tile gid="1"/>
    <tile gid="1"/>
    <tile gid="1"/>
    <tile gid="1"/>
    <tile gid="1"/>
    <tile gid="1"/>
    <tile gid="1"/>
    <tile gid="1"/>
    <tile gid="1"/>
    <tile gid="2"/>
    <tile gid="2"/>
    <tile gid="2"/>
    <tile gid="2"/>
    <tile gid="2"/>
    <tile gid="2"/>
    <tile gid="2"/>
    <tile gid="2"/>
    <tile gid="228"/>
    <tile gid="1"/>
    <tile gid="1"/>
    <tile gid="1"/>
    <tile gid="1"/>
    <tile gid="1"/>
    <tile gid="1"/>
    <tile gid="1"/>
    <tile gid="1"/>
    <tile gid="1"/>
    <tile gid="1"/>
    <tile gid="1"/>
    <tile gid="1"/>
    <tile gid="1"/>
    <tile gid="1"/>
    <tile gid="1"/>
    <tile gid="1"/>
    <tile gid="1"/>
    <tile gid="1"/>
    <tile gid="1"/>
    <tile gid="1"/>
    <tile gid="1"/>
    <tile gid="1"/>
    <tile gid="1"/>
    <tile gid="1"/>
    <tile gid="1"/>
    <tile gid="1"/>
    <tile gid="1"/>
    <tile gid="1"/>
    <tile gid="1"/>
    <tile gid="1"/>
    <tile gid="2"/>
    <tile gid="2"/>
    <tile gid="2"/>
    <tile gid="2"/>
    <tile gid="2"/>
    <tile gid="2"/>
    <tile gid="2"/>
    <tile gid="2"/>
    <tile gid="2"/>
    <tile gid="1"/>
    <tile gid="1"/>
    <tile gid="100"/>
    <tile gid="34"/>
    <tile gid="100"/>
    <tile gid="34"/>
    <tile gid="34"/>
    <tile gid="34"/>
    <tile gid="34"/>
    <tile gid="100"/>
    <tile gid="324"/>
    <tile gid="1"/>
    <tile gid="1"/>
    <tile gid="1"/>
    <tile gid="1"/>
    <tile gid="1"/>
    <tile gid="1"/>
    <tile gid="1"/>
    <tile gid="1"/>
    <tile gid="1"/>
    <tile gid="1"/>
    <tile gid="1"/>
    <tile gid="1"/>
    <tile gid="1"/>
    <tile gid="1"/>
    <tile gid="1"/>
    <tile gid="1"/>
    <tile gid="1"/>
    <tile gid="1"/>
    <tile gid="1"/>
    <tile gid="1"/>
    <tile gid="1"/>
    <tile gid="1"/>
    <tile gid="1"/>
    <tile gid="1"/>
    <tile gid="1"/>
    <tile gid="1"/>
    <tile gid="1"/>
    <tile gid="1"/>
    <tile gid="1"/>
    <tile gid="1"/>
    <tile gid="323"/>
    <tile gid="34"/>
    <tile gid="34"/>
    <tile gid="98"/>
    <tile gid="34"/>
    <tile gid="98"/>
    <tile gid="34"/>
    <tile gid="100"/>
    <tile gid="34"/>
    <tile gid="1"/>
   </data>
  </layer>
 </group>
 <group id="70" name="collData">
  <layer id="53" name="wall_coll" width="50" height="50">
   <data>
    <tile gid="1"/>
    <tile gid="1"/>
    <tile gid="1"/>
    <tile gid="1"/>
    <tile gid="1"/>
    <tile gid="1"/>
    <tile gid="1"/>
    <tile gid="1"/>
    <tile gid="1"/>
    <tile gid="1"/>
    <tile gid="1"/>
    <tile gid="1"/>
    <tile gid="1"/>
    <tile gid="1"/>
    <tile gid="1"/>
    <tile gid="1"/>
    <tile gid="1"/>
    <tile gid="1"/>
    <tile gid="1"/>
    <tile gid="1"/>
    <tile gid="1"/>
    <tile gid="1"/>
    <tile gid="1"/>
    <tile gid="1"/>
    <tile gid="1"/>
    <tile gid="1"/>
    <tile gid="1"/>
    <tile gid="1"/>
    <tile gid="1"/>
    <tile gid="1"/>
    <tile gid="1"/>
    <tile gid="1"/>
    <tile gid="1"/>
    <tile gid="1"/>
    <tile gid="1"/>
    <tile gid="1"/>
    <tile gid="1"/>
    <tile gid="1"/>
    <tile gid="1"/>
    <tile gid="1"/>
    <tile gid="1"/>
    <tile gid="1"/>
    <tile gid="1"/>
    <tile gid="1"/>
    <tile gid="1"/>
    <tile gid="1"/>
    <tile gid="1"/>
    <tile gid="1"/>
    <tile gid="1"/>
    <tile gid="1"/>
    <tile gid="387"/>
    <tile gid="387"/>
    <tile gid="387"/>
    <tile gid="387"/>
    <tile gid="387"/>
    <tile gid="387"/>
    <tile gid="387"/>
    <tile gid="387"/>
    <tile gid="387"/>
    <tile gid="387"/>
    <tile gid="387"/>
    <tile gid="1"/>
    <tile gid="1"/>
    <tile gid="1"/>
    <tile gid="1"/>
    <tile gid="1"/>
    <tile gid="1"/>
    <tile gid="1"/>
    <tile gid="1"/>
    <tile gid="1"/>
    <tile gid="1"/>
    <tile gid="1"/>
    <tile gid="1"/>
    <tile gid="1"/>
    <tile gid="1"/>
    <tile gid="1"/>
    <tile gid="1"/>
    <tile gid="1"/>
    <tile gid="1"/>
    <tile gid="1"/>
    <tile gid="1"/>
    <tile gid="1"/>
    <tile gid="1"/>
    <tile gid="1"/>
    <tile gid="1"/>
    <tile gid="1"/>
    <tile gid="1"/>
    <tile gid="1"/>
    <tile gid="1"/>
    <tile gid="387"/>
    <tile gid="387"/>
    <tile gid="387"/>
    <tile gid="387"/>
    <tile gid="387"/>
    <tile gid="387"/>
    <tile gid="387"/>
    <tile gid="387"/>
    <tile gid="387"/>
    <tile gid="387"/>
    <tile gid="387"/>
    <tile gid="387"/>
    <tile gid="1"/>
    <tile gid="1"/>
    <tile gid="1"/>
    <tile gid="1"/>
    <tile gid="1"/>
    <tile gid="1"/>
    <tile gid="1"/>
    <tile gid="1"/>
    <tile gid="1"/>
    <tile gid="387"/>
    <tile gid="1"/>
    <tile gid="1"/>
    <tile gid="1"/>
    <tile gid="1"/>
    <tile gid="1"/>
    <tile gid="1"/>
    <tile gid="1"/>
    <tile gid="1"/>
    <tile gid="1"/>
    <tile gid="1"/>
    <tile gid="1"/>
    <tile gid="1"/>
    <tile gid="1"/>
    <tile gid="1"/>
    <tile gid="1"/>
    <tile gid="1"/>
    <tile gid="1"/>
    <tile gid="1"/>
    <tile gid="1"/>
    <tile gid="1"/>
    <tile gid="1"/>
    <tile gid="1"/>
    <tile gid="1"/>
    <tile gid="1"/>
    <tile gid="1"/>
    <tile gid="1"/>
    <tile gid="1"/>
    <tile gid="1"/>
    <tile gid="387"/>
    <tile gid="1"/>
    <tile gid="1"/>
    <tile gid="1"/>
    <tile gid="1"/>
    <tile gid="1"/>
    <tile gid="1"/>
    <tile gid="1"/>
    <tile gid="1"/>
    <tile gid="1"/>
    <tile gid="387"/>
    <tile gid="387"/>
    <tile gid="1"/>
    <tile gid="1"/>
    <tile gid="1"/>
    <tile gid="1"/>
    <tile gid="1"/>
    <tile gid="1"/>
    <tile gid="1"/>
    <tile gid="1"/>
    <tile gid="1"/>
    <tile gid="387"/>
    <tile gid="1"/>
    <tile gid="1"/>
    <tile gid="1"/>
    <tile gid="1"/>
    <tile gid="1"/>
    <tile gid="1"/>
    <tile gid="1"/>
    <tile gid="1"/>
    <tile gid="1"/>
    <tile gid="1"/>
    <tile gid="1"/>
    <tile gid="1"/>
    <tile gid="1"/>
    <tile gid="1"/>
    <tile gid="1"/>
    <tile gid="1"/>
    <tile gid="1"/>
    <tile gid="1"/>
    <tile gid="1"/>
    <tile gid="1"/>
    <tile gid="1"/>
    <tile gid="1"/>
    <tile gid="1"/>
    <tile gid="1"/>
    <tile gid="1"/>
    <tile gid="1"/>
    <tile gid="1"/>
    <tile gid="1"/>
    <tile gid="387"/>
    <tile gid="1"/>
    <tile gid="1"/>
    <tile gid="1"/>
    <tile gid="1"/>
    <tile gid="1"/>
    <tile gid="1"/>
    <tile gid="1"/>
    <tile gid="1"/>
    <tile gid="1"/>
    <tile gid="387"/>
    <tile gid="387"/>
    <tile gid="1"/>
    <tile gid="1"/>
    <tile gid="1"/>
    <tile gid="1"/>
    <tile gid="1"/>
    <tile gid="1"/>
    <tile gid="1"/>
    <tile gid="1"/>
    <tile gid="1"/>
    <tile gid="387"/>
    <tile gid="387"/>
    <tile gid="387"/>
    <tile gid="387"/>
    <tile gid="387"/>
    <tile gid="387"/>
    <tile gid="387"/>
    <tile gid="387"/>
    <tile gid="387"/>
    <tile gid="387"/>
    <tile gid="387"/>
    <tile gid="387"/>
    <tile gid="387"/>
    <tile gid="387"/>
    <tile gid="387"/>
    <tile gid="387"/>
    <tile gid="387"/>
    <tile gid="387"/>
    <tile gid="387"/>
    <tile gid="387"/>
    <tile gid="387"/>
    <tile gid="387"/>
    <tile gid="387"/>
    <tile gid="387"/>
    <tile gid="387"/>
    <tile gid="387"/>
    <tile gid="387"/>
    <tile gid="387"/>
    <tile gid="387"/>
    <tile gid="387"/>
    <tile gid="1"/>
    <tile gid="1"/>
    <tile gid="1"/>
    <tile gid="1"/>
    <tile gid="1"/>
    <tile gid="1"/>
    <tile gid="1"/>
    <tile gid="1"/>
    <tile gid="1"/>
    <tile gid="387"/>
    <tile gid="387"/>
    <tile gid="1"/>
    <tile gid="1"/>
    <tile gid="1"/>
    <tile gid="1"/>
    <tile gid="1"/>
    <tile gid="1"/>
    <tile gid="1"/>
    <tile gid="1"/>
    <tile gid="1"/>
    <tile gid="1"/>
    <tile gid="1"/>
    <tile gid="1"/>
    <tile gid="1"/>
    <tile gid="1"/>
    <tile gid="1"/>
    <tile gid="1"/>
    <tile gid="1"/>
    <tile gid="1"/>
    <tile gid="1"/>
    <tile gid="1"/>
    <tile gid="1"/>
    <tile gid="1"/>
    <tile gid="1"/>
    <tile gid="1"/>
    <tile gid="1"/>
    <tile gid="1"/>
    <tile gid="1"/>
    <tile gid="1"/>
    <tile gid="1"/>
    <tile gid="1"/>
    <tile gid="1"/>
    <tile gid="1"/>
    <tile gid="1"/>
    <tile gid="1"/>
    <tile gid="1"/>
    <tile gid="1"/>
    <tile gid="1"/>
    <tile gid="1"/>
    <tile gid="1"/>
    <tile gid="1"/>
    <tile gid="1"/>
    <tile gid="1"/>
    <tile gid="1"/>
    <tile gid="1"/>
    <tile gid="1"/>
    <tile gid="1"/>
    <tile gid="1"/>
    <tile gid="1"/>
    <tile gid="387"/>
    <tile gid="387"/>
    <tile gid="1"/>
    <tile gid="1"/>
    <tile gid="1"/>
    <tile gid="1"/>
    <tile gid="1"/>
    <tile gid="1"/>
    <tile gid="1"/>
    <tile gid="1"/>
    <tile gid="1"/>
    <tile gid="1"/>
    <tile gid="1"/>
    <tile gid="1"/>
    <tile gid="1"/>
    <tile gid="1"/>
    <tile gid="1"/>
    <tile gid="1"/>
    <tile gid="1"/>
    <tile gid="1"/>
    <tile gid="1"/>
    <tile gid="1"/>
    <tile gid="1"/>
    <tile gid="1"/>
    <tile gid="1"/>
    <tile gid="1"/>
    <tile gid="1"/>
    <tile gid="1"/>
    <tile gid="1"/>
    <tile gid="1"/>
    <tile gid="1"/>
    <tile gid="1"/>
    <tile gid="1"/>
    <tile gid="1"/>
    <tile gid="1"/>
    <tile gid="1"/>
    <tile gid="1"/>
    <tile gid="1"/>
    <tile gid="1"/>
    <tile gid="1"/>
    <tile gid="1"/>
    <tile gid="1"/>
    <tile gid="1"/>
    <tile gid="1"/>
    <tile gid="1"/>
    <tile gid="1"/>
    <tile gid="1"/>
    <tile gid="1"/>
    <tile gid="1"/>
    <tile gid="1"/>
    <tile gid="387"/>
    <tile gid="387"/>
    <tile gid="1"/>
    <tile gid="1"/>
    <tile gid="1"/>
    <tile gid="1"/>
    <tile gid="1"/>
    <tile gid="1"/>
    <tile gid="1"/>
    <tile gid="1"/>
    <tile gid="1"/>
    <tile gid="1"/>
    <tile gid="1"/>
    <tile gid="1"/>
    <tile gid="1"/>
    <tile gid="1"/>
    <tile gid="1"/>
    <tile gid="1"/>
    <tile gid="1"/>
    <tile gid="1"/>
    <tile gid="1"/>
    <tile gid="1"/>
    <tile gid="1"/>
    <tile gid="1"/>
    <tile gid="1"/>
    <tile gid="1"/>
    <tile gid="1"/>
    <tile gid="1"/>
    <tile gid="1"/>
    <tile gid="1"/>
    <tile gid="1"/>
    <tile gid="1"/>
    <tile gid="1"/>
    <tile gid="1"/>
    <tile gid="1"/>
    <tile gid="1"/>
    <tile gid="1"/>
    <tile gid="1"/>
    <tile gid="1"/>
    <tile gid="1"/>
    <tile gid="1"/>
    <tile gid="1"/>
    <tile gid="1"/>
    <tile gid="1"/>
    <tile gid="1"/>
    <tile gid="1"/>
    <tile gid="1"/>
    <tile gid="1"/>
    <tile gid="1"/>
    <tile gid="1"/>
    <tile gid="387"/>
    <tile gid="387"/>
    <tile gid="1"/>
    <tile gid="1"/>
    <tile gid="1"/>
    <tile gid="1"/>
    <tile gid="1"/>
    <tile gid="1"/>
    <tile gid="1"/>
    <tile gid="1"/>
    <tile gid="1"/>
    <tile gid="1"/>
    <tile gid="1"/>
    <tile gid="1"/>
    <tile gid="1"/>
    <tile gid="1"/>
    <tile gid="1"/>
    <tile gid="1"/>
    <tile gid="1"/>
    <tile gid="1"/>
    <tile gid="1"/>
    <tile gid="1"/>
    <tile gid="1"/>
    <tile gid="1"/>
    <tile gid="1"/>
    <tile gid="1"/>
    <tile gid="1"/>
    <tile gid="1"/>
    <tile gid="1"/>
    <tile gid="1"/>
    <tile gid="1"/>
    <tile gid="1"/>
    <tile gid="1"/>
    <tile gid="1"/>
    <tile gid="1"/>
    <tile gid="1"/>
    <tile gid="1"/>
    <tile gid="1"/>
    <tile gid="1"/>
    <tile gid="1"/>
    <tile gid="1"/>
    <tile gid="1"/>
    <tile gid="1"/>
    <tile gid="1"/>
    <tile gid="1"/>
    <tile gid="1"/>
    <tile gid="1"/>
    <tile gid="1"/>
    <tile gid="1"/>
    <tile gid="1"/>
    <tile gid="387"/>
    <tile gid="387"/>
    <tile gid="1"/>
    <tile gid="1"/>
    <tile gid="1"/>
    <tile gid="1"/>
    <tile gid="1"/>
    <tile gid="1"/>
    <tile gid="1"/>
    <tile gid="1"/>
    <tile gid="1"/>
    <tile gid="387"/>
    <tile gid="387"/>
    <tile gid="387"/>
    <tile gid="387"/>
    <tile gid="387"/>
    <tile gid="387"/>
    <tile gid="387"/>
    <tile gid="387"/>
    <tile gid="387"/>
    <tile gid="387"/>
    <tile gid="387"/>
    <tile gid="387"/>
    <tile gid="387"/>
    <tile gid="387"/>
    <tile gid="387"/>
    <tile gid="387"/>
    <tile gid="387"/>
    <tile gid="387"/>
    <tile gid="387"/>
    <tile gid="387"/>
    <tile gid="387"/>
    <tile gid="387"/>
    <tile gid="387"/>
    <tile gid="387"/>
    <tile gid="387"/>
    <tile gid="387"/>
    <tile gid="387"/>
    <tile gid="387"/>
    <tile gid="387"/>
    <tile gid="387"/>
    <tile gid="1"/>
    <tile gid="1"/>
    <tile gid="1"/>
    <tile gid="1"/>
    <tile gid="1"/>
    <tile gid="1"/>
    <tile gid="1"/>
    <tile gid="1"/>
    <tile gid="1"/>
    <tile gid="387"/>
    <tile gid="387"/>
    <tile gid="1"/>
    <tile gid="1"/>
    <tile gid="1"/>
    <tile gid="1"/>
    <tile gid="1"/>
    <tile gid="1"/>
    <tile gid="1"/>
    <tile gid="1"/>
    <tile gid="1"/>
    <tile gid="387"/>
    <tile gid="1"/>
    <tile gid="1"/>
    <tile gid="1"/>
    <tile gid="1"/>
    <tile gid="1"/>
    <tile gid="1"/>
    <tile gid="1"/>
    <tile gid="1"/>
    <tile gid="1"/>
    <tile gid="1"/>
    <tile gid="1"/>
    <tile gid="1"/>
    <tile gid="1"/>
    <tile gid="1"/>
    <tile gid="1"/>
    <tile gid="1"/>
    <tile gid="1"/>
    <tile gid="1"/>
    <tile gid="1"/>
    <tile gid="1"/>
    <tile gid="1"/>
    <tile gid="1"/>
    <tile gid="1"/>
    <tile gid="1"/>
    <tile gid="1"/>
    <tile gid="1"/>
    <tile gid="1"/>
    <tile gid="1"/>
    <tile gid="387"/>
    <tile gid="1"/>
    <tile gid="1"/>
    <tile gid="1"/>
    <tile gid="1"/>
    <tile gid="1"/>
    <tile gid="1"/>
    <tile gid="1"/>
    <tile gid="1"/>
    <tile gid="1"/>
    <tile gid="387"/>
    <tile gid="387"/>
    <tile gid="1"/>
    <tile gid="1"/>
    <tile gid="1"/>
    <tile gid="1"/>
    <tile gid="1"/>
    <tile gid="1"/>
    <tile gid="1"/>
    <tile gid="1"/>
    <tile gid="1"/>
    <tile gid="387"/>
    <tile gid="1"/>
    <tile gid="1"/>
    <tile gid="1"/>
    <tile gid="1"/>
    <tile gid="1"/>
    <tile gid="1"/>
    <tile gid="1"/>
    <tile gid="1"/>
    <tile gid="1"/>
    <tile gid="1"/>
    <tile gid="1"/>
    <tile gid="1"/>
    <tile gid="1"/>
    <tile gid="1"/>
    <tile gid="1"/>
    <tile gid="1"/>
    <tile gid="1"/>
    <tile gid="1"/>
    <tile gid="1"/>
    <tile gid="1"/>
    <tile gid="1"/>
    <tile gid="1"/>
    <tile gid="1"/>
    <tile gid="1"/>
    <tile gid="1"/>
    <tile gid="1"/>
    <tile gid="1"/>
    <tile gid="1"/>
    <tile gid="387"/>
    <tile gid="1"/>
    <tile gid="1"/>
    <tile gid="1"/>
    <tile gid="1"/>
    <tile gid="1"/>
    <tile gid="1"/>
    <tile gid="1"/>
    <tile gid="1"/>
    <tile gid="1"/>
    <tile gid="387"/>
    <tile gid="387"/>
    <tile gid="387"/>
    <tile gid="387"/>
    <tile gid="1"/>
    <tile gid="1"/>
    <tile gid="1"/>
    <tile gid="1"/>
    <tile gid="387"/>
    <tile gid="387"/>
    <tile gid="387"/>
    <tile gid="387"/>
    <tile gid="1"/>
    <tile gid="1"/>
    <tile gid="1"/>
    <tile gid="1"/>
    <tile gid="1"/>
    <tile gid="1"/>
    <tile gid="1"/>
    <tile gid="1"/>
    <tile gid="1"/>
    <tile gid="1"/>
    <tile gid="1"/>
    <tile gid="1"/>
    <tile gid="1"/>
    <tile gid="1"/>
    <tile gid="1"/>
    <tile gid="1"/>
    <tile gid="1"/>
    <tile gid="1"/>
    <tile gid="1"/>
    <tile gid="1"/>
    <tile gid="1"/>
    <tile gid="1"/>
    <tile gid="1"/>
    <tile gid="1"/>
    <tile gid="1"/>
    <tile gid="1"/>
    <tile gid="1"/>
    <tile gid="1"/>
    <tile gid="387"/>
    <tile gid="387"/>
    <tile gid="387"/>
    <tile gid="387"/>
    <tile gid="1"/>
    <tile gid="1"/>
    <tile gid="1"/>
    <tile gid="1"/>
    <tile gid="387"/>
    <tile gid="387"/>
    <tile gid="387"/>
    <tile gid="1"/>
    <tile gid="1"/>
    <tile gid="387"/>
    <tile gid="1"/>
    <tile gid="1"/>
    <tile gid="1"/>
    <tile gid="1"/>
    <tile gid="387"/>
    <tile gid="1"/>
    <tile gid="1"/>
    <tile gid="1"/>
    <tile gid="1"/>
    <tile gid="1"/>
    <tile gid="1"/>
    <tile gid="1"/>
    <tile gid="1"/>
    <tile gid="1"/>
    <tile gid="1"/>
    <tile gid="1"/>
    <tile gid="1"/>
    <tile gid="1"/>
    <tile gid="1"/>
    <tile gid="1"/>
    <tile gid="1"/>
    <tile gid="1"/>
    <tile gid="1"/>
    <tile gid="1"/>
    <tile gid="1"/>
    <tile gid="1"/>
    <tile gid="1"/>
    <tile gid="1"/>
    <tile gid="1"/>
    <tile gid="1"/>
    <tile gid="1"/>
    <tile gid="1"/>
    <tile gid="1"/>
    <tile gid="1"/>
    <tile gid="1"/>
    <tile gid="1"/>
    <tile gid="1"/>
    <tile gid="1"/>
    <tile gid="1"/>
    <tile gid="387"/>
    <tile gid="1"/>
    <tile gid="1"/>
    <tile gid="1"/>
    <tile gid="1"/>
    <tile gid="387"/>
    <tile gid="1"/>
    <tile gid="1"/>
    <tile gid="1"/>
    <tile gid="1"/>
    <tile gid="387"/>
    <tile gid="1"/>
    <tile gid="1"/>
    <tile gid="1"/>
    <tile gid="1"/>
    <tile gid="387"/>
    <tile gid="1"/>
    <tile gid="1"/>
    <tile gid="1"/>
    <tile gid="1"/>
    <tile gid="1"/>
    <tile gid="1"/>
    <tile gid="1"/>
    <tile gid="1"/>
    <tile gid="1"/>
    <tile gid="1"/>
    <tile gid="1"/>
    <tile gid="1"/>
    <tile gid="1"/>
    <tile gid="1"/>
    <tile gid="1"/>
    <tile gid="1"/>
    <tile gid="1"/>
    <tile gid="1"/>
    <tile gid="1"/>
    <tile gid="1"/>
    <tile gid="1"/>
    <tile gid="1"/>
    <tile gid="1"/>
    <tile gid="1"/>
    <tile gid="1"/>
    <tile gid="1"/>
    <tile gid="1"/>
    <tile gid="1"/>
    <tile gid="1"/>
    <tile gid="1"/>
    <tile gid="1"/>
    <tile gid="1"/>
    <tile gid="1"/>
    <tile gid="1"/>
    <tile gid="387"/>
    <tile gid="1"/>
    <tile gid="1"/>
    <tile gid="1"/>
    <tile gid="1"/>
    <tile gid="387"/>
    <tile gid="1"/>
    <tile gid="1"/>
    <tile gid="1"/>
    <tile gid="1"/>
    <tile gid="387"/>
    <tile gid="1"/>
    <tile gid="1"/>
    <tile gid="1"/>
    <tile gid="1"/>
    <tile gid="387"/>
    <tile gid="1"/>
    <tile gid="1"/>
    <tile gid="1"/>
    <tile gid="1"/>
    <tile gid="1"/>
    <tile gid="1"/>
    <tile gid="1"/>
    <tile gid="1"/>
    <tile gid="1"/>
    <tile gid="1"/>
    <tile gid="1"/>
    <tile gid="1"/>
    <tile gid="1"/>
    <tile gid="1"/>
    <tile gid="1"/>
    <tile gid="1"/>
    <tile gid="1"/>
    <tile gid="1"/>
    <tile gid="1"/>
    <tile gid="1"/>
    <tile gid="1"/>
    <tile gid="1"/>
    <tile gid="1"/>
    <tile gid="1"/>
    <tile gid="1"/>
    <tile gid="1"/>
    <tile gid="1"/>
    <tile gid="1"/>
    <tile gid="1"/>
    <tile gid="1"/>
    <tile gid="1"/>
    <tile gid="1"/>
    <tile gid="1"/>
    <tile gid="1"/>
    <tile gid="387"/>
    <tile gid="1"/>
    <tile gid="1"/>
    <tile gid="1"/>
    <tile gid="1"/>
    <tile gid="387"/>
    <tile gid="1"/>
    <tile gid="1"/>
    <tile gid="1"/>
    <tile gid="1"/>
    <tile gid="387"/>
    <tile gid="1"/>
    <tile gid="1"/>
    <tile gid="1"/>
    <tile gid="1"/>
    <tile gid="387"/>
    <tile gid="1"/>
    <tile gid="1"/>
    <tile gid="1"/>
    <tile gid="1"/>
    <tile gid="1"/>
    <tile gid="1"/>
    <tile gid="1"/>
    <tile gid="1"/>
    <tile gid="1"/>
    <tile gid="1"/>
    <tile gid="1"/>
    <tile gid="1"/>
    <tile gid="1"/>
    <tile gid="1"/>
    <tile gid="1"/>
    <tile gid="1"/>
    <tile gid="1"/>
    <tile gid="1"/>
    <tile gid="1"/>
    <tile gid="1"/>
    <tile gid="1"/>
    <tile gid="1"/>
    <tile gid="1"/>
    <tile gid="1"/>
    <tile gid="1"/>
    <tile gid="1"/>
    <tile gid="1"/>
    <tile gid="1"/>
    <tile gid="1"/>
    <tile gid="1"/>
    <tile gid="1"/>
    <tile gid="1"/>
    <tile gid="1"/>
    <tile gid="1"/>
    <tile gid="387"/>
    <tile gid="1"/>
    <tile gid="1"/>
    <tile gid="1"/>
    <tile gid="1"/>
    <tile gid="387"/>
    <tile gid="1"/>
    <tile gid="1"/>
    <tile gid="1"/>
    <tile gid="1"/>
    <tile gid="387"/>
    <tile gid="1"/>
    <tile gid="1"/>
    <tile gid="1"/>
    <tile gid="1"/>
    <tile gid="387"/>
    <tile gid="1"/>
    <tile gid="1"/>
    <tile gid="1"/>
    <tile gid="1"/>
    <tile gid="1"/>
    <tile gid="1"/>
    <tile gid="1"/>
    <tile gid="1"/>
    <tile gid="1"/>
    <tile gid="1"/>
    <tile gid="1"/>
    <tile gid="1"/>
    <tile gid="1"/>
    <tile gid="1"/>
    <tile gid="1"/>
    <tile gid="1"/>
    <tile gid="1"/>
    <tile gid="387"/>
    <tile gid="387"/>
    <tile gid="387"/>
    <tile gid="387"/>
    <tile gid="387"/>
    <tile gid="387"/>
    <tile gid="387"/>
    <tile gid="387"/>
    <tile gid="387"/>
    <tile gid="387"/>
    <tile gid="387"/>
    <tile gid="387"/>
    <tile gid="387"/>
    <tile gid="387"/>
    <tile gid="387"/>
    <tile gid="387"/>
    <tile gid="1"/>
    <tile gid="387"/>
    <tile gid="1"/>
    <tile gid="1"/>
    <tile gid="1"/>
    <tile gid="1"/>
    <tile gid="387"/>
    <tile gid="1"/>
    <tile gid="1"/>
    <tile gid="1"/>
    <tile gid="1"/>
    <tile gid="387"/>
    <tile gid="1"/>
    <tile gid="1"/>
    <tile gid="1"/>
    <tile gid="1"/>
    <tile gid="387"/>
    <tile gid="1"/>
    <tile gid="1"/>
    <tile gid="1"/>
    <tile gid="1"/>
    <tile gid="1"/>
    <tile gid="1"/>
    <tile gid="1"/>
    <tile gid="1"/>
    <tile gid="1"/>
    <tile gid="1"/>
    <tile gid="1"/>
    <tile gid="1"/>
    <tile gid="1"/>
    <tile gid="1"/>
    <tile gid="1"/>
    <tile gid="1"/>
    <tile gid="1"/>
    <tile gid="387"/>
    <tile gid="1"/>
    <tile gid="1"/>
    <tile gid="1"/>
    <tile gid="1"/>
    <tile gid="1"/>
    <tile gid="1"/>
    <tile gid="1"/>
    <tile gid="1"/>
    <tile gid="1"/>
    <tile gid="1"/>
    <tile gid="1"/>
    <tile gid="1"/>
    <tile gid="1"/>
    <tile gid="1"/>
    <tile gid="387"/>
    <tile gid="1"/>
    <tile gid="387"/>
    <tile gid="1"/>
    <tile gid="1"/>
    <tile gid="1"/>
    <tile gid="1"/>
    <tile gid="387"/>
    <tile gid="1"/>
    <tile gid="1"/>
    <tile gid="387"/>
    <tile gid="387"/>
    <tile gid="387"/>
    <tile gid="1"/>
    <tile gid="1"/>
    <tile gid="1"/>
    <tile gid="1"/>
    <tile gid="387"/>
    <tile gid="387"/>
    <tile gid="387"/>
    <tile gid="387"/>
    <tile gid="1"/>
    <tile gid="1"/>
    <tile gid="1"/>
    <tile gid="1"/>
    <tile gid="1"/>
    <tile gid="1"/>
    <tile gid="1"/>
    <tile gid="1"/>
    <tile gid="1"/>
    <tile gid="1"/>
    <tile gid="1"/>
    <tile gid="1"/>
    <tile gid="1"/>
    <tile gid="1"/>
    <tile gid="387"/>
    <tile gid="1"/>
    <tile gid="1"/>
    <tile gid="1"/>
    <tile gid="1"/>
    <tile gid="1"/>
    <tile gid="1"/>
    <tile gid="1"/>
    <tile gid="1"/>
    <tile gid="1"/>
    <tile gid="1"/>
    <tile gid="1"/>
    <tile gid="1"/>
    <tile gid="1"/>
    <tile gid="1"/>
    <tile gid="387"/>
    <tile gid="1"/>
    <tile gid="387"/>
    <tile gid="1"/>
    <tile gid="1"/>
    <tile gid="1"/>
    <tile gid="1"/>
    <tile gid="387"/>
    <tile gid="1"/>
    <tile gid="1"/>
    <tile gid="387"/>
    <tile gid="1"/>
    <tile gid="1"/>
    <tile gid="1"/>
    <tile gid="1"/>
    <tile gid="1"/>
    <tile gid="1"/>
    <tile gid="1"/>
    <tile gid="1"/>
    <tile gid="1"/>
    <tile gid="387"/>
    <tile gid="1"/>
    <tile gid="1"/>
    <tile gid="1"/>
    <tile gid="1"/>
    <tile gid="1"/>
    <tile gid="1"/>
    <tile gid="1"/>
    <tile gid="1"/>
    <tile gid="1"/>
    <tile gid="1"/>
    <tile gid="1"/>
    <tile gid="1"/>
    <tile gid="1"/>
    <tile gid="1"/>
    <tile gid="387"/>
    <tile gid="1"/>
    <tile gid="1"/>
    <tile gid="1"/>
    <tile gid="1"/>
    <tile gid="1"/>
    <tile gid="1"/>
    <tile gid="1"/>
    <tile gid="1"/>
    <tile gid="1"/>
    <tile gid="1"/>
    <tile gid="1"/>
    <tile gid="1"/>
    <tile gid="1"/>
    <tile gid="1"/>
    <tile gid="387"/>
    <tile gid="1"/>
    <tile gid="387"/>
    <tile gid="1"/>
    <tile gid="1"/>
    <tile gid="1"/>
    <tile gid="1"/>
    <tile gid="387"/>
    <tile gid="1"/>
    <tile gid="1"/>
    <tile gid="387"/>
    <tile gid="1"/>
    <tile gid="1"/>
    <tile gid="1"/>
    <tile gid="1"/>
    <tile gid="1"/>
    <tile gid="1"/>
    <tile gid="1"/>
    <tile gid="1"/>
    <tile gid="1"/>
    <tile gid="387"/>
    <tile gid="1"/>
    <tile gid="1"/>
    <tile gid="1"/>
    <tile gid="1"/>
    <tile gid="1"/>
    <tile gid="1"/>
    <tile gid="1"/>
    <tile gid="1"/>
    <tile gid="1"/>
    <tile gid="1"/>
    <tile gid="1"/>
    <tile gid="1"/>
    <tile gid="1"/>
    <tile gid="1"/>
    <tile gid="387"/>
    <tile gid="1"/>
    <tile gid="1"/>
    <tile gid="1"/>
    <tile gid="1"/>
    <tile gid="1"/>
    <tile gid="1"/>
    <tile gid="1"/>
    <tile gid="1"/>
    <tile gid="1"/>
    <tile gid="1"/>
    <tile gid="1"/>
    <tile gid="1"/>
    <tile gid="1"/>
    <tile gid="1"/>
    <tile gid="387"/>
    <tile gid="1"/>
    <tile gid="387"/>
    <tile gid="1"/>
    <tile gid="1"/>
    <tile gid="1"/>
    <tile gid="1"/>
    <tile gid="387"/>
    <tile gid="1"/>
    <tile gid="1"/>
    <tile gid="387"/>
    <tile gid="1"/>
    <tile gid="1"/>
    <tile gid="1"/>
    <tile gid="1"/>
    <tile gid="1"/>
    <tile gid="1"/>
    <tile gid="1"/>
    <tile gid="1"/>
    <tile gid="1"/>
    <tile gid="387"/>
    <tile gid="387"/>
    <tile gid="387"/>
    <tile gid="387"/>
    <tile gid="387"/>
    <tile gid="387"/>
    <tile gid="387"/>
    <tile gid="387"/>
    <tile gid="387"/>
    <tile gid="387"/>
    <tile gid="387"/>
    <tile gid="387"/>
    <tile gid="387"/>
    <tile gid="387"/>
    <tile gid="387"/>
    <tile gid="387"/>
    <tile gid="1"/>
    <tile gid="1"/>
    <tile gid="1"/>
    <tile gid="1"/>
    <tile gid="1"/>
    <tile gid="1"/>
    <tile gid="1"/>
    <tile gid="1"/>
    <tile gid="1"/>
    <tile gid="1"/>
    <tile gid="1"/>
    <tile gid="1"/>
    <tile gid="1"/>
    <tile gid="1"/>
    <tile gid="387"/>
    <tile gid="1"/>
    <tile gid="387"/>
    <tile gid="1"/>
    <tile gid="1"/>
    <tile gid="1"/>
    <tile gid="1"/>
    <tile gid="387"/>
    <tile gid="1"/>
    <tile gid="1"/>
    <tile gid="387"/>
    <tile gid="1"/>
    <tile gid="1"/>
    <tile gid="1"/>
    <tile gid="1"/>
    <tile gid="1"/>
    <tile gid="1"/>
    <tile gid="1"/>
    <tile gid="1"/>
    <tile gid="1"/>
    <tile gid="1"/>
    <tile gid="1"/>
    <tile gid="1"/>
    <tile gid="1"/>
    <tile gid="1"/>
    <tile gid="1"/>
    <tile gid="1"/>
    <tile gid="1"/>
    <tile gid="1"/>
    <tile gid="1"/>
    <tile gid="1"/>
    <tile gid="1"/>
    <tile gid="1"/>
    <tile gid="1"/>
    <tile gid="1"/>
    <tile gid="1"/>
    <tile gid="1"/>
    <tile gid="1"/>
    <tile gid="1"/>
    <tile gid="1"/>
    <tile gid="1"/>
    <tile gid="1"/>
    <tile gid="1"/>
    <tile gid="1"/>
    <tile gid="1"/>
    <tile gid="1"/>
    <tile gid="1"/>
    <tile gid="1"/>
    <tile gid="1"/>
    <tile gid="1"/>
    <tile gid="387"/>
    <tile gid="1"/>
    <tile gid="387"/>
    <tile gid="1"/>
    <tile gid="1"/>
    <tile gid="1"/>
    <tile gid="1"/>
    <tile gid="387"/>
    <tile gid="1"/>
    <tile gid="1"/>
    <tile gid="387"/>
    <tile gid="1"/>
    <tile gid="1"/>
    <tile gid="1"/>
    <tile gid="1"/>
    <tile gid="1"/>
    <tile gid="1"/>
    <tile gid="1"/>
    <tile gid="1"/>
    <tile gid="1"/>
    <tile gid="1"/>
    <tile gid="1"/>
    <tile gid="1"/>
    <tile gid="1"/>
    <tile gid="1"/>
    <tile gid="1"/>
    <tile gid="1"/>
    <tile gid="1"/>
    <tile gid="1"/>
    <tile gid="1"/>
    <tile gid="1"/>
    <tile gid="1"/>
    <tile gid="1"/>
    <tile gid="1"/>
    <tile gid="1"/>
    <tile gid="1"/>
    <tile gid="1"/>
    <tile gid="1"/>
    <tile gid="1"/>
    <tile gid="1"/>
    <tile gid="1"/>
    <tile gid="1"/>
    <tile gid="1"/>
    <tile gid="1"/>
    <tile gid="1"/>
    <tile gid="1"/>
    <tile gid="1"/>
    <tile gid="1"/>
    <tile gid="1"/>
    <tile gid="1"/>
    <tile gid="387"/>
    <tile gid="1"/>
    <tile gid="387"/>
    <tile gid="1"/>
    <tile gid="1"/>
    <tile gid="1"/>
    <tile gid="1"/>
    <tile gid="387"/>
    <tile gid="1"/>
    <tile gid="1"/>
    <tile gid="387"/>
    <tile gid="1"/>
    <tile gid="1"/>
    <tile gid="1"/>
    <tile gid="1"/>
    <tile gid="1"/>
    <tile gid="1"/>
    <tile gid="1"/>
    <tile gid="1"/>
    <tile gid="1"/>
    <tile gid="1"/>
    <tile gid="1"/>
    <tile gid="1"/>
    <tile gid="1"/>
    <tile gid="1"/>
    <tile gid="1"/>
    <tile gid="1"/>
    <tile gid="1"/>
    <tile gid="1"/>
    <tile gid="1"/>
    <tile gid="1"/>
    <tile gid="1"/>
    <tile gid="1"/>
    <tile gid="1"/>
    <tile gid="1"/>
    <tile gid="1"/>
    <tile gid="1"/>
    <tile gid="1"/>
    <tile gid="1"/>
    <tile gid="1"/>
    <tile gid="1"/>
    <tile gid="1"/>
    <tile gid="1"/>
    <tile gid="1"/>
    <tile gid="1"/>
    <tile gid="1"/>
    <tile gid="1"/>
    <tile gid="1"/>
    <tile gid="1"/>
    <tile gid="1"/>
    <tile gid="387"/>
    <tile gid="1"/>
    <tile gid="387"/>
    <tile gid="1"/>
    <tile gid="1"/>
    <tile gid="1"/>
    <tile gid="1"/>
    <tile gid="387"/>
    <tile gid="1"/>
    <tile gid="1"/>
    <tile gid="387"/>
    <tile gid="1"/>
    <tile gid="1"/>
    <tile gid="1"/>
    <tile gid="1"/>
    <tile gid="1"/>
    <tile gid="1"/>
    <tile gid="1"/>
    <tile gid="1"/>
    <tile gid="1"/>
    <tile gid="1"/>
    <tile gid="1"/>
    <tile gid="1"/>
    <tile gid="1"/>
    <tile gid="1"/>
    <tile gid="1"/>
    <tile gid="1"/>
    <tile gid="1"/>
    <tile gid="1"/>
    <tile gid="1"/>
    <tile gid="1"/>
    <tile gid="1"/>
    <tile gid="1"/>
    <tile gid="1"/>
    <tile gid="1"/>
    <tile gid="1"/>
    <tile gid="1"/>
    <tile gid="1"/>
    <tile gid="1"/>
    <tile gid="1"/>
    <tile gid="1"/>
    <tile gid="1"/>
    <tile gid="1"/>
    <tile gid="1"/>
    <tile gid="1"/>
    <tile gid="1"/>
    <tile gid="1"/>
    <tile gid="1"/>
    <tile gid="1"/>
    <tile gid="1"/>
    <tile gid="387"/>
    <tile gid="1"/>
    <tile gid="387"/>
    <tile gid="1"/>
    <tile gid="1"/>
    <tile gid="1"/>
    <tile gid="1"/>
    <tile gid="387"/>
    <tile gid="1"/>
    <tile gid="1"/>
    <tile gid="387"/>
    <tile gid="1"/>
    <tile gid="1"/>
    <tile gid="1"/>
    <tile gid="1"/>
    <tile gid="1"/>
    <tile gid="1"/>
    <tile gid="1"/>
    <tile gid="1"/>
    <tile gid="1"/>
    <tile gid="387"/>
    <tile gid="387"/>
    <tile gid="387"/>
    <tile gid="387"/>
    <tile gid="387"/>
    <tile gid="387"/>
    <tile gid="387"/>
    <tile gid="387"/>
    <tile gid="387"/>
    <tile gid="387"/>
    <tile gid="387"/>
    <tile gid="387"/>
    <tile gid="387"/>
    <tile gid="387"/>
    <tile gid="387"/>
    <tile gid="387"/>
    <tile gid="1"/>
    <tile gid="1"/>
    <tile gid="1"/>
    <tile gid="1"/>
    <tile gid="1"/>
    <tile gid="1"/>
    <tile gid="1"/>
    <tile gid="1"/>
    <tile gid="1"/>
    <tile gid="1"/>
    <tile gid="1"/>
    <tile gid="1"/>
    <tile gid="1"/>
    <tile gid="1"/>
    <tile gid="387"/>
    <tile gid="1"/>
    <tile gid="387"/>
    <tile gid="1"/>
    <tile gid="1"/>
    <tile gid="1"/>
    <tile gid="1"/>
    <tile gid="387"/>
    <tile gid="1"/>
    <tile gid="1"/>
    <tile gid="387"/>
    <tile gid="1"/>
    <tile gid="1"/>
    <tile gid="1"/>
    <tile gid="1"/>
    <tile gid="1"/>
    <tile gid="1"/>
    <tile gid="1"/>
    <tile gid="1"/>
    <tile gid="1"/>
    <tile gid="387"/>
    <tile gid="1"/>
    <tile gid="1"/>
    <tile gid="1"/>
    <tile gid="1"/>
    <tile gid="1"/>
    <tile gid="1"/>
    <tile gid="1"/>
    <tile gid="1"/>
    <tile gid="1"/>
    <tile gid="1"/>
    <tile gid="1"/>
    <tile gid="1"/>
    <tile gid="1"/>
    <tile gid="1"/>
    <tile gid="387"/>
    <tile gid="1"/>
    <tile gid="1"/>
    <tile gid="1"/>
    <tile gid="1"/>
    <tile gid="1"/>
    <tile gid="1"/>
    <tile gid="1"/>
    <tile gid="1"/>
    <tile gid="1"/>
    <tile gid="1"/>
    <tile gid="1"/>
    <tile gid="1"/>
    <tile gid="1"/>
    <tile gid="1"/>
    <tile gid="387"/>
    <tile gid="1"/>
    <tile gid="387"/>
    <tile gid="1"/>
    <tile gid="1"/>
    <tile gid="1"/>
    <tile gid="1"/>
    <tile gid="387"/>
    <tile gid="1"/>
    <tile gid="1"/>
    <tile gid="387"/>
    <tile gid="1"/>
    <tile gid="1"/>
    <tile gid="1"/>
    <tile gid="1"/>
    <tile gid="1"/>
    <tile gid="1"/>
    <tile gid="1"/>
    <tile gid="1"/>
    <tile gid="1"/>
    <tile gid="387"/>
    <tile gid="1"/>
    <tile gid="1"/>
    <tile gid="1"/>
    <tile gid="1"/>
    <tile gid="1"/>
    <tile gid="1"/>
    <tile gid="1"/>
    <tile gid="1"/>
    <tile gid="1"/>
    <tile gid="1"/>
    <tile gid="1"/>
    <tile gid="1"/>
    <tile gid="1"/>
    <tile gid="1"/>
    <tile gid="387"/>
    <tile gid="1"/>
    <tile gid="1"/>
    <tile gid="1"/>
    <tile gid="1"/>
    <tile gid="1"/>
    <tile gid="1"/>
    <tile gid="1"/>
    <tile gid="1"/>
    <tile gid="1"/>
    <tile gid="1"/>
    <tile gid="1"/>
    <tile gid="1"/>
    <tile gid="1"/>
    <tile gid="1"/>
    <tile gid="387"/>
    <tile gid="1"/>
    <tile gid="387"/>
    <tile gid="1"/>
    <tile gid="1"/>
    <tile gid="1"/>
    <tile gid="1"/>
    <tile gid="387"/>
    <tile gid="1"/>
    <tile gid="1"/>
    <tile gid="387"/>
    <tile gid="387"/>
    <tile gid="387"/>
    <tile gid="387"/>
    <tile gid="387"/>
    <tile gid="387"/>
    <tile gid="387"/>
    <tile gid="387"/>
    <tile gid="387"/>
    <tile gid="387"/>
    <tile gid="387"/>
    <tile gid="1"/>
    <tile gid="1"/>
    <tile gid="1"/>
    <tile gid="1"/>
    <tile gid="1"/>
    <tile gid="1"/>
    <tile gid="1"/>
    <tile gid="1"/>
    <tile gid="1"/>
    <tile gid="1"/>
    <tile gid="1"/>
    <tile gid="1"/>
    <tile gid="1"/>
    <tile gid="1"/>
    <tile gid="387"/>
    <tile gid="1"/>
    <tile gid="1"/>
    <tile gid="1"/>
    <tile gid="1"/>
    <tile gid="1"/>
    <tile gid="1"/>
    <tile gid="1"/>
    <tile gid="1"/>
    <tile gid="1"/>
    <tile gid="1"/>
    <tile gid="1"/>
    <tile gid="1"/>
    <tile gid="1"/>
    <tile gid="1"/>
    <tile gid="387"/>
    <tile gid="1"/>
    <tile gid="387"/>
    <tile gid="1"/>
    <tile gid="1"/>
    <tile gid="1"/>
    <tile gid="1"/>
    <tile gid="387"/>
    <tile gid="1"/>
    <tile gid="1"/>
    <tile gid="1"/>
    <tile gid="1"/>
    <tile gid="1"/>
    <tile gid="1"/>
    <tile gid="1"/>
    <tile gid="1"/>
    <tile gid="1"/>
    <tile gid="1"/>
    <tile gid="1"/>
    <tile gid="1"/>
    <tile gid="1"/>
    <tile gid="1"/>
    <tile gid="1"/>
    <tile gid="1"/>
    <tile gid="1"/>
    <tile gid="1"/>
    <tile gid="1"/>
    <tile gid="1"/>
    <tile gid="1"/>
    <tile gid="1"/>
    <tile gid="1"/>
    <tile gid="1"/>
    <tile gid="1"/>
    <tile gid="1"/>
    <tile gid="1"/>
    <tile gid="387"/>
    <tile gid="1"/>
    <tile gid="1"/>
    <tile gid="1"/>
    <tile gid="1"/>
    <tile gid="1"/>
    <tile gid="1"/>
    <tile gid="1"/>
    <tile gid="1"/>
    <tile gid="1"/>
    <tile gid="1"/>
    <tile gid="1"/>
    <tile gid="1"/>
    <tile gid="1"/>
    <tile gid="1"/>
    <tile gid="387"/>
    <tile gid="1"/>
    <tile gid="387"/>
    <tile gid="1"/>
    <tile gid="1"/>
    <tile gid="1"/>
    <tile gid="1"/>
    <tile gid="387"/>
    <tile gid="1"/>
    <tile gid="1"/>
    <tile gid="1"/>
    <tile gid="1"/>
    <tile gid="1"/>
    <tile gid="1"/>
    <tile gid="1"/>
    <tile gid="1"/>
    <tile gid="1"/>
    <tile gid="1"/>
    <tile gid="1"/>
    <tile gid="1"/>
    <tile gid="1"/>
    <tile gid="1"/>
    <tile gid="1"/>
    <tile gid="1"/>
    <tile gid="1"/>
    <tile gid="1"/>
    <tile gid="1"/>
    <tile gid="1"/>
    <tile gid="1"/>
    <tile gid="1"/>
    <tile gid="1"/>
    <tile gid="1"/>
    <tile gid="1"/>
    <tile gid="1"/>
    <tile gid="1"/>
    <tile gid="387"/>
    <tile gid="387"/>
    <tile gid="387"/>
    <tile gid="387"/>
    <tile gid="387"/>
    <tile gid="387"/>
    <tile gid="387"/>
    <tile gid="387"/>
    <tile gid="387"/>
    <tile gid="387"/>
    <tile gid="387"/>
    <tile gid="387"/>
    <tile gid="387"/>
    <tile gid="387"/>
    <tile gid="387"/>
    <tile gid="387"/>
    <tile gid="1"/>
    <tile gid="387"/>
    <tile gid="1"/>
    <tile gid="1"/>
    <tile gid="1"/>
    <tile gid="1"/>
    <tile gid="387"/>
    <tile gid="1"/>
    <tile gid="1"/>
    <tile gid="1"/>
    <tile gid="1"/>
    <tile gid="1"/>
    <tile gid="1"/>
    <tile gid="1"/>
    <tile gid="1"/>
    <tile gid="1"/>
    <tile gid="1"/>
    <tile gid="1"/>
    <tile gid="1"/>
    <tile gid="1"/>
    <tile gid="1"/>
    <tile gid="1"/>
    <tile gid="1"/>
    <tile gid="1"/>
    <tile gid="1"/>
    <tile gid="1"/>
    <tile gid="1"/>
    <tile gid="1"/>
    <tile gid="1"/>
    <tile gid="1"/>
    <tile gid="1"/>
    <tile gid="1"/>
    <tile gid="1"/>
    <tile gid="1"/>
    <tile gid="1"/>
    <tile gid="1"/>
    <tile gid="1"/>
    <tile gid="1"/>
    <tile gid="1"/>
    <tile gid="1"/>
    <tile gid="1"/>
    <tile gid="1"/>
    <tile gid="1"/>
    <tile gid="1"/>
    <tile gid="1"/>
    <tile gid="1"/>
    <tile gid="1"/>
    <tile gid="1"/>
    <tile gid="1"/>
    <tile gid="1"/>
    <tile gid="1"/>
    <tile gid="387"/>
    <tile gid="1"/>
    <tile gid="1"/>
    <tile gid="1"/>
    <tile gid="1"/>
    <tile gid="387"/>
    <tile gid="1"/>
    <tile gid="1"/>
    <tile gid="1"/>
    <tile gid="1"/>
    <tile gid="1"/>
    <tile gid="1"/>
    <tile gid="1"/>
    <tile gid="1"/>
    <tile gid="1"/>
    <tile gid="1"/>
    <tile gid="1"/>
    <tile gid="1"/>
    <tile gid="1"/>
    <tile gid="1"/>
    <tile gid="1"/>
    <tile gid="1"/>
    <tile gid="1"/>
    <tile gid="1"/>
    <tile gid="1"/>
    <tile gid="1"/>
    <tile gid="1"/>
    <tile gid="1"/>
    <tile gid="1"/>
    <tile gid="1"/>
    <tile gid="1"/>
    <tile gid="1"/>
    <tile gid="1"/>
    <tile gid="1"/>
    <tile gid="1"/>
    <tile gid="1"/>
    <tile gid="1"/>
    <tile gid="1"/>
    <tile gid="1"/>
    <tile gid="1"/>
    <tile gid="1"/>
    <tile gid="1"/>
    <tile gid="1"/>
    <tile gid="1"/>
    <tile gid="1"/>
    <tile gid="1"/>
    <tile gid="1"/>
    <tile gid="1"/>
    <tile gid="1"/>
    <tile gid="1"/>
    <tile gid="387"/>
    <tile gid="1"/>
    <tile gid="1"/>
    <tile gid="1"/>
    <tile gid="1"/>
    <tile gid="387"/>
    <tile gid="1"/>
    <tile gid="1"/>
    <tile gid="1"/>
    <tile gid="1"/>
    <tile gid="1"/>
    <tile gid="1"/>
    <tile gid="1"/>
    <tile gid="1"/>
    <tile gid="1"/>
    <tile gid="1"/>
    <tile gid="1"/>
    <tile gid="1"/>
    <tile gid="1"/>
    <tile gid="1"/>
    <tile gid="1"/>
    <tile gid="1"/>
    <tile gid="1"/>
    <tile gid="1"/>
    <tile gid="1"/>
    <tile gid="1"/>
    <tile gid="1"/>
    <tile gid="1"/>
    <tile gid="1"/>
    <tile gid="1"/>
    <tile gid="1"/>
    <tile gid="1"/>
    <tile gid="1"/>
    <tile gid="1"/>
    <tile gid="1"/>
    <tile gid="1"/>
    <tile gid="1"/>
    <tile gid="1"/>
    <tile gid="1"/>
    <tile gid="1"/>
    <tile gid="1"/>
    <tile gid="1"/>
    <tile gid="1"/>
    <tile gid="1"/>
    <tile gid="1"/>
    <tile gid="1"/>
    <tile gid="1"/>
    <tile gid="1"/>
    <tile gid="1"/>
    <tile gid="1"/>
    <tile gid="387"/>
    <tile gid="1"/>
    <tile gid="1"/>
    <tile gid="1"/>
    <tile gid="1"/>
    <tile gid="387"/>
    <tile gid="1"/>
    <tile gid="1"/>
    <tile gid="1"/>
    <tile gid="1"/>
    <tile gid="1"/>
    <tile gid="1"/>
    <tile gid="1"/>
    <tile gid="1"/>
    <tile gid="1"/>
    <tile gid="1"/>
    <tile gid="1"/>
    <tile gid="1"/>
    <tile gid="1"/>
    <tile gid="1"/>
    <tile gid="1"/>
    <tile gid="1"/>
    <tile gid="1"/>
    <tile gid="1"/>
    <tile gid="1"/>
    <tile gid="1"/>
    <tile gid="1"/>
    <tile gid="1"/>
    <tile gid="1"/>
    <tile gid="1"/>
    <tile gid="1"/>
    <tile gid="1"/>
    <tile gid="1"/>
    <tile gid="1"/>
    <tile gid="1"/>
    <tile gid="1"/>
    <tile gid="1"/>
    <tile gid="1"/>
    <tile gid="1"/>
    <tile gid="1"/>
    <tile gid="1"/>
    <tile gid="1"/>
    <tile gid="1"/>
    <tile gid="1"/>
    <tile gid="1"/>
    <tile gid="1"/>
    <tile gid="1"/>
    <tile gid="1"/>
    <tile gid="1"/>
    <tile gid="1"/>
    <tile gid="387"/>
    <tile gid="1"/>
    <tile gid="1"/>
    <tile gid="1"/>
    <tile gid="1"/>
    <tile gid="387"/>
    <tile gid="1"/>
    <tile gid="1"/>
    <tile gid="1"/>
    <tile gid="1"/>
    <tile gid="1"/>
    <tile gid="1"/>
    <tile gid="1"/>
    <tile gid="1"/>
    <tile gid="1"/>
    <tile gid="1"/>
    <tile gid="1"/>
    <tile gid="1"/>
    <tile gid="1"/>
    <tile gid="1"/>
    <tile gid="1"/>
    <tile gid="1"/>
    <tile gid="1"/>
    <tile gid="1"/>
    <tile gid="1"/>
    <tile gid="1"/>
    <tile gid="1"/>
    <tile gid="1"/>
    <tile gid="1"/>
    <tile gid="1"/>
    <tile gid="1"/>
    <tile gid="1"/>
    <tile gid="1"/>
    <tile gid="1"/>
    <tile gid="1"/>
    <tile gid="1"/>
    <tile gid="1"/>
    <tile gid="1"/>
    <tile gid="1"/>
    <tile gid="1"/>
    <tile gid="1"/>
    <tile gid="1"/>
    <tile gid="1"/>
    <tile gid="1"/>
    <tile gid="1"/>
    <tile gid="1"/>
    <tile gid="1"/>
    <tile gid="1"/>
    <tile gid="1"/>
    <tile gid="1"/>
    <tile gid="387"/>
    <tile gid="1"/>
    <tile gid="1"/>
    <tile gid="1"/>
    <tile gid="1"/>
    <tile gid="387"/>
    <tile gid="1"/>
    <tile gid="1"/>
    <tile gid="387"/>
    <tile gid="387"/>
    <tile gid="387"/>
    <tile gid="387"/>
    <tile gid="387"/>
    <tile gid="387"/>
    <tile gid="387"/>
    <tile gid="387"/>
    <tile gid="387"/>
    <tile gid="387"/>
    <tile gid="387"/>
    <tile gid="1"/>
    <tile gid="1"/>
    <tile gid="1"/>
    <tile gid="1"/>
    <tile gid="1"/>
    <tile gid="1"/>
    <tile gid="1"/>
    <tile gid="1"/>
    <tile gid="1"/>
    <tile gid="1"/>
    <tile gid="1"/>
    <tile gid="1"/>
    <tile gid="1"/>
    <tile gid="1"/>
    <tile gid="1"/>
    <tile gid="1"/>
    <tile gid="1"/>
    <tile gid="1"/>
    <tile gid="1"/>
    <tile gid="1"/>
    <tile gid="1"/>
    <tile gid="1"/>
    <tile gid="1"/>
    <tile gid="1"/>
    <tile gid="1"/>
    <tile gid="1"/>
    <tile gid="1"/>
    <tile gid="1"/>
    <tile gid="387"/>
    <tile gid="387"/>
    <tile gid="387"/>
    <tile gid="387"/>
    <tile gid="1"/>
    <tile gid="1"/>
    <tile gid="1"/>
    <tile gid="1"/>
    <tile gid="387"/>
    <tile gid="387"/>
    <tile gid="387"/>
    <tile gid="387"/>
    <tile gid="1"/>
    <tile gid="1"/>
    <tile gid="1"/>
    <tile gid="1"/>
    <tile gid="1"/>
    <tile gid="1"/>
    <tile gid="1"/>
    <tile gid="1"/>
    <tile gid="1"/>
    <tile gid="387"/>
    <tile gid="1"/>
    <tile gid="1"/>
    <tile gid="1"/>
    <tile gid="1"/>
    <tile gid="1"/>
    <tile gid="1"/>
    <tile gid="1"/>
    <tile gid="1"/>
    <tile gid="1"/>
    <tile gid="1"/>
    <tile gid="1"/>
    <tile gid="1"/>
    <tile gid="1"/>
    <tile gid="1"/>
    <tile gid="1"/>
    <tile gid="1"/>
    <tile gid="1"/>
    <tile gid="1"/>
    <tile gid="1"/>
    <tile gid="1"/>
    <tile gid="1"/>
    <tile gid="1"/>
    <tile gid="1"/>
    <tile gid="1"/>
    <tile gid="1"/>
    <tile gid="1"/>
    <tile gid="1"/>
    <tile gid="1"/>
    <tile gid="387"/>
    <tile gid="1"/>
    <tile gid="1"/>
    <tile gid="1"/>
    <tile gid="1"/>
    <tile gid="1"/>
    <tile gid="1"/>
    <tile gid="1"/>
    <tile gid="1"/>
    <tile gid="1"/>
    <tile gid="387"/>
    <tile gid="387"/>
    <tile gid="1"/>
    <tile gid="1"/>
    <tile gid="1"/>
    <tile gid="1"/>
    <tile gid="1"/>
    <tile gid="1"/>
    <tile gid="1"/>
    <tile gid="1"/>
    <tile gid="1"/>
    <tile gid="387"/>
    <tile gid="1"/>
    <tile gid="1"/>
    <tile gid="1"/>
    <tile gid="1"/>
    <tile gid="1"/>
    <tile gid="1"/>
    <tile gid="1"/>
    <tile gid="1"/>
    <tile gid="1"/>
    <tile gid="1"/>
    <tile gid="1"/>
    <tile gid="1"/>
    <tile gid="1"/>
    <tile gid="1"/>
    <tile gid="1"/>
    <tile gid="1"/>
    <tile gid="1"/>
    <tile gid="1"/>
    <tile gid="1"/>
    <tile gid="1"/>
    <tile gid="1"/>
    <tile gid="1"/>
    <tile gid="1"/>
    <tile gid="1"/>
    <tile gid="1"/>
    <tile gid="1"/>
    <tile gid="1"/>
    <tile gid="1"/>
    <tile gid="387"/>
    <tile gid="1"/>
    <tile gid="1"/>
    <tile gid="1"/>
    <tile gid="1"/>
    <tile gid="1"/>
    <tile gid="1"/>
    <tile gid="1"/>
    <tile gid="1"/>
    <tile gid="1"/>
    <tile gid="387"/>
    <tile gid="387"/>
    <tile gid="1"/>
    <tile gid="387"/>
    <tile gid="1"/>
    <tile gid="1"/>
    <tile gid="1"/>
    <tile gid="1"/>
    <tile gid="1"/>
    <tile gid="387"/>
    <tile gid="1"/>
    <tile gid="387"/>
    <tile gid="387"/>
    <tile gid="387"/>
    <tile gid="387"/>
    <tile gid="387"/>
    <tile gid="387"/>
    <tile gid="387"/>
    <tile gid="387"/>
    <tile gid="387"/>
    <tile gid="387"/>
    <tile gid="387"/>
    <tile gid="387"/>
    <tile gid="387"/>
    <tile gid="387"/>
    <tile gid="387"/>
    <tile gid="387"/>
    <tile gid="387"/>
    <tile gid="387"/>
    <tile gid="387"/>
    <tile gid="387"/>
    <tile gid="387"/>
    <tile gid="387"/>
    <tile gid="387"/>
    <tile gid="387"/>
    <tile gid="387"/>
    <tile gid="387"/>
    <tile gid="387"/>
    <tile gid="387"/>
    <tile gid="387"/>
    <tile gid="387"/>
    <tile gid="1"/>
    <tile gid="1"/>
    <tile gid="1"/>
    <tile gid="1"/>
    <tile gid="1"/>
    <tile gid="1"/>
    <tile gid="1"/>
    <tile gid="1"/>
    <tile gid="1"/>
    <tile gid="387"/>
    <tile gid="387"/>
    <tile gid="1"/>
    <tile gid="1"/>
    <tile gid="1"/>
    <tile gid="1"/>
    <tile gid="1"/>
    <tile gid="1"/>
    <tile gid="1"/>
    <tile gid="1"/>
    <tile gid="1"/>
    <tile gid="1"/>
    <tile gid="1"/>
    <tile gid="1"/>
    <tile gid="1"/>
    <tile gid="1"/>
    <tile gid="1"/>
    <tile gid="1"/>
    <tile gid="1"/>
    <tile gid="1"/>
    <tile gid="1"/>
    <tile gid="1"/>
    <tile gid="1"/>
    <tile gid="1"/>
    <tile gid="1"/>
    <tile gid="1"/>
    <tile gid="1"/>
    <tile gid="1"/>
    <tile gid="1"/>
    <tile gid="1"/>
    <tile gid="1"/>
    <tile gid="1"/>
    <tile gid="1"/>
    <tile gid="1"/>
    <tile gid="1"/>
    <tile gid="1"/>
    <tile gid="1"/>
    <tile gid="1"/>
    <tile gid="1"/>
    <tile gid="1"/>
    <tile gid="1"/>
    <tile gid="1"/>
    <tile gid="1"/>
    <tile gid="1"/>
    <tile gid="1"/>
    <tile gid="1"/>
    <tile gid="1"/>
    <tile gid="1"/>
    <tile gid="1"/>
    <tile gid="1"/>
    <tile gid="387"/>
    <tile gid="387"/>
    <tile gid="1"/>
    <tile gid="1"/>
    <tile gid="1"/>
    <tile gid="1"/>
    <tile gid="1"/>
    <tile gid="1"/>
    <tile gid="1"/>
    <tile gid="1"/>
    <tile gid="1"/>
    <tile gid="1"/>
    <tile gid="1"/>
    <tile gid="1"/>
    <tile gid="1"/>
    <tile gid="1"/>
    <tile gid="1"/>
    <tile gid="1"/>
    <tile gid="1"/>
    <tile gid="1"/>
    <tile gid="1"/>
    <tile gid="1"/>
    <tile gid="1"/>
    <tile gid="1"/>
    <tile gid="1"/>
    <tile gid="1"/>
    <tile gid="1"/>
    <tile gid="1"/>
    <tile gid="1"/>
    <tile gid="1"/>
    <tile gid="1"/>
    <tile gid="1"/>
    <tile gid="1"/>
    <tile gid="1"/>
    <tile gid="1"/>
    <tile gid="1"/>
    <tile gid="1"/>
    <tile gid="1"/>
    <tile gid="1"/>
    <tile gid="1"/>
    <tile gid="1"/>
    <tile gid="1"/>
    <tile gid="1"/>
    <tile gid="1"/>
    <tile gid="1"/>
    <tile gid="1"/>
    <tile gid="1"/>
    <tile gid="1"/>
    <tile gid="1"/>
    <tile gid="1"/>
    <tile gid="387"/>
    <tile gid="387"/>
    <tile gid="1"/>
    <tile gid="1"/>
    <tile gid="1"/>
    <tile gid="1"/>
    <tile gid="1"/>
    <tile gid="1"/>
    <tile gid="1"/>
    <tile gid="1"/>
    <tile gid="1"/>
    <tile gid="1"/>
    <tile gid="1"/>
    <tile gid="1"/>
    <tile gid="1"/>
    <tile gid="1"/>
    <tile gid="1"/>
    <tile gid="1"/>
    <tile gid="1"/>
    <tile gid="1"/>
    <tile gid="1"/>
    <tile gid="1"/>
    <tile gid="1"/>
    <tile gid="1"/>
    <tile gid="1"/>
    <tile gid="1"/>
    <tile gid="1"/>
    <tile gid="1"/>
    <tile gid="1"/>
    <tile gid="1"/>
    <tile gid="1"/>
    <tile gid="1"/>
    <tile gid="1"/>
    <tile gid="1"/>
    <tile gid="1"/>
    <tile gid="1"/>
    <tile gid="1"/>
    <tile gid="1"/>
    <tile gid="1"/>
    <tile gid="1"/>
    <tile gid="1"/>
    <tile gid="1"/>
    <tile gid="1"/>
    <tile gid="1"/>
    <tile gid="1"/>
    <tile gid="1"/>
    <tile gid="1"/>
    <tile gid="1"/>
    <tile gid="1"/>
    <tile gid="1"/>
    <tile gid="387"/>
    <tile gid="387"/>
    <tile gid="1"/>
    <tile gid="1"/>
    <tile gid="1"/>
    <tile gid="1"/>
    <tile gid="1"/>
    <tile gid="1"/>
    <tile gid="1"/>
    <tile gid="1"/>
    <tile gid="1"/>
    <tile gid="1"/>
    <tile gid="1"/>
    <tile gid="1"/>
    <tile gid="1"/>
    <tile gid="1"/>
    <tile gid="1"/>
    <tile gid="1"/>
    <tile gid="1"/>
    <tile gid="1"/>
    <tile gid="1"/>
    <tile gid="1"/>
    <tile gid="1"/>
    <tile gid="1"/>
    <tile gid="1"/>
    <tile gid="1"/>
    <tile gid="1"/>
    <tile gid="1"/>
    <tile gid="1"/>
    <tile gid="1"/>
    <tile gid="1"/>
    <tile gid="1"/>
    <tile gid="1"/>
    <tile gid="1"/>
    <tile gid="1"/>
    <tile gid="1"/>
    <tile gid="1"/>
    <tile gid="1"/>
    <tile gid="1"/>
    <tile gid="1"/>
    <tile gid="1"/>
    <tile gid="1"/>
    <tile gid="1"/>
    <tile gid="1"/>
    <tile gid="1"/>
    <tile gid="1"/>
    <tile gid="1"/>
    <tile gid="1"/>
    <tile gid="1"/>
    <tile gid="1"/>
    <tile gid="387"/>
    <tile gid="387"/>
    <tile gid="1"/>
    <tile gid="387"/>
    <tile gid="1"/>
    <tile gid="1"/>
    <tile gid="1"/>
    <tile gid="1"/>
    <tile gid="1"/>
    <tile gid="387"/>
    <tile gid="1"/>
    <tile gid="387"/>
    <tile gid="387"/>
    <tile gid="387"/>
    <tile gid="387"/>
    <tile gid="387"/>
    <tile gid="387"/>
    <tile gid="387"/>
    <tile gid="387"/>
    <tile gid="387"/>
    <tile gid="387"/>
    <tile gid="387"/>
    <tile gid="387"/>
    <tile gid="387"/>
    <tile gid="387"/>
    <tile gid="387"/>
    <tile gid="387"/>
    <tile gid="387"/>
    <tile gid="387"/>
    <tile gid="387"/>
    <tile gid="387"/>
    <tile gid="387"/>
    <tile gid="387"/>
    <tile gid="387"/>
    <tile gid="387"/>
    <tile gid="387"/>
    <tile gid="387"/>
    <tile gid="387"/>
    <tile gid="387"/>
    <tile gid="387"/>
    <tile gid="387"/>
    <tile gid="1"/>
    <tile gid="1"/>
    <tile gid="1"/>
    <tile gid="1"/>
    <tile gid="1"/>
    <tile gid="1"/>
    <tile gid="1"/>
    <tile gid="1"/>
    <tile gid="1"/>
    <tile gid="387"/>
    <tile gid="387"/>
    <tile gid="1"/>
    <tile gid="1"/>
    <tile gid="1"/>
    <tile gid="1"/>
    <tile gid="1"/>
    <tile gid="1"/>
    <tile gid="1"/>
    <tile gid="1"/>
    <tile gid="1"/>
    <tile gid="387"/>
    <tile gid="1"/>
    <tile gid="1"/>
    <tile gid="1"/>
    <tile gid="1"/>
    <tile gid="1"/>
    <tile gid="1"/>
    <tile gid="1"/>
    <tile gid="1"/>
    <tile gid="1"/>
    <tile gid="1"/>
    <tile gid="1"/>
    <tile gid="1"/>
    <tile gid="1"/>
    <tile gid="1"/>
    <tile gid="1"/>
    <tile gid="1"/>
    <tile gid="1"/>
    <tile gid="1"/>
    <tile gid="1"/>
    <tile gid="1"/>
    <tile gid="1"/>
    <tile gid="1"/>
    <tile gid="1"/>
    <tile gid="1"/>
    <tile gid="1"/>
    <tile gid="1"/>
    <tile gid="1"/>
    <tile gid="1"/>
    <tile gid="387"/>
    <tile gid="1"/>
    <tile gid="1"/>
    <tile gid="1"/>
    <tile gid="1"/>
    <tile gid="1"/>
    <tile gid="1"/>
    <tile gid="1"/>
    <tile gid="1"/>
    <tile gid="1"/>
    <tile gid="387"/>
    <tile gid="387"/>
    <tile gid="1"/>
    <tile gid="1"/>
    <tile gid="1"/>
    <tile gid="1"/>
    <tile gid="1"/>
    <tile gid="1"/>
    <tile gid="1"/>
    <tile gid="1"/>
    <tile gid="1"/>
    <tile gid="387"/>
    <tile gid="1"/>
    <tile gid="1"/>
    <tile gid="1"/>
    <tile gid="1"/>
    <tile gid="1"/>
    <tile gid="1"/>
    <tile gid="1"/>
    <tile gid="1"/>
    <tile gid="1"/>
    <tile gid="1"/>
    <tile gid="1"/>
    <tile gid="1"/>
    <tile gid="1"/>
    <tile gid="1"/>
    <tile gid="1"/>
    <tile gid="1"/>
    <tile gid="1"/>
    <tile gid="1"/>
    <tile gid="1"/>
    <tile gid="1"/>
    <tile gid="1"/>
    <tile gid="1"/>
    <tile gid="1"/>
    <tile gid="1"/>
    <tile gid="1"/>
    <tile gid="1"/>
    <tile gid="1"/>
    <tile gid="1"/>
    <tile gid="387"/>
    <tile gid="1"/>
    <tile gid="1"/>
    <tile gid="1"/>
    <tile gid="1"/>
    <tile gid="1"/>
    <tile gid="1"/>
    <tile gid="1"/>
    <tile gid="1"/>
    <tile gid="1"/>
    <tile gid="387"/>
    <tile gid="387"/>
    <tile gid="387"/>
    <tile gid="387"/>
    <tile gid="387"/>
    <tile gid="387"/>
    <tile gid="387"/>
    <tile gid="387"/>
    <tile gid="387"/>
    <tile gid="387"/>
    <tile gid="387"/>
    <tile gid="387"/>
    <tile gid="1"/>
    <tile gid="1"/>
    <tile gid="1"/>
    <tile gid="1"/>
    <tile gid="1"/>
    <tile gid="1"/>
    <tile gid="1"/>
    <tile gid="1"/>
    <tile gid="1"/>
    <tile gid="1"/>
    <tile gid="1"/>
    <tile gid="1"/>
    <tile gid="1"/>
    <tile gid="1"/>
    <tile gid="1"/>
    <tile gid="1"/>
    <tile gid="1"/>
    <tile gid="1"/>
    <tile gid="1"/>
    <tile gid="1"/>
    <tile gid="1"/>
    <tile gid="1"/>
    <tile gid="1"/>
    <tile gid="1"/>
    <tile gid="1"/>
    <tile gid="1"/>
    <tile gid="1"/>
    <tile gid="1"/>
    <tile gid="387"/>
    <tile gid="387"/>
    <tile gid="387"/>
    <tile gid="387"/>
    <tile gid="387"/>
    <tile gid="387"/>
    <tile gid="387"/>
    <tile gid="387"/>
    <tile gid="387"/>
    <tile gid="387"/>
    <tile gid="387"/>
   </data>
  </layer>
 </group>
 <group id="55" name="rooms">
  <group id="91" name="room" visible="0">
   <objectgroup id="92" name="room_trigger">
    <object id="436" x="440" y="276" width="26" height="242"/>
   </objectgroup>
   <objectgroup id="93" name="spawner">
    <object id="419" x="484" y="325">
     <properties>
      <property name="enemy" type="int" value="0"/>
      <property name="type" type="int" value="1"/>
     </properties>
    </object>
    <object id="420" x="536" y="326">
     <properties>
      <property name="enemy" type="int" value="0"/>
      <property name="type" type="int" value="1"/>
     </properties>
    </object>
    <object id="422" x="593" y="324">
     <properties>
      <property name="enemy" type="int" value="0"/>
      <property name="type" type="int" value="1"/>
     </properties>
    </object>
    <object id="423" x="615" y="366">
     <properties>
      <property name="enemy" type="int" value="0"/>
      <property name="type" type="int" value="1"/>
     </properties>
    </object>
    <object id="425" x="615" y="416">
     <properties>
      <property name="enemy" type="int" value="0"/>
      <property name="type" type="int" value="1"/>
     </properties>
    </object>
    <object id="426" x="612" y="462">
     <properties>
      <property name="enemy" type="int" value="0"/>
      <property name="type" type="int" value="1"/>
     </properties>
    </object>
    <object id="427" x="577" y="483">
     <properties>
      <property name="enemy" type="int" value="0"/>
      <property name="type" type="int" value="1"/>
     </properties>
    </object>
    <object id="428" x="534" y="482">
     <properties>
      <property name="enemy" type="int" value="0"/>
      <property name="type" type="int" value="1"/>
     </properties>
    </object>
    <object id="429" x="480" y="482">
     <properties>
      <property name="enemy" type="int" value="0"/>
      <property name="type" type="int" value="1"/>
     </properties>
    </object>
    <object id="430" x="532" y="445">
     <properties>
      <property name="enemy" type="int" value="0"/>
      <property name="type" type="int" value="1"/>
     </properties>
    </object>
    <object id="431" x="561" y="412">
     <properties>
      <property name="enemy" type="int" value="0"/>
      <property name="type" type="int" value="1"/>
     </properties>
    </object>
    <object id="432" x="531" y="371">
     <properties>
      <property name="enemy" type="int" value="0"/>
      <property name="type" type="int" value="1"/>
     </properties>
    </object>
    <object id="433" x="574" y="369">
     <properties>
      <property name="enemy" type="int" value="0"/>
      <property name="type" type="int" value="1"/>
     </properties>
    </object>
    <object id="434" x="576" y="447">
     <properties>
      <property name="enemy" type="int" value="0"/>
      <property name="type" type="int" value="1"/>
     </properties>
    </object>
    <object id="435" x="502" y="409">
     <properties>
      <property name="enemy" type="int" value="0"/>
      <property name="type" type="int" value="1"/>
     </properties>
    </object>
   </objectgroup>
   <objectgroup id="94" name="wall">
    <object id="437" x="400" y="368" width="16" height="16"/>
    <object id="438" x="400" y="383.75" width="16" height="16"/>
    <object id="439" x="400" y="399.75" width="16" height="16"/>
    <object id="441" x="400" y="416" width="16" height="16"/>
    <object id="442" x="495.5" y="288" width="16" height="16"/>
    <object id="443" x="511.5" y="288" width="16" height="16"/>
    <object id="444" x="528.25" y="288" width="16" height="16"/>
    <object id="445" x="544" y="288" width="16" height="16"/>
   </objectgroup>
  </group>
  <group id="79" name="room" visible="0">
   <objectgroup id="80" name="wall">
    <object id="258" x="160" y="416.334" width="16" height="16"/>
    <object id="259" x="160" y="370" width="16" height="16"/>
    <object id="260" x="160" y="399.667" width="16" height="16"/>
    <object id="261" x="160" y="385.333" width="16" height="16"/>
    <object id="309" x="48" y="304" width="16" height="16"/>
    <object id="311" x="64" y="304" width="16" height="16"/>
    <object id="312" x="80" y="304" width="16" height="16"/>
    <object id="313" x="96" y="304" width="16" height="16"/>
   </objectgroup>
   <objectgroup id="81" name="spawner">
    <object id="263" x="140.667" y="362.999">
     <properties>
      <property name="enemy" type="int" value="0"/>
      <property name="type" type="int" value="1"/>
     </properties>
    </object>
    <object id="264" x="137.333" y="464.667">
     <properties>
      <property name="enemy" type="int" value="0"/>
      <property name="type" type="int" value="1"/>
     </properties>
    </object>
    <object id="265" x="116.334" y="437.333">
     <properties>
      <property name="enemy" type="int" value="0"/>
      <property name="type" type="int" value="1"/>
     </properties>
    </object>
    <object id="266" x="53" y="434.333">
     <properties>
      <property name="enemy" type="int" value="0"/>
      <property name="type" type="int" value="1"/>
     </properties>
    </object>
    <object id="267" x="87.3333" y="409.666">
     <properties>
      <property name="enemy" type="int" value="0"/>
      <property name="type" type="int" value="1"/>
     </properties>
    </object>
    <object id="268" x="59.667" y="386.333">
     <properties>
      <property name="enemy" type="int" value="0"/>
      <property name="type" type="int" value="1"/>
     </properties>
    </object>
    <object id="269" x="33.3336" y="360">
     <properties>
      <property name="enemy" type="int" value="0"/>
      <property name="type" type="int" value="1"/>
     </properties>
    </object>
    <object id="270" x="111.667" y="388.667">
     <properties>
      <property name="enemy" type="int" value="0"/>
      <property name="type" type="int" value="1"/>
     </properties>
    </object>
    <object id="271" x="30.6667" y="463.666">
     <properties>
      <property name="enemy" type="int" value="0"/>
      <property name="type" type="int" value="1"/>
     </properties>
    </object>
   </objectgroup>
   <objectgroup id="85" name="room_trigger" visible="0">
    <object id="324" x="14" y="340" width="150.667" height="23.3333"/>
   </objectgroup>
  </group>
  <group id="56" name="room" visible="0">
   <objectgroup id="84" name="room_trigger">
    <object id="308" x="114.667" y="26.6667" width="24.6667" height="164"/>
   </objectgroup>
   <objectgroup id="74" name="wall">
    <object id="233" x="95.667" y="192.33" width="16" height="16"/>
    <object id="234" x="79.3333" y="192.33" width="16" height="16"/>
    <object id="235" x="47.667" y="192.663" width="16" height="16"/>
    <object id="236" x="63.6663" y="192.33" width="16" height="16"/>
    <object id="303" x="160" y="128" width="16" height="16"/>
    <object id="304" x="160" y="112" width="16" height="16"/>
    <object id="305" x="160" y="96" width="16" height="16"/>
    <object id="306" x="160" y="80" width="16" height="16"/>
   </objectgroup>
   <objectgroup id="58" name="spawner">
    <object id="175" x="129.667" y="171.667">
     <properties>
      <property name="enemy" type="int" value="0"/>
      <property name="type" type="int" value="1"/>
     </properties>
    </object>
    <object id="178" x="77.6667" y="172">
     <properties>
      <property name="enemy" type="int" value="0"/>
      <property name="type" type="int" value="1"/>
     </properties>
    </object>
    <object id="188" x="58.6667" y="133.333">
     <properties>
      <property name="enemy" type="int" value="0"/>
      <property name="type" type="int" value="1"/>
     </properties>
    </object>
    <object id="189" x="124.667" y="58">
     <properties>
      <property name="enemy" type="int" value="0"/>
      <property name="type" type="int" value="1"/>
     </properties>
    </object>
    <object id="194" x="27.3333" y="117.667">
     <properties>
      <property name="enemy" type="int" value="0"/>
      <property name="type" type="int" value="1"/>
     </properties>
    </object>
    <object id="301" x="58.6667" y="56.6667">
     <properties>
      <property name="enemy" type="int" value="0"/>
      <property name="type" type="int" value="1"/>
     </properties>
    </object>
    <object id="302" x="40.6667" y="84.6667">
     <properties>
      <property name="enemy" type="int" value="0"/>
      <property name="type" type="int" value="1"/>
     </properties>
    </object>
   </objectgroup>
  </group>
  <group id="62" name="room" visible="0">
   <objectgroup id="83" name="room_trigger" visible="0">
    <object id="307" x="636.667" y="142.667" width="152" height="28"/>
   </objectgroup>
   <objectgroup id="76" name="wall">
    <object id="239" x="623" y="78.997" width="16" height="16"/>
    <object id="240" x="624" y="128.33" width="16" height="16"/>
    <object id="241" x="623.666" y="112.663" width="16" height="16"/>
    <object id="242" x="623.333" y="95.997" width="16" height="16"/>
    <object id="283" x="624" y="142.667" width="16" height="16"/>
    <object id="297" x="688" y="192" width="16" height="16"/>
    <object id="298" x="704.25" y="192" width="16" height="16"/>
    <object id="299" x="720.75" y="192" width="16" height="16"/>
    <object id="300" x="736.75" y="192" width="16" height="16"/>
   </objectgroup>
   <objectgroup id="64" name="spawner">
    <object id="223" x="737" y="49.6663">
     <properties>
      <property name="enemy" type="int" value="0"/>
      <property name="type" type="int" value="1"/>
     </properties>
    </object>
    <object id="226" x="670.333" y="73.3333">
     <properties>
      <property name="enemy" type="int" value="0"/>
      <property name="type" type="int" value="1"/>
     </properties>
    </object>
    <object id="227" x="691.333" y="50.3337">
     <properties>
      <property name="enemy" type="int" value="0"/>
      <property name="type" type="int" value="1"/>
     </properties>
    </object>
    <object id="284" x="760.667" y="75.3333">
     <properties>
      <property name="enemy" type="int" value="0"/>
      <property name="type" type="int" value="1"/>
     </properties>
    </object>
    <object id="285" x="698.667" y="104">
     <properties>
      <property name="enemy" type="int" value="0"/>
      <property name="type" type="int" value="1"/>
     </properties>
    </object>
    <object id="286" x="724.667" y="82.0003">
     <properties>
      <property name="enemy" type="int" value="0"/>
      <property name="type" type="int" value="1"/>
     </properties>
    </object>
    <object id="287" x="680" y="136.667">
     <properties>
      <property name="enemy" type="int" value="0"/>
      <property name="type" type="int" value="1"/>
     </properties>
    </object>
    <object id="288" x="748.667" y="105.333">
     <properties>
      <property name="enemy" type="int" value="0"/>
      <property name="type" type="int" value="1"/>
     </properties>
    </object>
   </objectgroup>
  </group>
  <group id="65" name="room">
   <objectgroup id="82" name="room_trigger">
    <object id="294" x="199" y="661" width="43" height="71"/>
   </objectgroup>
   <objectgroup id="66" name="wall">
    <object id="215" x="688" y="607.33" width="16" height="16"/>
    <object id="217" x="704" y="607.33" width="16" height="16"/>
    <object id="218" x="720" y="607.663" width="16" height="16"/>
    <object id="219" x="735.667" y="607.663" width="16" height="16"/>
    <object id="447" x="160" y="672" width="16" height="16"/>
    <object id="448" x="160" y="689" width="16" height="16"/>
    <object id="449" x="160" y="704.667" width="16" height="16"/>
    <object id="450" x="160" y="720.667" width="16" height="16"/>
   </objectgroup>
   <objectgroup id="67" name="spawner">
    <object id="195" x="399.333" y="693.333">
     <properties>
      <property name="enemy" type="int" value="0"/>
      <property name="type" type="int" value="1"/>
     </properties>
    </object>
    <object id="196" x="483.333" y="702.667">
     <properties>
      <property name="enemy" type="int" value="0"/>
      <property name="type" type="int" value="1"/>
     </properties>
    </object>
    <object id="197" x="284.333" y="689.333">
     <properties>
      <property name="enemy" type="int" value="0"/>
      <property name="type" type="int" value="1"/>
     </properties>
    </object>
    <object id="198" x="349" y="710.333">
     <properties>
      <property name="enemy" type="int" value="0"/>
      <property name="type" type="int" value="1"/>
     </properties>
    </object>
    <object id="199" x="565" y="698.667">
     <properties>
      <property name="enemy" type="int" value="0"/>
      <property name="type" type="int" value="1"/>
     </properties>
    </object>
    <object id="200" x="618.333" y="706">
     <properties>
      <property name="enemy" type="int" value="0"/>
      <property name="type" type="int" value="1"/>
     </properties>
    </object>
    <object id="278" x="754.667" y="656">
     <properties>
      <property name="enemy" type="int" value="0"/>
      <property name="type" type="int" value="1"/>
     </properties>
    </object>
    <object id="279" x="670.667" y="645.333">
     <properties>
      <property name="enemy" type="int" value="0"/>
      <property name="type" type="int" value="1"/>
     </properties>
    </object>
    <object id="280" x="670.667" y="753.333">
     <properties>
      <property name="enemy" type="int" value="0"/>
      <property name="type" type="int" value="1"/>
     </properties>
    </object>
    <object id="281" x="760" y="757.333">
     <properties>
      <property name="enemy" type="int" value="0"/>
      <property name="type" type="int" value="1"/>
     </properties>
    </object>
    <object id="282" x="716" y="698.667">
     <properties>
      <property name="enemy" type="int" value="0"/>
      <property name="type" type="int" value="1"/>
     </properties>
    </object>
   </objectgroup>
  </group>
 </group>
 <objectgroup id="73" name="spawner">
  <object id="293" x="65" y="704">
   <properties>
    <property name="type" type="int" value="0"/>
   </properties>
  </object>
 </objectgroup>
 <objectgroup id="95" name="door">
  <object id="446" x="512" y="256" width="32" height="32">
   <properties>
    <property name="next_level" value="../media/level2.tmx"/>
   </properties>
  </object>
 </objectgroup>
</map>
