<?xml version="1.0" encoding="UTF-8"?>
<map version="1.10" tiledversion="1.10.1" orientation="orthogonal" renderorder="right-down" width="50" height="50" tilewidth="16" tileheight="16" infinite="0" nextlayerid="82" nextobjectid="278">
 <tileset firstgid="1" source="DungeonTileset.tsx"/>
 <group id="52" name="render">
  <layer id="51" name="floor" width="50" height="50">
   <data>
    <tile/>
    <tile/>
    <tile/>
    <tile/>
    <tile/>
    <tile/>
    <tile/>
    <tile/>
    <tile/>
    <tile/>
    <tile/>
    <tile/>
    <tile/>
    <tile/>
    <tile/>
    <tile/>
    <tile/>
    <tile/>
    <tile/>
    <tile/>
    <tile/>
    <tile/>
    <tile/>
    <tile/>
    <tile/>
    <tile/>
    <tile/>
    <tile/>
    <tile/>
    <tile/>
    <tile/>
    <tile/>
    <tile/>
    <tile/>
    <tile/>
    <tile/>
    <tile/>
    <tile/>
    <tile/>
    <tile/>
    <tile/>
    <tile/>
    <tile/>
    <tile/>
    <tile/>
    <tile/>
    <tile/>
    <tile/>
    <tile/>
    <tile/>
    <tile/>
    <tile/>
    <tile/>
    <tile/>
    <tile/>
    <tile/>
    <tile/>
    <tile/>
    <tile/>
    <tile/>
    <tile/>
    <tile/>
    <tile/>
    <tile/>
    <tile/>
    <tile/>
    <tile/>
    <tile/>
    <tile/>
    <tile/>
    <tile gid="130"/>
    <tile gid="130"/>
    <tile gid="130"/>
    <tile gid="130"/>
    <tile gid="130"/>
    <tile gid="130"/>
    <tile gid="130"/>
    <tile gid="130"/>
    <tile gid="130"/>
    <tile gid="130"/>
    <tile/>
    <tile/>
    <tile/>
    <tile/>
    <tile/>
    <tile/>
    <tile/>
    <tile/>
    <tile/>
    <tile/>
    <tile/>
    <tile/>
    <tile/>
    <tile/>
    <tile/>
    <tile/>
    <tile/>
    <tile/>
    <tile/>
    <tile/>
    <tile/>
    <tile/>
    <tile/>
    <tile/>
    <tile/>
    <tile/>
    <tile/>
    <tile/>
    <tile/>
    <tile/>
    <tile/>
    <tile/>
    <tile/>
    <tile/>
    <tile/>
    <tile/>
    <tile/>
    <tile/>
    <tile/>
    <tile/>
    <tile gid="130"/>
    <tile gid="130"/>
    <tile gid="130"/>
    <tile gid="131"/>
    <tile gid="131"/>
    <tile gid="130"/>
    <tile gid="130"/>
    <tile gid="130"/>
    <tile gid="130"/>
    <tile gid="130"/>
    <tile/>
    <tile/>
    <tile/>
    <tile/>
    <tile/>
    <tile/>
    <tile/>
    <tile/>
    <tile/>
    <tile/>
    <tile/>
    <tile/>
    <tile/>
    <tile/>
    <tile/>
    <tile/>
    <tile/>
    <tile/>
    <tile/>
    <tile/>
    <tile/>
    <tile/>
    <tile/>
    <tile/>
    <tile/>
    <tile/>
    <tile/>
    <tile/>
    <tile/>
    <tile/>
    <tile/>
    <tile/>
    <tile/>
    <tile/>
    <tile/>
    <tile/>
    <tile/>
    <tile/>
    <tile/>
    <tile/>
    <tile gid="130"/>
    <tile gid="130"/>
    <tile gid="130"/>
    <tile gid="130"/>
    <tile gid="195"/>
    <tile gid="130"/>
    <tile gid="130"/>
    <tile gid="130"/>
    <tile gid="195"/>
    <tile gid="130"/>
    <tile/>
    <tile/>
    <tile/>
    <tile/>
    <tile/>
    <tile/>
    <tile/>
    <tile/>
    <tile/>
    <tile/>
    <tile/>
    <tile/>
    <tile/>
    <tile/>
    <tile/>
    <tile/>
    <tile/>
    <tile/>
    <tile/>
    <tile/>
    <tile/>
    <tile/>
    <tile/>
    <tile/>
    <tile/>
    <tile/>
    <tile/>
    <tile/>
    <tile/>
    <tile/>
    <tile/>
    <tile/>
    <tile/>
    <tile/>
    <tile/>
    <tile/>
    <tile/>
    <tile/>
    <tile/>
    <tile/>
    <tile gid="131"/>
    <tile gid="130"/>
    <tile gid="195"/>
    <tile gid="130"/>
    <tile gid="131"/>
    <tile gid="130"/>
    <tile gid="130"/>
    <tile gid="130"/>
    <tile gid="130"/>
    <tile gid="130"/>
    <tile/>
    <tile/>
    <tile/>
    <tile/>
    <tile/>
    <tile/>
    <tile/>
    <tile/>
    <tile/>
    <tile/>
    <tile/>
    <tile/>
    <tile/>
    <tile/>
    <tile/>
    <tile/>
    <tile/>
    <tile/>
    <tile/>
    <tile/>
    <tile/>
    <tile/>
    <tile/>
    <tile/>
    <tile/>
    <tile/>
    <tile/>
    <tile/>
    <tile/>
    <tile/>
    <tile/>
    <tile/>
    <tile/>
    <tile/>
    <tile/>
    <tile/>
    <tile/>
    <tile/>
    <tile/>
    <tile/>
    <tile gid="131"/>
    <tile gid="130"/>
    <tile gid="130"/>
    <tile gid="130"/>
    <tile gid="130"/>
    <tile gid="130"/>
    <tile gid="195"/>
    <tile gid="130"/>
    <tile gid="131"/>
    <tile gid="130"/>
    <tile/>
    <tile/>
    <tile/>
    <tile/>
    <tile/>
    <tile/>
    <tile/>
    <tile/>
    <tile/>
    <tile/>
    <tile/>
    <tile/>
    <tile/>
    <tile/>
    <tile/>
    <tile/>
    <tile/>
    <tile/>
    <tile/>
    <tile/>
    <tile/>
    <tile/>
    <tile/>
    <tile/>
    <tile/>
    <tile/>
    <tile/>
    <tile/>
    <tile/>
    <tile/>
    <tile/>
    <tile/>
    <tile/>
    <tile/>
    <tile/>
    <tile/>
    <tile/>
    <tile/>
    <tile/>
    <tile/>
    <tile gid="131"/>
    <tile gid="130"/>
    <tile gid="130"/>
    <tile gid="130"/>
    <tile gid="130"/>
    <tile gid="131"/>
    <tile gid="131"/>
    <tile gid="195"/>
    <tile gid="131"/>
    <tile gid="130"/>
    <tile/>
    <tile/>
    <tile/>
    <tile/>
    <tile/>
    <tile/>
    <tile/>
    <tile/>
    <tile/>
    <tile/>
    <tile/>
    <tile/>
    <tile/>
    <tile/>
    <tile/>
    <tile/>
    <tile/>
    <tile/>
    <tile/>
    <tile/>
    <tile/>
    <tile/>
    <tile/>
    <tile/>
    <tile/>
    <tile/>
    <tile/>
    <tile/>
    <tile/>
    <tile/>
    <tile/>
    <tile/>
    <tile/>
    <tile/>
    <tile/>
    <tile/>
    <tile/>
    <tile/>
    <tile/>
    <tile/>
    <tile gid="131"/>
    <tile gid="131"/>
    <tile gid="130"/>
    <tile gid="131"/>
    <tile gid="131"/>
    <tile gid="130"/>
    <tile gid="130"/>
    <tile gid="130"/>
    <tile gid="130"/>
    <tile gid="130"/>
    <tile/>
    <tile/>
    <tile/>
    <tile/>
    <tile/>
    <tile/>
    <tile/>
    <tile/>
    <tile/>
    <tile/>
    <tile/>
    <tile/>
    <tile/>
    <tile/>
    <tile/>
    <tile/>
    <tile/>
    <tile/>
    <tile/>
    <tile/>
    <tile/>
    <tile/>
    <tile/>
    <tile/>
    <tile/>
    <tile/>
    <tile/>
    <tile/>
    <tile/>
    <tile/>
    <tile/>
    <tile/>
    <tile/>
    <tile/>
    <tile/>
    <tile/>
    <tile/>
    <tile/>
    <tile/>
    <tile/>
    <tile gid="195"/>
    <tile gid="131"/>
    <tile gid="130"/>
    <tile gid="130"/>
    <tile gid="195"/>
    <tile gid="130"/>
    <tile gid="130"/>
    <tile gid="195"/>
    <tile gid="130"/>
    <tile gid="130"/>
    <tile/>
    <tile/>
    <tile/>
    <tile/>
    <tile/>
    <tile/>
    <tile/>
    <tile/>
    <tile/>
    <tile/>
    <tile/>
    <tile/>
    <tile/>
    <tile/>
    <tile/>
    <tile/>
    <tile/>
    <tile/>
    <tile/>
    <tile/>
    <tile/>
    <tile/>
    <tile/>
    <tile/>
    <tile/>
    <tile/>
    <tile/>
    <tile/>
    <tile/>
    <tile/>
    <tile/>
    <tile/>
    <tile/>
    <tile/>
    <tile/>
    <tile/>
    <tile/>
    <tile/>
    <tile/>
    <tile/>
    <tile gid="130"/>
    <tile gid="130"/>
    <tile gid="130"/>
    <tile gid="130"/>
    <tile gid="130"/>
    <tile gid="130"/>
    <tile gid="130"/>
    <tile gid="130"/>
    <tile gid="130"/>
    <tile gid="130"/>
    <tile/>
    <tile/>
    <tile/>
    <tile/>
    <tile/>
    <tile/>
    <tile/>
    <tile/>
    <tile/>
    <tile/>
    <tile/>
    <tile/>
    <tile/>
    <tile/>
    <tile/>
    <tile/>
    <tile/>
    <tile/>
    <tile/>
    <tile/>
    <tile/>
    <tile/>
    <tile/>
    <tile/>
    <tile/>
    <tile/>
    <tile/>
    <tile/>
    <tile/>
    <tile/>
    <tile/>
    <tile/>
    <tile/>
    <tile/>
    <tile/>
    <tile/>
    <tile/>
    <tile/>
    <tile/>
    <tile/>
    <tile/>
    <tile/>
    <tile/>
    <tile/>
    <tile gid="132"/>
    <tile gid="132"/>
    <tile/>
    <tile/>
    <tile/>
    <tile/>
    <tile/>
    <tile/>
    <tile/>
    <tile/>
    <tile/>
    <tile/>
    <tile/>
    <tile/>
    <tile/>
    <tile/>
    <tile/>
    <tile/>
    <tile/>
    <tile/>
    <tile/>
    <tile/>
    <tile/>
    <tile/>
    <tile/>
    <tile/>
    <tile/>
    <tile/>
    <tile/>
    <tile/>
    <tile/>
    <tile/>
    <tile/>
    <tile/>
    <tile/>
    <tile/>
    <tile/>
    <tile/>
    <tile/>
    <tile/>
    <tile/>
    <tile/>
    <tile/>
    <tile/>
    <tile/>
    <tile/>
    <tile/>
    <tile/>
    <tile/>
    <tile/>
    <tile gid="132"/>
    <tile gid="132"/>
    <tile/>
    <tile/>
    <tile/>
    <tile/>
    <tile/>
    <tile/>
    <tile/>
    <tile/>
    <tile/>
    <tile/>
    <tile/>
    <tile/>
    <tile/>
    <tile/>
    <tile/>
    <tile/>
    <tile/>
    <tile/>
    <tile/>
    <tile/>
    <tile/>
    <tile/>
    <tile/>
    <tile/>
    <tile/>
    <tile/>
    <tile/>
    <tile/>
    <tile/>
    <tile/>
    <tile/>
    <tile/>
    <tile/>
    <tile/>
    <tile/>
    <tile/>
    <tile/>
    <tile/>
    <tile/>
    <tile/>
    <tile/>
    <tile/>
    <tile/>
    <tile/>
    <tile/>
    <tile/>
    <tile/>
    <tile/>
    <tile gid="132"/>
    <tile gid="132"/>
    <tile/>
    <tile/>
    <tile/>
    <tile/>
    <tile/>
    <tile/>
    <tile/>
    <tile/>
    <tile/>
    <tile/>
    <tile/>
    <tile/>
    <tile/>
    <tile/>
    <tile/>
    <tile/>
    <tile/>
    <tile/>
    <tile/>
    <tile/>
    <tile/>
    <tile/>
    <tile/>
    <tile/>
    <tile/>
    <tile/>
    <tile/>
    <tile/>
    <tile/>
    <tile/>
    <tile/>
    <tile/>
    <tile/>
    <tile/>
    <tile/>
    <tile/>
    <tile/>
    <tile/>
    <tile/>
    <tile/>
    <tile/>
    <tile/>
    <tile/>
    <tile/>
    <tile/>
    <tile/>
    <tile/>
    <tile/>
    <tile gid="132"/>
    <tile gid="132"/>
    <tile/>
    <tile/>
    <tile/>
    <tile/>
    <tile/>
    <tile/>
    <tile/>
    <tile/>
    <tile/>
    <tile/>
    <tile/>
    <tile/>
    <tile/>
    <tile/>
    <tile/>
    <tile/>
    <tile/>
    <tile/>
    <tile/>
    <tile/>
    <tile/>
    <tile/>
    <tile/>
    <tile/>
    <tile/>
    <tile/>
    <tile/>
    <tile/>
    <tile/>
    <tile/>
    <tile/>
    <tile/>
    <tile/>
    <tile/>
    <tile/>
    <tile/>
    <tile/>
    <tile/>
    <tile/>
    <tile/>
    <tile/>
    <tile/>
    <tile/>
    <tile/>
    <tile/>
    <tile/>
    <tile/>
    <tile gid="130"/>
    <tile gid="130"/>
    <tile gid="130"/>
    <tile gid="130"/>
    <tile/>
    <tile/>
    <tile/>
    <tile/>
    <tile/>
    <tile/>
    <tile/>
    <tile/>
    <tile/>
    <tile/>
    <tile/>
    <tile/>
    <tile/>
    <tile/>
    <tile/>
    <tile/>
    <tile/>
    <tile/>
    <tile/>
    <tile/>
    <tile/>
    <tile/>
    <tile/>
    <tile/>
    <tile/>
    <tile/>
    <tile/>
    <tile/>
    <tile/>
    <tile/>
    <tile/>
    <tile/>
    <tile/>
    <tile/>
    <tile/>
    <tile/>
    <tile/>
    <tile/>
    <tile/>
    <tile/>
    <tile/>
    <tile/>
    <tile/>
    <tile/>
    <tile/>
    <tile gid="130"/>
    <tile gid="130"/>
    <tile gid="130"/>
    <tile gid="130"/>
    <tile gid="130"/>
    <tile gid="130"/>
    <tile/>
    <tile/>
    <tile/>
    <tile/>
    <tile/>
    <tile/>
    <tile/>
    <tile/>
    <tile/>
    <tile/>
    <tile/>
    <tile/>
    <tile/>
    <tile/>
    <tile/>
    <tile/>
    <tile/>
    <tile/>
    <tile/>
    <tile/>
    <tile/>
    <tile/>
    <tile/>
    <tile/>
    <tile/>
    <tile/>
    <tile/>
    <tile/>
    <tile/>
    <tile/>
    <tile/>
    <tile/>
    <tile/>
    <tile/>
    <tile/>
    <tile/>
    <tile/>
    <tile/>
    <tile/>
    <tile/>
    <tile/>
    <tile/>
    <tile/>
    <tile gid="130"/>
    <tile gid="130"/>
    <tile gid="130"/>
    <tile gid="130"/>
    <tile gid="130"/>
    <tile gid="130"/>
    <tile gid="130"/>
    <tile gid="130"/>
    <tile/>
    <tile/>
    <tile/>
    <tile/>
    <tile/>
    <tile/>
    <tile/>
    <tile/>
    <tile/>
    <tile/>
    <tile/>
    <tile/>
    <tile/>
    <tile/>
    <tile/>
    <tile/>
    <tile/>
    <tile/>
    <tile/>
    <tile/>
    <tile/>
    <tile/>
    <tile/>
    <tile/>
    <tile/>
    <tile/>
    <tile/>
    <tile/>
    <tile/>
    <tile/>
    <tile/>
    <tile/>
    <tile/>
    <tile/>
    <tile/>
    <tile/>
    <tile/>
    <tile/>
    <tile/>
    <tile/>
    <tile/>
    <tile gid="130"/>
    <tile gid="130"/>
    <tile gid="130"/>
    <tile gid="130"/>
    <tile gid="130"/>
    <tile gid="195"/>
    <tile gid="130"/>
    <tile gid="130"/>
    <tile gid="130"/>
    <tile gid="130"/>
    <tile/>
    <tile/>
    <tile/>
    <tile/>
    <tile/>
    <tile/>
    <tile/>
    <tile/>
    <tile/>
    <tile/>
    <tile/>
    <tile/>
    <tile/>
    <tile/>
    <tile/>
    <tile/>
    <tile/>
    <tile/>
    <tile/>
    <tile/>
    <tile/>
    <tile/>
    <tile/>
    <tile/>
    <tile/>
    <tile/>
    <tile/>
    <tile/>
    <tile/>
    <tile/>
    <tile/>
    <tile/>
    <tile/>
    <tile/>
    <tile/>
    <tile/>
    <tile/>
    <tile gid="130"/>
    <tile gid="130"/>
    <tile gid="130"/>
    <tile gid="130"/>
    <tile gid="130"/>
    <tile gid="130"/>
    <tile gid="130"/>
    <tile gid="130"/>
    <tile gid="130"/>
    <tile gid="130"/>
    <tile gid="130"/>
    <tile gid="130"/>
    <tile gid="130"/>
    <tile gid="130"/>
    <tile gid="131"/>
    <tile gid="132"/>
    <tile/>
    <tile/>
    <tile/>
    <tile/>
    <tile/>
    <tile/>
    <tile/>
    <tile gid="130"/>
    <tile gid="130"/>
    <tile gid="130"/>
    <tile gid="130"/>
    <tile gid="195"/>
    <tile gid="130"/>
    <tile gid="130"/>
    <tile gid="130"/>
    <tile/>
    <tile/>
    <tile/>
    <tile/>
    <tile/>
    <tile/>
    <tile/>
    <tile/>
    <tile/>
    <tile/>
    <tile/>
    <tile/>
    <tile/>
    <tile/>
    <tile/>
    <tile/>
    <tile/>
    <tile/>
    <tile/>
    <tile gid="130"/>
    <tile gid="131"/>
    <tile gid="132"/>
    <tile gid="130"/>
    <tile gid="130"/>
    <tile gid="195"/>
    <tile gid="195"/>
    <tile gid="130"/>
    <tile gid="130"/>
    <tile gid="131"/>
    <tile gid="132"/>
    <tile gid="130"/>
    <tile gid="131"/>
    <tile gid="132"/>
    <tile gid="131"/>
    <tile gid="132"/>
    <tile/>
    <tile/>
    <tile/>
    <tile/>
    <tile/>
    <tile/>
    <tile/>
    <tile gid="130"/>
    <tile gid="130"/>
    <tile gid="130"/>
    <tile gid="130"/>
    <tile gid="130"/>
    <tile gid="130"/>
    <tile gid="130"/>
    <tile gid="130"/>
    <tile/>
    <tile/>
    <tile/>
    <tile/>
    <tile/>
    <tile/>
    <tile/>
    <tile/>
    <tile/>
    <tile/>
    <tile/>
    <tile/>
    <tile/>
    <tile/>
    <tile/>
    <tile/>
    <tile/>
    <tile/>
    <tile/>
    <tile gid="130"/>
    <tile gid="131"/>
    <tile gid="132"/>
    <tile gid="130"/>
    <tile gid="130"/>
    <tile gid="130"/>
    <tile gid="130"/>
    <tile gid="130"/>
    <tile gid="130"/>
    <tile gid="130"/>
    <tile gid="130"/>
    <tile gid="130"/>
    <tile gid="130"/>
    <tile gid="132"/>
    <tile gid="130"/>
    <tile gid="132"/>
    <tile/>
    <tile/>
    <tile/>
    <tile/>
    <tile/>
    <tile/>
    <tile/>
    <tile gid="130"/>
    <tile gid="130"/>
    <tile gid="195"/>
    <tile gid="130"/>
    <tile gid="130"/>
    <tile gid="130"/>
    <tile gid="195"/>
    <tile gid="130"/>
    <tile/>
    <tile/>
    <tile/>
    <tile/>
    <tile/>
    <tile/>
    <tile/>
    <tile/>
    <tile/>
    <tile/>
    <tile/>
    <tile/>
    <tile/>
    <tile/>
    <tile/>
    <tile/>
    <tile/>
    <tile/>
    <tile/>
    <tile gid="130"/>
    <tile gid="131"/>
    <tile gid="132"/>
    <tile gid="130"/>
    <tile gid="130"/>
    <tile gid="130"/>
    <tile gid="130"/>
    <tile gid="130"/>
    <tile gid="130"/>
    <tile gid="195"/>
    <tile gid="130"/>
    <tile gid="130"/>
    <tile gid="130"/>
    <tile gid="130"/>
    <tile gid="130"/>
    <tile gid="132"/>
    <tile/>
    <tile/>
    <tile/>
    <tile/>
    <tile/>
    <tile/>
    <tile/>
    <tile gid="130"/>
    <tile gid="130"/>
    <tile gid="130"/>
    <tile gid="130"/>
    <tile gid="130"/>
    <tile gid="130"/>
    <tile gid="130"/>
    <tile gid="130"/>
    <tile/>
    <tile/>
    <tile/>
    <tile/>
    <tile/>
    <tile/>
    <tile/>
    <tile/>
    <tile/>
    <tile/>
    <tile/>
    <tile/>
    <tile/>
    <tile/>
    <tile/>
    <tile/>
    <tile/>
    <tile/>
    <tile/>
    <tile gid="130"/>
    <tile gid="130"/>
    <tile gid="132"/>
    <tile gid="130"/>
    <tile gid="195"/>
    <tile gid="130"/>
    <tile gid="130"/>
    <tile gid="130"/>
    <tile gid="130"/>
    <tile gid="130"/>
    <tile gid="132"/>
    <tile gid="130"/>
    <tile gid="131"/>
    <tile gid="130"/>
    <tile gid="131"/>
    <tile gid="132"/>
    <tile/>
    <tile/>
    <tile/>
    <tile/>
    <tile/>
    <tile/>
    <tile/>
    <tile/>
    <tile/>
    <tile/>
    <tile gid="130"/>
    <tile gid="130"/>
    <tile/>
    <tile/>
    <tile/>
    <tile/>
    <tile/>
    <tile/>
    <tile/>
    <tile/>
    <tile/>
    <tile/>
    <tile/>
    <tile/>
    <tile/>
    <tile/>
    <tile gid="130"/>
    <tile gid="130"/>
    <tile gid="130"/>
    <tile gid="130"/>
    <tile gid="130"/>
    <tile gid="131"/>
    <tile gid="130"/>
    <tile gid="130"/>
    <tile gid="130"/>
    <tile gid="130"/>
    <tile gid="132"/>
    <tile gid="130"/>
    <tile gid="130"/>
    <tile gid="164"/>
    <tile gid="130"/>
    <tile gid="130"/>
    <tile gid="130"/>
    <tile gid="130"/>
    <tile gid="130"/>
    <tile gid="130"/>
    <tile gid="130"/>
    <tile gid="130"/>
    <tile gid="195"/>
    <tile gid="132"/>
    <tile/>
    <tile/>
    <tile/>
    <tile/>
    <tile/>
    <tile/>
    <tile/>
    <tile/>
    <tile/>
    <tile/>
    <tile gid="130"/>
    <tile gid="130"/>
    <tile/>
    <tile/>
    <tile/>
    <tile/>
    <tile/>
    <tile/>
    <tile/>
    <tile/>
    <tile/>
    <tile/>
    <tile/>
    <tile/>
    <tile/>
    <tile/>
    <tile gid="130"/>
    <tile gid="130"/>
    <tile gid="130"/>
    <tile gid="130"/>
    <tile gid="162"/>
    <tile gid="130"/>
    <tile gid="130"/>
    <tile gid="130"/>
    <tile gid="130"/>
    <tile gid="131"/>
    <tile gid="132"/>
    <tile gid="195"/>
    <tile gid="132"/>
    <tile gid="130"/>
    <tile gid="130"/>
    <tile gid="130"/>
    <tile gid="130"/>
    <tile gid="195"/>
    <tile gid="130"/>
    <tile gid="195"/>
    <tile gid="130"/>
    <tile gid="132"/>
    <tile gid="130"/>
    <tile gid="132"/>
    <tile/>
    <tile/>
    <tile/>
    <tile/>
    <tile/>
    <tile/>
    <tile/>
    <tile/>
    <tile/>
    <tile/>
    <tile gid="130"/>
    <tile gid="130"/>
    <tile/>
    <tile/>
    <tile/>
    <tile/>
    <tile/>
    <tile/>
    <tile/>
    <tile/>
    <tile/>
    <tile/>
    <tile/>
    <tile/>
    <tile/>
    <tile/>
    <tile gid="130"/>
    <tile gid="130"/>
    <tile gid="131"/>
    <tile gid="130"/>
    <tile gid="130"/>
    <tile gid="130"/>
    <tile gid="130"/>
    <tile gid="130"/>
    <tile gid="162"/>
    <tile gid="130"/>
    <tile gid="132"/>
    <tile gid="131"/>
    <tile gid="130"/>
    <tile gid="130"/>
    <tile gid="130"/>
    <tile gid="130"/>
    <tile gid="130"/>
    <tile gid="130"/>
    <tile gid="130"/>
    <tile gid="130"/>
    <tile gid="130"/>
    <tile gid="132"/>
    <tile gid="130"/>
    <tile gid="132"/>
    <tile/>
    <tile/>
    <tile/>
    <tile/>
    <tile/>
    <tile/>
    <tile/>
    <tile/>
    <tile/>
    <tile/>
    <tile gid="130"/>
    <tile gid="130"/>
    <tile/>
    <tile/>
    <tile/>
    <tile/>
    <tile/>
    <tile/>
    <tile/>
    <tile/>
    <tile/>
    <tile gid="130"/>
    <tile gid="130"/>
    <tile gid="130"/>
    <tile gid="130"/>
    <tile gid="130"/>
    <tile gid="130"/>
    <tile gid="162"/>
    <tile gid="130"/>
    <tile gid="130"/>
    <tile gid="194"/>
    <tile gid="195"/>
    <tile gid="130"/>
    <tile gid="130"/>
    <tile gid="130"/>
    <tile gid="130"/>
    <tile gid="130"/>
    <tile gid="130"/>
    <tile gid="130"/>
    <tile gid="130"/>
    <tile gid="130"/>
    <tile gid="130"/>
    <tile gid="130"/>
    <tile gid="130"/>
    <tile gid="130"/>
    <tile gid="131"/>
    <tile gid="130"/>
    <tile gid="132"/>
    <tile gid="130"/>
    <tile gid="132"/>
    <tile/>
    <tile/>
    <tile/>
    <tile/>
    <tile/>
    <tile/>
    <tile/>
    <tile/>
    <tile/>
    <tile/>
    <tile gid="131"/>
    <tile gid="130"/>
    <tile/>
    <tile/>
    <tile/>
    <tile/>
    <tile/>
    <tile/>
    <tile/>
    <tile/>
    <tile/>
    <tile gid="130"/>
    <tile gid="130"/>
    <tile gid="131"/>
    <tile gid="130"/>
    <tile gid="130"/>
    <tile gid="130"/>
    <tile gid="130"/>
    <tile gid="130"/>
    <tile gid="130"/>
    <tile gid="130"/>
    <tile/>
    <tile/>
    <tile/>
    <tile gid="130"/>
    <tile gid="131"/>
    <tile gid="132"/>
    <tile gid="131"/>
    <tile gid="130"/>
    <tile gid="130"/>
    <tile gid="130"/>
    <tile gid="195"/>
    <tile gid="130"/>
    <tile gid="130"/>
    <tile gid="164"/>
    <tile gid="130"/>
    <tile gid="130"/>
    <tile gid="130"/>
    <tile gid="130"/>
    <tile gid="132"/>
    <tile gid="130"/>
    <tile gid="130"/>
    <tile gid="130"/>
    <tile gid="131"/>
    <tile gid="130"/>
    <tile gid="130"/>
    <tile gid="130"/>
    <tile gid="130"/>
    <tile gid="130"/>
    <tile gid="130"/>
    <tile gid="130"/>
    <tile gid="130"/>
    <tile gid="130"/>
    <tile/>
    <tile/>
    <tile/>
    <tile/>
    <tile/>
    <tile/>
    <tile/>
    <tile/>
    <tile gid="130"/>
    <tile gid="162"/>
    <tile gid="130"/>
    <tile gid="131"/>
    <tile gid="130"/>
    <tile gid="130"/>
    <tile gid="130"/>
    <tile gid="194"/>
    <tile gid="195"/>
    <tile gid="130"/>
    <tile/>
    <tile/>
    <tile/>
    <tile gid="130"/>
    <tile gid="131"/>
    <tile gid="132"/>
    <tile gid="130"/>
    <tile gid="130"/>
    <tile gid="132"/>
    <tile gid="164"/>
    <tile gid="130"/>
    <tile gid="130"/>
    <tile gid="130"/>
    <tile gid="130"/>
    <tile gid="130"/>
    <tile gid="131"/>
    <tile gid="130"/>
    <tile gid="130"/>
    <tile gid="132"/>
    <tile gid="130"/>
    <tile gid="130"/>
    <tile gid="130"/>
    <tile gid="130"/>
    <tile gid="195"/>
    <tile gid="164"/>
    <tile gid="130"/>
    <tile gid="130"/>
    <tile gid="130"/>
    <tile gid="195"/>
    <tile gid="130"/>
    <tile gid="130"/>
    <tile gid="130"/>
    <tile/>
    <tile/>
    <tile/>
    <tile/>
    <tile/>
    <tile/>
    <tile/>
    <tile/>
    <tile gid="130"/>
    <tile gid="130"/>
    <tile gid="162"/>
    <tile gid="130"/>
    <tile gid="130"/>
    <tile gid="130"/>
    <tile gid="131"/>
    <tile gid="130"/>
    <tile gid="130"/>
    <tile gid="130"/>
    <tile/>
    <tile/>
    <tile/>
    <tile gid="130"/>
    <tile gid="131"/>
    <tile gid="132"/>
    <tile gid="130"/>
    <tile gid="130"/>
    <tile gid="130"/>
    <tile gid="164"/>
    <tile gid="130"/>
    <tile gid="130"/>
    <tile gid="130"/>
    <tile gid="130"/>
    <tile gid="130"/>
    <tile gid="131"/>
    <tile gid="132"/>
    <tile gid="131"/>
    <tile gid="132"/>
    <tile gid="164"/>
    <tile gid="130"/>
    <tile gid="130"/>
    <tile gid="130"/>
    <tile gid="130"/>
    <tile gid="130"/>
    <tile gid="130"/>
    <tile gid="130"/>
    <tile gid="130"/>
    <tile gid="130"/>
    <tile gid="130"/>
    <tile gid="130"/>
    <tile gid="130"/>
    <tile/>
    <tile/>
    <tile/>
    <tile/>
    <tile/>
    <tile/>
    <tile/>
    <tile/>
    <tile gid="130"/>
    <tile gid="130"/>
    <tile gid="130"/>
    <tile gid="130"/>
    <tile gid="130"/>
    <tile gid="162"/>
    <tile gid="130"/>
    <tile gid="130"/>
    <tile gid="130"/>
    <tile gid="130"/>
    <tile/>
    <tile/>
    <tile/>
    <tile gid="130"/>
    <tile gid="130"/>
    <tile gid="130"/>
    <tile gid="130"/>
    <tile gid="130"/>
    <tile gid="130"/>
    <tile gid="131"/>
    <tile gid="132"/>
    <tile gid="130"/>
    <tile gid="131"/>
    <tile gid="130"/>
    <tile gid="130"/>
    <tile gid="130"/>
    <tile gid="132"/>
    <tile gid="131"/>
    <tile gid="132"/>
    <tile/>
    <tile/>
    <tile/>
    <tile/>
    <tile/>
    <tile/>
    <tile/>
    <tile/>
    <tile/>
    <tile gid="130"/>
    <tile gid="195"/>
    <tile gid="130"/>
    <tile gid="130"/>
    <tile/>
    <tile/>
    <tile/>
    <tile/>
    <tile/>
    <tile/>
    <tile/>
    <tile/>
    <tile/>
    <tile/>
    <tile/>
    <tile/>
    <tile/>
    <tile gid="130"/>
    <tile gid="130"/>
    <tile gid="130"/>
    <tile gid="130"/>
    <tile gid="130"/>
    <tile/>
    <tile/>
    <tile/>
    <tile gid="130"/>
    <tile gid="131"/>
    <tile gid="132"/>
    <tile gid="132"/>
    <tile gid="132"/>
    <tile gid="132"/>
    <tile gid="132"/>
    <tile gid="132"/>
    <tile gid="132"/>
    <tile gid="132"/>
    <tile gid="132"/>
    <tile gid="132"/>
    <tile gid="130"/>
    <tile gid="130"/>
    <tile gid="130"/>
    <tile gid="132"/>
    <tile/>
    <tile/>
    <tile/>
    <tile/>
    <tile/>
    <tile/>
    <tile/>
    <tile/>
    <tile/>
    <tile gid="130"/>
    <tile gid="130"/>
    <tile gid="130"/>
    <tile gid="130"/>
    <tile/>
    <tile/>
    <tile/>
    <tile/>
    <tile/>
    <tile/>
    <tile/>
    <tile/>
    <tile/>
    <tile/>
    <tile/>
    <tile/>
    <tile/>
    <tile gid="130"/>
    <tile gid="130"/>
    <tile gid="194"/>
    <tile gid="195"/>
    <tile gid="130"/>
    <tile/>
    <tile/>
    <tile/>
    <tile/>
    <tile/>
    <tile/>
    <tile/>
    <tile/>
    <tile/>
    <tile/>
    <tile/>
    <tile/>
    <tile/>
    <tile/>
    <tile/>
    <tile/>
    <tile/>
    <tile/>
    <tile/>
    <tile/>
    <tile/>
    <tile/>
    <tile/>
    <tile/>
    <tile/>
    <tile/>
    <tile/>
    <tile/>
    <tile gid="130"/>
    <tile gid="130"/>
    <tile gid="195"/>
    <tile gid="130"/>
    <tile/>
    <tile/>
    <tile/>
    <tile/>
    <tile/>
    <tile/>
    <tile/>
    <tile/>
    <tile/>
    <tile/>
    <tile/>
    <tile/>
    <tile/>
    <tile gid="130"/>
    <tile gid="130"/>
    <tile gid="130"/>
    <tile gid="130"/>
    <tile gid="130"/>
    <tile/>
    <tile/>
    <tile/>
    <tile/>
    <tile/>
    <tile/>
    <tile/>
    <tile/>
    <tile/>
    <tile/>
    <tile/>
    <tile/>
    <tile/>
    <tile/>
    <tile/>
    <tile/>
    <tile/>
    <tile/>
    <tile/>
    <tile/>
    <tile/>
    <tile/>
    <tile/>
    <tile/>
    <tile/>
    <tile/>
    <tile/>
    <tile/>
    <tile gid="130"/>
    <tile gid="130"/>
    <tile gid="130"/>
    <tile gid="130"/>
    <tile/>
    <tile/>
    <tile/>
    <tile/>
    <tile/>
    <tile/>
    <tile/>
    <tile/>
    <tile/>
    <tile/>
    <tile/>
    <tile/>
    <tile/>
    <tile gid="130"/>
    <tile gid="130"/>
    <tile gid="131"/>
    <tile gid="130"/>
    <tile gid="130"/>
    <tile/>
    <tile/>
    <tile/>
    <tile/>
    <tile/>
    <tile/>
    <tile/>
    <tile/>
    <tile/>
    <tile/>
    <tile/>
    <tile/>
    <tile/>
    <tile/>
    <tile/>
    <tile/>
    <tile gid="130"/>
    <tile gid="130"/>
    <tile gid="130"/>
    <tile gid="130"/>
    <tile gid="130"/>
    <tile gid="130"/>
    <tile gid="130"/>
    <tile/>
    <tile/>
    <tile/>
    <tile/>
    <tile/>
    <tile gid="130"/>
    <tile gid="130"/>
    <tile gid="130"/>
    <tile gid="130"/>
    <tile/>
    <tile/>
    <tile/>
    <tile/>
    <tile/>
    <tile/>
    <tile/>
    <tile/>
    <tile/>
    <tile/>
    <tile/>
    <tile/>
    <tile/>
    <tile gid="130"/>
    <tile gid="162"/>
    <tile gid="130"/>
    <tile gid="130"/>
    <tile gid="130"/>
    <tile/>
    <tile/>
    <tile/>
    <tile/>
    <tile/>
    <tile/>
    <tile/>
    <tile/>
    <tile/>
    <tile/>
    <tile/>
    <tile/>
    <tile/>
    <tile/>
    <tile/>
    <tile/>
    <tile gid="130"/>
    <tile gid="130"/>
    <tile gid="130"/>
    <tile gid="130"/>
    <tile gid="130"/>
    <tile gid="130"/>
    <tile gid="130"/>
    <tile gid="162"/>
    <tile/>
    <tile/>
    <tile/>
    <tile/>
    <tile gid="130"/>
    <tile gid="130"/>
    <tile gid="131"/>
    <tile gid="130"/>
    <tile/>
    <tile/>
    <tile/>
    <tile/>
    <tile/>
    <tile/>
    <tile/>
    <tile/>
    <tile/>
    <tile/>
    <tile/>
    <tile/>
    <tile/>
    <tile gid="130"/>
    <tile gid="130"/>
    <tile gid="130"/>
    <tile gid="194"/>
    <tile gid="195"/>
    <tile/>
    <tile/>
    <tile/>
    <tile/>
    <tile/>
    <tile/>
    <tile/>
    <tile/>
    <tile/>
    <tile/>
    <tile/>
    <tile/>
    <tile/>
    <tile/>
    <tile/>
    <tile/>
    <tile gid="130"/>
    <tile gid="164"/>
    <tile gid="130"/>
    <tile gid="131"/>
    <tile gid="130"/>
    <tile gid="130"/>
    <tile gid="164"/>
    <tile gid="130"/>
    <tile gid="130"/>
    <tile gid="130"/>
    <tile gid="130"/>
    <tile gid="130"/>
    <tile gid="130"/>
    <tile gid="130"/>
    <tile gid="130"/>
    <tile gid="130"/>
    <tile/>
    <tile/>
    <tile/>
    <tile/>
    <tile/>
    <tile/>
    <tile/>
    <tile gid="130"/>
    <tile gid="130"/>
    <tile gid="130"/>
    <tile gid="130"/>
    <tile gid="130"/>
    <tile gid="194"/>
    <tile gid="195"/>
    <tile gid="130"/>
    <tile gid="130"/>
    <tile gid="130"/>
    <tile gid="130"/>
    <tile gid="130"/>
    <tile gid="130"/>
    <tile gid="130"/>
    <tile gid="130"/>
    <tile gid="130"/>
    <tile gid="130"/>
    <tile/>
    <tile/>
    <tile/>
    <tile/>
    <tile/>
    <tile/>
    <tile/>
    <tile/>
    <tile/>
    <tile/>
    <tile gid="130"/>
    <tile gid="130"/>
    <tile gid="131"/>
    <tile gid="130"/>
    <tile gid="164"/>
    <tile gid="130"/>
    <tile gid="130"/>
    <tile gid="130"/>
    <tile gid="130"/>
    <tile gid="130"/>
    <tile gid="131"/>
    <tile gid="130"/>
    <tile gid="130"/>
    <tile gid="130"/>
    <tile gid="130"/>
    <tile gid="130"/>
    <tile/>
    <tile/>
    <tile/>
    <tile/>
    <tile/>
    <tile/>
    <tile/>
    <tile gid="130"/>
    <tile gid="131"/>
    <tile gid="131"/>
    <tile gid="130"/>
    <tile gid="130"/>
    <tile gid="130"/>
    <tile gid="130"/>
    <tile gid="130"/>
    <tile gid="194"/>
    <tile gid="195"/>
    <tile gid="130"/>
    <tile gid="194"/>
    <tile gid="195"/>
    <tile gid="130"/>
    <tile gid="130"/>
    <tile gid="131"/>
    <tile gid="130"/>
    <tile/>
    <tile/>
    <tile/>
    <tile/>
    <tile/>
    <tile/>
    <tile/>
    <tile/>
    <tile/>
    <tile/>
    <tile gid="130"/>
    <tile gid="130"/>
    <tile gid="130"/>
    <tile gid="130"/>
    <tile gid="130"/>
    <tile gid="130"/>
    <tile gid="130"/>
    <tile/>
    <tile/>
    <tile/>
    <tile/>
    <tile/>
    <tile gid="130"/>
    <tile gid="130"/>
    <tile gid="130"/>
    <tile gid="130"/>
    <tile/>
    <tile/>
    <tile/>
    <tile/>
    <tile/>
    <tile/>
    <tile/>
    <tile gid="162"/>
    <tile gid="162"/>
    <tile gid="131"/>
    <tile gid="194"/>
    <tile gid="195"/>
    <tile gid="130"/>
    <tile gid="131"/>
    <tile gid="130"/>
    <tile gid="130"/>
    <tile gid="130"/>
    <tile gid="130"/>
    <tile gid="130"/>
    <tile gid="130"/>
    <tile gid="130"/>
    <tile gid="162"/>
    <tile gid="130"/>
    <tile gid="130"/>
    <tile/>
    <tile/>
    <tile/>
    <tile/>
    <tile/>
    <tile/>
    <tile/>
    <tile/>
    <tile/>
    <tile/>
    <tile gid="130"/>
    <tile gid="130"/>
    <tile gid="130"/>
    <tile gid="130"/>
    <tile gid="130"/>
    <tile gid="130"/>
    <tile gid="130"/>
    <tile/>
    <tile/>
    <tile/>
    <tile/>
    <tile/>
    <tile gid="130"/>
    <tile gid="130"/>
    <tile gid="130"/>
    <tile gid="130"/>
    <tile/>
    <tile/>
    <tile/>
    <tile/>
    <tile/>
    <tile/>
    <tile/>
    <tile gid="130"/>
    <tile gid="162"/>
    <tile gid="130"/>
    <tile gid="130"/>
    <tile gid="130"/>
    <tile gid="162"/>
    <tile gid="130"/>
    <tile gid="130"/>
    <tile gid="130"/>
    <tile gid="131"/>
    <tile gid="194"/>
    <tile gid="195"/>
    <tile gid="130"/>
    <tile gid="130"/>
    <tile gid="130"/>
    <tile gid="194"/>
    <tile gid="195"/>
    <tile/>
    <tile/>
    <tile/>
    <tile/>
    <tile/>
    <tile/>
    <tile/>
    <tile/>
    <tile/>
    <tile/>
    <tile/>
    <tile/>
    <tile/>
    <tile/>
    <tile/>
    <tile/>
    <tile/>
    <tile/>
    <tile/>
    <tile/>
    <tile/>
    <tile/>
    <tile gid="130"/>
    <tile gid="131"/>
    <tile gid="130"/>
    <tile gid="130"/>
    <tile/>
    <tile/>
    <tile/>
    <tile/>
    <tile/>
    <tile/>
    <tile/>
    <tile gid="130"/>
    <tile gid="130"/>
    <tile gid="130"/>
    <tile gid="130"/>
    <tile gid="130"/>
    <tile gid="130"/>
    <tile gid="130"/>
    <tile gid="130"/>
    <tile gid="162"/>
    <tile gid="130"/>
    <tile gid="130"/>
    <tile gid="130"/>
    <tile gid="130"/>
    <tile gid="130"/>
    <tile gid="130"/>
    <tile gid="130"/>
    <tile gid="130"/>
    <tile/>
    <tile/>
    <tile/>
    <tile/>
    <tile/>
    <tile/>
    <tile/>
    <tile/>
    <tile/>
    <tile/>
    <tile/>
    <tile/>
    <tile/>
    <tile/>
    <tile/>
    <tile/>
    <tile/>
    <tile/>
    <tile/>
    <tile/>
    <tile/>
    <tile/>
    <tile gid="130"/>
    <tile gid="131"/>
    <tile gid="130"/>
    <tile gid="130"/>
    <tile/>
    <tile/>
    <tile/>
    <tile/>
    <tile/>
    <tile/>
    <tile/>
    <tile gid="130"/>
    <tile gid="194"/>
    <tile gid="195"/>
    <tile gid="130"/>
    <tile gid="130"/>
    <tile gid="194"/>
    <tile gid="195"/>
    <tile gid="130"/>
    <tile gid="130"/>
    <tile gid="130"/>
    <tile gid="130"/>
    <tile gid="130"/>
    <tile gid="194"/>
    <tile gid="195"/>
    <tile gid="130"/>
    <tile gid="130"/>
    <tile gid="130"/>
    <tile/>
    <tile/>
    <tile/>
    <tile/>
    <tile/>
    <tile/>
    <tile/>
    <tile/>
    <tile/>
    <tile/>
    <tile/>
    <tile/>
    <tile/>
    <tile/>
    <tile/>
    <tile/>
    <tile/>
    <tile/>
    <tile/>
    <tile/>
    <tile/>
    <tile/>
    <tile gid="130"/>
    <tile gid="130"/>
    <tile gid="130"/>
    <tile gid="130"/>
    <tile/>
    <tile/>
    <tile/>
    <tile/>
    <tile/>
    <tile/>
    <tile/>
    <tile gid="130"/>
    <tile gid="130"/>
    <tile gid="130"/>
    <tile gid="194"/>
    <tile gid="195"/>
    <tile gid="130"/>
    <tile gid="130"/>
    <tile gid="130"/>
    <tile gid="130"/>
    <tile gid="130"/>
    <tile gid="195"/>
    <tile gid="130"/>
    <tile gid="130"/>
    <tile gid="130"/>
    <tile gid="130"/>
    <tile gid="130"/>
    <tile gid="130"/>
    <tile/>
    <tile/>
    <tile/>
    <tile/>
    <tile/>
    <tile/>
    <tile/>
    <tile/>
    <tile/>
    <tile/>
    <tile gid="130"/>
    <tile gid="130"/>
    <tile gid="130"/>
    <tile gid="130"/>
    <tile gid="130"/>
    <tile gid="130"/>
    <tile gid="130"/>
    <tile/>
    <tile/>
    <tile/>
    <tile/>
    <tile/>
    <tile gid="130"/>
    <tile gid="130"/>
    <tile gid="130"/>
    <tile gid="130"/>
    <tile/>
    <tile/>
    <tile/>
    <tile/>
    <tile/>
    <tile/>
    <tile/>
    <tile gid="194"/>
    <tile gid="195"/>
    <tile gid="130"/>
    <tile gid="130"/>
    <tile gid="131"/>
    <tile gid="130"/>
    <tile gid="130"/>
    <tile gid="130"/>
    <tile gid="130"/>
    <tile gid="130"/>
    <tile gid="131"/>
    <tile gid="130"/>
    <tile gid="194"/>
    <tile gid="195"/>
    <tile gid="130"/>
    <tile gid="131"/>
    <tile gid="130"/>
    <tile/>
    <tile/>
    <tile/>
    <tile/>
    <tile/>
    <tile/>
    <tile/>
    <tile/>
    <tile/>
    <tile/>
    <tile gid="130"/>
    <tile gid="130"/>
    <tile gid="130"/>
    <tile gid="164"/>
    <tile gid="164"/>
    <tile gid="164"/>
    <tile gid="131"/>
    <tile gid="130"/>
    <tile gid="130"/>
    <tile gid="130"/>
    <tile gid="130"/>
    <tile gid="131"/>
    <tile gid="195"/>
    <tile gid="130"/>
    <tile gid="130"/>
    <tile gid="130"/>
    <tile/>
    <tile/>
    <tile/>
    <tile/>
    <tile/>
    <tile/>
    <tile/>
    <tile gid="130"/>
    <tile gid="130"/>
    <tile gid="130"/>
    <tile gid="162"/>
    <tile gid="130"/>
    <tile gid="130"/>
    <tile gid="194"/>
    <tile gid="195"/>
    <tile gid="130"/>
    <tile gid="162"/>
    <tile gid="130"/>
    <tile gid="130"/>
    <tile gid="130"/>
    <tile gid="130"/>
    <tile gid="162"/>
    <tile gid="130"/>
    <tile gid="130"/>
    <tile/>
    <tile/>
    <tile/>
    <tile/>
    <tile/>
    <tile/>
    <tile/>
    <tile/>
    <tile/>
    <tile/>
    <tile gid="130"/>
    <tile gid="130"/>
    <tile gid="195"/>
    <tile gid="130"/>
    <tile gid="130"/>
    <tile gid="164"/>
    <tile gid="130"/>
    <tile gid="130"/>
    <tile gid="130"/>
    <tile gid="130"/>
    <tile gid="130"/>
    <tile gid="130"/>
    <tile gid="130"/>
    <tile gid="130"/>
    <tile gid="130"/>
    <tile gid="130"/>
    <tile/>
    <tile/>
    <tile/>
    <tile/>
    <tile/>
    <tile/>
    <tile/>
    <tile gid="194"/>
    <tile gid="195"/>
    <tile gid="130"/>
    <tile gid="130"/>
    <tile gid="130"/>
    <tile gid="194"/>
    <tile gid="195"/>
    <tile gid="130"/>
    <tile gid="130"/>
    <tile gid="130"/>
    <tile gid="130"/>
    <tile gid="194"/>
    <tile gid="195"/>
    <tile gid="130"/>
    <tile gid="130"/>
    <tile gid="130"/>
    <tile gid="130"/>
    <tile/>
    <tile/>
    <tile/>
    <tile/>
    <tile/>
    <tile/>
    <tile/>
    <tile/>
    <tile/>
    <tile/>
    <tile gid="164"/>
    <tile gid="164"/>
    <tile gid="130"/>
    <tile gid="130"/>
    <tile gid="130"/>
    <tile gid="130"/>
    <tile gid="130"/>
    <tile/>
    <tile/>
    <tile/>
    <tile/>
    <tile/>
    <tile/>
    <tile/>
    <tile/>
    <tile/>
    <tile/>
    <tile/>
    <tile/>
    <tile/>
    <tile/>
    <tile/>
    <tile/>
    <tile/>
    <tile/>
    <tile/>
    <tile/>
    <tile/>
    <tile/>
    <tile/>
    <tile/>
    <tile/>
    <tile/>
    <tile/>
    <tile/>
    <tile/>
    <tile/>
    <tile/>
    <tile/>
    <tile/>
    <tile/>
    <tile/>
    <tile/>
    <tile/>
    <tile/>
    <tile/>
    <tile/>
    <tile/>
    <tile/>
    <tile/>
    <tile gid="131"/>
    <tile gid="131"/>
    <tile gid="164"/>
    <tile gid="130"/>
    <tile gid="130"/>
    <tile/>
    <tile/>
    <tile/>
    <tile/>
    <tile/>
    <tile/>
    <tile/>
    <tile/>
    <tile/>
    <tile/>
    <tile/>
    <tile/>
    <tile/>
    <tile/>
    <tile/>
    <tile/>
    <tile/>
    <tile/>
    <tile/>
    <tile/>
    <tile/>
    <tile/>
    <tile/>
    <tile/>
    <tile/>
    <tile/>
    <tile/>
    <tile/>
    <tile/>
    <tile/>
    <tile/>
    <tile/>
    <tile/>
    <tile/>
    <tile/>
    <tile/>
    <tile/>
    <tile/>
    <tile/>
    <tile/>
    <tile/>
    <tile/>
    <tile/>
    <tile/>
    <tile/>
    <tile gid="130"/>
    <tile gid="130"/>
    <tile gid="130"/>
    <tile gid="130"/>
    <tile gid="130"/>
    <tile/>
    <tile/>
    <tile/>
    <tile/>
    <tile/>
    <tile/>
    <tile/>
    <tile/>
    <tile/>
    <tile/>
    <tile/>
    <tile/>
    <tile/>
    <tile/>
    <tile/>
    <tile/>
    <tile/>
    <tile/>
    <tile/>
    <tile/>
    <tile/>
    <tile/>
    <tile/>
    <tile/>
    <tile/>
    <tile/>
    <tile/>
    <tile/>
    <tile/>
    <tile/>
    <tile/>
    <tile/>
    <tile/>
    <tile/>
    <tile/>
    <tile/>
    <tile/>
    <tile/>
    <tile/>
    <tile/>
    <tile/>
    <tile/>
    <tile/>
    <tile/>
    <tile/>
    <tile/>
    <tile gid="130"/>
    <tile gid="130"/>
    <tile gid="130"/>
    <tile/>
    <tile/>
    <tile/>
    <tile/>
    <tile/>
    <tile/>
    <tile/>
    <tile/>
    <tile/>
    <tile/>
    <tile/>
    <tile/>
    <tile/>
    <tile/>
    <tile/>
    <tile/>
   </data>
  </layer>
  <layer id="71" name="lower_walls" width="50" height="50">
   <data>
    <tile/>
    <tile/>
    <tile/>
    <tile/>
    <tile/>
    <tile/>
    <tile/>
    <tile/>
    <tile/>
    <tile/>
    <tile/>
    <tile/>
    <tile/>
    <tile/>
    <tile/>
    <tile/>
    <tile/>
    <tile/>
    <tile/>
    <tile/>
    <tile gid="227"/>
    <tile gid="5"/>
    <tile gid="2"/>
    <tile gid="2"/>
    <tile gid="5"/>
    <tile gid="5"/>
    <tile gid="2"/>
    <tile gid="2"/>
    <tile gid="5"/>
    <tile gid="228"/>
    <tile/>
    <tile/>
    <tile/>
    <tile/>
    <tile/>
    <tile/>
    <tile/>
    <tile/>
    <tile/>
    <tile/>
    <tile/>
    <tile/>
    <tile/>
    <tile/>
    <tile/>
    <tile/>
    <tile/>
    <tile/>
    <tile/>
    <tile/>
    <tile/>
    <tile/>
    <tile/>
    <tile/>
    <tile/>
    <tile/>
    <tile/>
    <tile/>
    <tile/>
    <tile/>
    <tile/>
    <tile/>
    <tile/>
    <tile/>
    <tile/>
    <tile/>
    <tile/>
    <tile/>
    <tile/>
    <tile/>
    <tile gid="259"/>
    <tile gid="37"/>
    <tile gid="34"/>
    <tile gid="34"/>
    <tile gid="37"/>
    <tile gid="37"/>
    <tile gid="34"/>
    <tile gid="34"/>
    <tile gid="37"/>
    <tile gid="260"/>
    <tile/>
    <tile/>
    <tile/>
    <tile/>
    <tile/>
    <tile/>
    <tile/>
    <tile/>
    <tile/>
    <tile/>
    <tile/>
    <tile/>
    <tile/>
    <tile/>
    <tile/>
    <tile/>
    <tile/>
    <tile/>
    <tile/>
    <tile/>
    <tile/>
    <tile/>
    <tile/>
    <tile/>
    <tile/>
    <tile/>
    <tile/>
    <tile/>
    <tile/>
    <tile/>
    <tile/>
    <tile/>
    <tile/>
    <tile/>
    <tile/>
    <tile/>
    <tile/>
    <tile/>
    <tile/>
    <tile/>
    <tile gid="258"/>
    <tile gid="69"/>
    <tile/>
    <tile/>
    <tile gid="69"/>
    <tile gid="69"/>
    <tile/>
    <tile/>
    <tile gid="69"/>
    <tile gid="257"/>
    <tile/>
    <tile/>
    <tile/>
    <tile/>
    <tile/>
    <tile/>
    <tile/>
    <tile/>
    <tile/>
    <tile/>
    <tile/>
    <tile/>
    <tile/>
    <tile/>
    <tile/>
    <tile/>
    <tile/>
    <tile/>
    <tile/>
    <tile/>
    <tile/>
    <tile/>
    <tile/>
    <tile/>
    <tile/>
    <tile/>
    <tile/>
    <tile/>
    <tile/>
    <tile/>
    <tile/>
    <tile/>
    <tile/>
    <tile/>
    <tile/>
    <tile/>
    <tile/>
    <tile/>
    <tile/>
    <tile/>
    <tile gid="258"/>
    <tile/>
    <tile/>
    <tile/>
    <tile/>
    <tile/>
    <tile/>
    <tile/>
    <tile/>
    <tile gid="257"/>
    <tile/>
    <tile/>
    <tile/>
    <tile/>
    <tile/>
    <tile/>
    <tile/>
    <tile/>
    <tile/>
    <tile/>
    <tile/>
    <tile/>
    <tile/>
    <tile/>
    <tile/>
    <tile/>
    <tile/>
    <tile/>
    <tile/>
    <tile/>
    <tile/>
    <tile/>
    <tile/>
    <tile/>
    <tile/>
    <tile/>
    <tile/>
    <tile/>
    <tile/>
    <tile/>
    <tile/>
    <tile/>
    <tile/>
    <tile/>
    <tile/>
    <tile/>
    <tile/>
    <tile/>
    <tile/>
    <tile/>
    <tile gid="258"/>
    <tile/>
    <tile/>
    <tile/>
    <tile/>
    <tile/>
    <tile/>
    <tile/>
    <tile/>
    <tile gid="257"/>
    <tile/>
    <tile/>
    <tile/>
    <tile/>
    <tile/>
    <tile/>
    <tile/>
    <tile/>
    <tile/>
    <tile/>
    <tile/>
    <tile/>
    <tile/>
    <tile/>
    <tile/>
    <tile/>
    <tile/>
    <tile/>
    <tile/>
    <tile/>
    <tile/>
    <tile/>
    <tile/>
    <tile/>
    <tile/>
    <tile/>
    <tile/>
    <tile/>
    <tile/>
    <tile/>
    <tile/>
    <tile/>
    <tile/>
    <tile/>
    <tile/>
    <tile/>
    <tile/>
    <tile/>
    <tile/>
    <tile/>
    <tile gid="258"/>
    <tile/>
    <tile/>
    <tile/>
    <tile/>
    <tile/>
    <tile/>
    <tile/>
    <tile/>
    <tile gid="257"/>
    <tile/>
    <tile/>
    <tile/>
    <tile/>
    <tile/>
    <tile/>
    <tile/>
    <tile/>
    <tile/>
    <tile/>
    <tile/>
    <tile/>
    <tile/>
    <tile/>
    <tile/>
    <tile/>
    <tile/>
    <tile/>
    <tile/>
    <tile/>
    <tile/>
    <tile/>
    <tile/>
    <tile/>
    <tile/>
    <tile/>
    <tile/>
    <tile/>
    <tile/>
    <tile/>
    <tile/>
    <tile/>
    <tile/>
    <tile/>
    <tile/>
    <tile/>
    <tile/>
    <tile/>
    <tile/>
    <tile/>
    <tile gid="258"/>
    <tile/>
    <tile/>
    <tile/>
    <tile/>
    <tile/>
    <tile/>
    <tile/>
    <tile/>
    <tile gid="257"/>
    <tile/>
    <tile/>
    <tile/>
    <tile/>
    <tile/>
    <tile/>
    <tile/>
    <tile/>
    <tile/>
    <tile/>
    <tile/>
    <tile/>
    <tile/>
    <tile/>
    <tile/>
    <tile/>
    <tile/>
    <tile/>
    <tile/>
    <tile/>
    <tile/>
    <tile/>
    <tile/>
    <tile/>
    <tile/>
    <tile/>
    <tile/>
    <tile/>
    <tile/>
    <tile/>
    <tile/>
    <tile/>
    <tile/>
    <tile/>
    <tile/>
    <tile/>
    <tile/>
    <tile/>
    <tile/>
    <tile/>
    <tile gid="258"/>
    <tile/>
    <tile/>
    <tile/>
    <tile/>
    <tile/>
    <tile/>
    <tile/>
    <tile/>
    <tile gid="257"/>
    <tile/>
    <tile/>
    <tile/>
    <tile/>
    <tile/>
    <tile/>
    <tile/>
    <tile/>
    <tile/>
    <tile/>
    <tile/>
    <tile/>
    <tile/>
    <tile/>
    <tile/>
    <tile/>
    <tile/>
    <tile/>
    <tile/>
    <tile/>
    <tile/>
    <tile/>
    <tile/>
    <tile/>
    <tile/>
    <tile/>
    <tile/>
    <tile/>
    <tile/>
    <tile/>
    <tile/>
    <tile/>
    <tile/>
    <tile/>
    <tile/>
    <tile/>
    <tile/>
    <tile/>
    <tile/>
    <tile/>
    <tile gid="258"/>
    <tile/>
    <tile/>
    <tile/>
    <tile/>
    <tile/>
    <tile/>
    <tile/>
    <tile/>
    <tile gid="257"/>
    <tile/>
    <tile/>
    <tile/>
    <tile/>
    <tile/>
    <tile/>
    <tile/>
    <tile/>
    <tile/>
    <tile/>
    <tile/>
    <tile/>
    <tile/>
    <tile/>
    <tile/>
    <tile/>
    <tile/>
    <tile/>
    <tile/>
    <tile/>
    <tile/>
    <tile/>
    <tile/>
    <tile/>
    <tile/>
    <tile/>
    <tile/>
    <tile/>
    <tile/>
    <tile/>
    <tile/>
    <tile/>
    <tile/>
    <tile/>
    <tile/>
    <tile/>
    <tile/>
    <tile/>
    <tile/>
    <tile/>
    <tile/>
    <tile/>
    <tile/>
    <tile/>
    <tile/>
    <tile/>
    <tile/>
    <tile/>
    <tile/>
    <tile/>
    <tile/>
    <tile/>
    <tile/>
    <tile/>
    <tile/>
    <tile/>
    <tile/>
    <tile/>
    <tile/>
    <tile/>
    <tile/>
    <tile/>
    <tile/>
    <tile/>
    <tile/>
    <tile/>
    <tile/>
    <tile/>
    <tile/>
    <tile/>
    <tile/>
    <tile/>
    <tile/>
    <tile/>
    <tile/>
    <tile/>
    <tile/>
    <tile/>
    <tile/>
    <tile/>
    <tile/>
    <tile/>
    <tile/>
    <tile/>
    <tile/>
    <tile/>
    <tile/>
    <tile/>
    <tile/>
    <tile/>
    <tile/>
    <tile/>
    <tile/>
    <tile gid="257"/>
    <tile/>
    <tile/>
    <tile gid="258"/>
    <tile/>
    <tile/>
    <tile/>
    <tile/>
    <tile/>
    <tile/>
    <tile/>
    <tile/>
    <tile/>
    <tile/>
    <tile/>
    <tile/>
    <tile/>
    <tile/>
    <tile/>
    <tile/>
    <tile/>
    <tile/>
    <tile/>
    <tile/>
    <tile/>
    <tile/>
    <tile/>
    <tile/>
    <tile/>
    <tile/>
    <tile/>
    <tile/>
    <tile/>
    <tile/>
    <tile/>
    <tile/>
    <tile/>
    <tile/>
    <tile/>
    <tile/>
    <tile/>
    <tile/>
    <tile/>
    <tile/>
    <tile/>
    <tile/>
    <tile/>
    <tile/>
    <tile/>
    <tile/>
    <tile gid="257"/>
    <tile/>
    <tile/>
    <tile gid="258"/>
    <tile/>
    <tile/>
    <tile/>
    <tile/>
    <tile/>
    <tile/>
    <tile/>
    <tile/>
    <tile/>
    <tile/>
    <tile/>
    <tile/>
    <tile/>
    <tile/>
    <tile/>
    <tile/>
    <tile/>
    <tile/>
    <tile/>
    <tile/>
    <tile/>
    <tile/>
    <tile/>
    <tile/>
    <tile/>
    <tile/>
    <tile/>
    <tile/>
    <tile/>
    <tile/>
    <tile/>
    <tile/>
    <tile/>
    <tile/>
    <tile/>
    <tile/>
    <tile/>
    <tile/>
    <tile/>
    <tile/>
    <tile/>
    <tile/>
    <tile/>
    <tile/>
    <tile/>
    <tile/>
    <tile gid="292"/>
    <tile/>
    <tile/>
    <tile gid="262"/>
    <tile/>
    <tile/>
    <tile/>
    <tile/>
    <tile/>
    <tile/>
    <tile/>
    <tile/>
    <tile/>
    <tile/>
    <tile/>
    <tile/>
    <tile/>
    <tile/>
    <tile/>
    <tile/>
    <tile/>
    <tile/>
    <tile/>
    <tile/>
    <tile/>
    <tile/>
    <tile/>
    <tile/>
    <tile/>
    <tile/>
    <tile/>
    <tile/>
    <tile/>
    <tile/>
    <tile/>
    <tile/>
    <tile/>
    <tile/>
    <tile/>
    <tile/>
    <tile/>
    <tile/>
    <tile/>
    <tile/>
    <tile/>
    <tile/>
    <tile/>
    <tile/>
    <tile/>
    <tile gid="227"/>
    <tile gid="165"/>
    <tile/>
    <tile/>
    <tile gid="165"/>
    <tile gid="228"/>
    <tile/>
    <tile/>
    <tile/>
    <tile/>
    <tile/>
    <tile/>
    <tile/>
    <tile/>
    <tile/>
    <tile/>
    <tile/>
    <tile/>
    <tile/>
    <tile/>
    <tile/>
    <tile/>
    <tile/>
    <tile/>
    <tile/>
    <tile/>
    <tile/>
    <tile/>
    <tile/>
    <tile/>
    <tile/>
    <tile/>
    <tile/>
    <tile/>
    <tile/>
    <tile/>
    <tile/>
    <tile/>
    <tile/>
    <tile/>
    <tile/>
    <tile/>
    <tile/>
    <tile/>
    <tile/>
    <tile/>
    <tile/>
    <tile/>
    <tile/>
    <tile gid="227"/>
    <tile gid="165"/>
    <tile gid="197"/>
    <tile/>
    <tile/>
    <tile gid="197"/>
    <tile gid="165"/>
    <tile gid="228"/>
    <tile/>
    <tile/>
    <tile/>
    <tile/>
    <tile/>
    <tile/>
    <tile/>
    <tile/>
    <tile/>
    <tile/>
    <tile/>
    <tile/>
    <tile/>
    <tile/>
    <tile/>
    <tile/>
    <tile/>
    <tile/>
    <tile/>
    <tile/>
    <tile/>
    <tile/>
    <tile/>
    <tile/>
    <tile/>
    <tile/>
    <tile/>
    <tile/>
    <tile/>
    <tile/>
    <tile/>
    <tile/>
    <tile/>
    <tile/>
    <tile/>
    <tile/>
    <tile/>
    <tile/>
    <tile/>
    <tile/>
    <tile/>
    <tile gid="227"/>
    <tile gid="165"/>
    <tile gid="197"/>
    <tile/>
    <tile/>
    <tile/>
    <tile/>
    <tile gid="197"/>
    <tile gid="165"/>
    <tile gid="228"/>
    <tile/>
    <tile/>
    <tile/>
    <tile/>
    <tile/>
    <tile/>
    <tile/>
    <tile/>
    <tile/>
    <tile/>
    <tile/>
    <tile/>
    <tile/>
    <tile/>
    <tile/>
    <tile/>
    <tile/>
    <tile/>
    <tile/>
    <tile/>
    <tile/>
    <tile/>
    <tile/>
    <tile/>
    <tile/>
    <tile/>
    <tile/>
    <tile/>
    <tile/>
    <tile/>
    <tile/>
    <tile/>
    <tile/>
    <tile/>
    <tile/>
    <tile/>
    <tile/>
    <tile gid="227"/>
    <tile gid="2"/>
    <tile gid="2"/>
    <tile gid="165"/>
    <tile gid="197"/>
    <tile/>
    <tile/>
    <tile/>
    <tile/>
    <tile/>
    <tile/>
    <tile gid="197"/>
    <tile gid="165"/>
    <tile gid="2"/>
    <tile gid="2"/>
    <tile gid="228"/>
    <tile/>
    <tile/>
    <tile/>
    <tile/>
    <tile/>
    <tile/>
    <tile/>
    <tile gid="227"/>
    <tile gid="5"/>
    <tile gid="2"/>
    <tile gid="5"/>
    <tile gid="5"/>
    <tile gid="2"/>
    <tile gid="5"/>
    <tile gid="228"/>
    <tile/>
    <tile/>
    <tile/>
    <tile/>
    <tile/>
    <tile/>
    <tile/>
    <tile/>
    <tile/>
    <tile/>
    <tile/>
    <tile/>
    <tile/>
    <tile/>
    <tile/>
    <tile/>
    <tile/>
    <tile/>
    <tile/>
    <tile gid="259"/>
    <tile gid="34"/>
    <tile gid="34"/>
    <tile gid="197"/>
    <tile/>
    <tile/>
    <tile/>
    <tile/>
    <tile/>
    <tile/>
    <tile/>
    <tile/>
    <tile gid="197"/>
    <tile gid="34"/>
    <tile gid="34"/>
    <tile gid="260"/>
    <tile/>
    <tile/>
    <tile/>
    <tile/>
    <tile/>
    <tile/>
    <tile/>
    <tile gid="259"/>
    <tile gid="101"/>
    <tile gid="34"/>
    <tile gid="101"/>
    <tile gid="101"/>
    <tile gid="34"/>
    <tile gid="101"/>
    <tile gid="260"/>
    <tile/>
    <tile/>
    <tile/>
    <tile/>
    <tile/>
    <tile/>
    <tile/>
    <tile/>
    <tile/>
    <tile/>
    <tile/>
    <tile/>
    <tile/>
    <tile/>
    <tile/>
    <tile/>
    <tile/>
    <tile/>
    <tile/>
    <tile gid="258"/>
    <tile/>
    <tile/>
    <tile/>
    <tile/>
    <tile/>
    <tile/>
    <tile/>
    <tile/>
    <tile/>
    <tile/>
    <tile/>
    <tile/>
    <tile/>
    <tile/>
    <tile gid="257"/>
    <tile/>
    <tile/>
    <tile/>
    <tile/>
    <tile/>
    <tile/>
    <tile/>
    <tile gid="258"/>
    <tile gid="133"/>
    <tile/>
    <tile gid="133"/>
    <tile gid="133"/>
    <tile/>
    <tile gid="133"/>
    <tile gid="257"/>
    <tile/>
    <tile/>
    <tile/>
    <tile/>
    <tile/>
    <tile/>
    <tile/>
    <tile/>
    <tile/>
    <tile/>
    <tile/>
    <tile/>
    <tile/>
    <tile/>
    <tile/>
    <tile/>
    <tile/>
    <tile/>
    <tile/>
    <tile gid="258"/>
    <tile/>
    <tile/>
    <tile/>
    <tile/>
    <tile/>
    <tile/>
    <tile/>
    <tile/>
    <tile/>
    <tile/>
    <tile/>
    <tile/>
    <tile/>
    <tile/>
    <tile gid="257"/>
    <tile/>
    <tile/>
    <tile/>
    <tile/>
    <tile/>
    <tile/>
    <tile/>
    <tile gid="258"/>
    <tile/>
    <tile/>
    <tile/>
    <tile/>
    <tile/>
    <tile/>
    <tile gid="257"/>
    <tile/>
    <tile/>
    <tile/>
    <tile/>
    <tile/>
    <tile/>
    <tile/>
    <tile/>
    <tile/>
    <tile/>
    <tile/>
    <tile/>
    <tile/>
    <tile/>
    <tile/>
    <tile/>
    <tile/>
    <tile/>
    <tile/>
    <tile gid="258"/>
    <tile/>
    <tile/>
    <tile/>
    <tile/>
    <tile/>
    <tile/>
    <tile gid="198"/>
    <tile/>
    <tile/>
    <tile/>
    <tile/>
    <tile/>
    <tile/>
    <tile/>
    <tile gid="257"/>
    <tile/>
    <tile/>
    <tile/>
    <tile/>
    <tile/>
    <tile/>
    <tile/>
    <tile gid="258"/>
    <tile/>
    <tile/>
    <tile/>
    <tile/>
    <tile/>
    <tile/>
    <tile gid="257"/>
    <tile/>
    <tile/>
    <tile/>
    <tile/>
    <tile/>
    <tile/>
    <tile/>
    <tile/>
    <tile/>
    <tile/>
    <tile/>
    <tile gid="227"/>
    <tile gid="2"/>
    <tile gid="2"/>
    <tile gid="2"/>
    <tile gid="2"/>
    <tile gid="2"/>
    <tile gid="2"/>
    <tile gid="2"/>
    <tile gid="258"/>
    <tile/>
    <tile/>
    <tile/>
    <tile/>
    <tile/>
    <tile/>
    <tile gid="230"/>
    <tile/>
    <tile/>
    <tile/>
    <tile/>
    <tile/>
    <tile/>
    <tile/>
    <tile gid="257"/>
    <tile/>
    <tile/>
    <tile/>
    <tile/>
    <tile/>
    <tile/>
    <tile/>
    <tile gid="258"/>
    <tile/>
    <tile/>
    <tile/>
    <tile/>
    <tile/>
    <tile/>
    <tile gid="261"/>
    <tile/>
    <tile/>
    <tile/>
    <tile/>
    <tile/>
    <tile/>
    <tile/>
    <tile/>
    <tile/>
    <tile/>
    <tile/>
    <tile gid="259"/>
    <tile gid="34"/>
    <tile gid="34"/>
    <tile gid="34"/>
    <tile gid="98"/>
    <tile gid="34"/>
    <tile gid="34"/>
    <tile gid="34"/>
    <tile gid="290"/>
    <tile/>
    <tile/>
    <tile/>
    <tile/>
    <tile/>
    <tile/>
    <tile/>
    <tile/>
    <tile/>
    <tile/>
    <tile/>
    <tile/>
    <tile/>
    <tile/>
    <tile gid="257"/>
    <tile/>
    <tile/>
    <tile/>
    <tile/>
    <tile/>
    <tile/>
    <tile/>
    <tile/>
    <tile/>
    <tile/>
    <tile/>
    <tile/>
    <tile/>
    <tile/>
    <tile/>
    <tile/>
    <tile/>
    <tile/>
    <tile/>
    <tile/>
    <tile/>
    <tile/>
    <tile/>
    <tile/>
    <tile/>
    <tile/>
    <tile gid="258"/>
    <tile/>
    <tile/>
    <tile/>
    <tile/>
    <tile/>
    <tile/>
    <tile/>
    <tile/>
    <tile/>
    <tile gid="198"/>
    <tile/>
    <tile/>
    <tile/>
    <tile/>
    <tile/>
    <tile/>
    <tile/>
    <tile/>
    <tile/>
    <tile/>
    <tile/>
    <tile/>
    <tile gid="257"/>
    <tile/>
    <tile/>
    <tile/>
    <tile/>
    <tile/>
    <tile/>
    <tile/>
    <tile/>
    <tile/>
    <tile gid="257"/>
    <tile/>
    <tile/>
    <tile gid="258"/>
    <tile/>
    <tile/>
    <tile/>
    <tile/>
    <tile/>
    <tile/>
    <tile/>
    <tile/>
    <tile gid="227"/>
    <tile gid="227"/>
    <tile gid="2"/>
    <tile gid="2"/>
    <tile gid="2"/>
    <tile gid="258"/>
    <tile/>
    <tile/>
    <tile/>
    <tile/>
    <tile/>
    <tile/>
    <tile/>
    <tile/>
    <tile/>
    <tile gid="230"/>
    <tile/>
    <tile/>
    <tile/>
    <tile/>
    <tile/>
    <tile/>
    <tile gid="198"/>
    <tile/>
    <tile/>
    <tile/>
    <tile/>
    <tile/>
    <tile gid="257"/>
    <tile/>
    <tile/>
    <tile/>
    <tile/>
    <tile/>
    <tile/>
    <tile/>
    <tile/>
    <tile/>
    <tile gid="257"/>
    <tile/>
    <tile/>
    <tile gid="258"/>
    <tile/>
    <tile/>
    <tile/>
    <tile/>
    <tile/>
    <tile/>
    <tile/>
    <tile/>
    <tile gid="259"/>
    <tile gid="98"/>
    <tile gid="34"/>
    <tile gid="165"/>
    <tile gid="34"/>
    <tile gid="290"/>
    <tile/>
    <tile/>
    <tile/>
    <tile/>
    <tile/>
    <tile/>
    <tile/>
    <tile/>
    <tile/>
    <tile/>
    <tile/>
    <tile/>
    <tile/>
    <tile/>
    <tile/>
    <tile/>
    <tile gid="230"/>
    <tile/>
    <tile/>
    <tile/>
    <tile gid="198"/>
    <tile/>
    <tile gid="257"/>
    <tile gid="2"/>
    <tile gid="2"/>
    <tile gid="2"/>
    <tile gid="2"/>
    <tile gid="2"/>
    <tile gid="2"/>
    <tile gid="2"/>
    <tile gid="2"/>
    <tile gid="2"/>
    <tile gid="292"/>
    <tile/>
    <tile/>
    <tile gid="262"/>
    <tile gid="226"/>
    <tile/>
    <tile/>
    <tile/>
    <tile/>
    <tile/>
    <tile/>
    <tile/>
    <tile gid="258"/>
    <tile/>
    <tile/>
    <tile gid="197"/>
    <tile/>
    <tile/>
    <tile/>
    <tile/>
    <tile/>
    <tile/>
    <tile/>
    <tile/>
    <tile/>
    <tile/>
    <tile/>
    <tile/>
    <tile/>
    <tile/>
    <tile/>
    <tile/>
    <tile/>
    <tile/>
    <tile/>
    <tile/>
    <tile/>
    <tile/>
    <tile gid="230"/>
    <tile/>
    <tile gid="289"/>
    <tile gid="66"/>
    <tile gid="34"/>
    <tile gid="34"/>
    <tile gid="66"/>
    <tile gid="34"/>
    <tile gid="67"/>
    <tile gid="34"/>
    <tile gid="34"/>
    <tile gid="67"/>
    <tile gid="34"/>
    <tile/>
    <tile/>
    <tile gid="34"/>
    <tile gid="258"/>
    <tile/>
    <tile/>
    <tile/>
    <tile/>
    <tile/>
    <tile/>
    <tile/>
    <tile gid="258"/>
    <tile/>
    <tile/>
    <tile/>
    <tile/>
    <tile/>
    <tile/>
    <tile/>
    <tile/>
    <tile/>
    <tile/>
    <tile/>
    <tile/>
    <tile/>
    <tile/>
    <tile/>
    <tile/>
    <tile/>
    <tile/>
    <tile/>
    <tile/>
    <tile/>
    <tile/>
    <tile/>
    <tile/>
    <tile/>
    <tile/>
    <tile/>
    <tile/>
    <tile/>
    <tile/>
    <tile/>
    <tile/>
    <tile/>
    <tile/>
    <tile/>
    <tile/>
    <tile/>
    <tile/>
    <tile/>
    <tile/>
    <tile/>
    <tile gid="258"/>
    <tile/>
    <tile/>
    <tile/>
    <tile/>
    <tile/>
    <tile/>
    <tile/>
    <tile gid="258"/>
    <tile/>
    <tile/>
    <tile/>
    <tile/>
    <tile/>
    <tile/>
    <tile/>
    <tile/>
    <tile/>
    <tile gid="258"/>
    <tile/>
    <tile gid="257"/>
    <tile/>
    <tile/>
    <tile/>
    <tile/>
    <tile/>
    <tile/>
    <tile gid="198"/>
    <tile/>
    <tile/>
    <tile/>
    <tile/>
    <tile/>
    <tile/>
    <tile/>
    <tile/>
    <tile/>
    <tile/>
    <tile/>
    <tile/>
    <tile/>
    <tile/>
    <tile/>
    <tile/>
    <tile/>
    <tile/>
    <tile/>
    <tile/>
    <tile/>
    <tile/>
    <tile gid="258"/>
    <tile/>
    <tile/>
    <tile/>
    <tile/>
    <tile/>
    <tile/>
    <tile/>
    <tile gid="258"/>
    <tile/>
    <tile/>
    <tile/>
    <tile/>
    <tile/>
    <tile/>
    <tile/>
    <tile/>
    <tile/>
    <tile gid="258"/>
    <tile/>
    <tile gid="257"/>
    <tile/>
    <tile/>
    <tile/>
    <tile/>
    <tile/>
    <tile/>
    <tile gid="230"/>
    <tile/>
    <tile/>
    <tile/>
    <tile/>
    <tile/>
    <tile/>
    <tile/>
    <tile/>
    <tile/>
    <tile/>
    <tile/>
    <tile/>
    <tile/>
    <tile/>
    <tile/>
    <tile/>
    <tile/>
    <tile/>
    <tile/>
    <tile/>
    <tile/>
    <tile/>
    <tile gid="258"/>
    <tile/>
    <tile/>
    <tile/>
    <tile/>
    <tile/>
    <tile/>
    <tile/>
    <tile gid="258"/>
    <tile/>
    <tile/>
    <tile/>
    <tile/>
    <tile/>
    <tile/>
    <tile/>
    <tile/>
    <tile/>
    <tile gid="258"/>
    <tile/>
    <tile gid="257"/>
    <tile/>
    <tile/>
    <tile/>
    <tile/>
    <tile/>
    <tile/>
    <tile/>
    <tile/>
    <tile/>
    <tile/>
    <tile/>
    <tile/>
    <tile/>
    <tile/>
    <tile/>
    <tile/>
    <tile/>
    <tile/>
    <tile/>
    <tile/>
    <tile/>
    <tile/>
    <tile/>
    <tile/>
    <tile/>
    <tile/>
    <tile/>
    <tile/>
    <tile/>
    <tile gid="258"/>
    <tile/>
    <tile/>
    <tile/>
    <tile/>
    <tile/>
    <tile/>
    <tile/>
    <tile/>
    <tile/>
    <tile/>
    <tile/>
    <tile/>
    <tile/>
    <tile/>
    <tile/>
    <tile/>
    <tile/>
    <tile gid="258"/>
    <tile/>
    <tile gid="289"/>
    <tile/>
    <tile/>
    <tile/>
    <tile/>
    <tile/>
    <tile/>
    <tile/>
    <tile/>
    <tile/>
    <tile/>
    <tile/>
    <tile/>
    <tile/>
    <tile/>
    <tile/>
    <tile/>
    <tile gid="290"/>
    <tile/>
    <tile/>
    <tile/>
    <tile/>
    <tile/>
    <tile/>
    <tile/>
    <tile gid="257"/>
    <tile/>
    <tile/>
    <tile/>
    <tile/>
    <tile gid="258"/>
    <tile/>
    <tile/>
    <tile/>
    <tile/>
    <tile/>
    <tile/>
    <tile/>
    <tile/>
    <tile/>
    <tile/>
    <tile/>
    <tile gid="257"/>
    <tile/>
    <tile/>
    <tile/>
    <tile/>
    <tile/>
    <tile gid="258"/>
    <tile/>
    <tile/>
    <tile/>
    <tile/>
    <tile/>
    <tile/>
    <tile/>
    <tile/>
    <tile/>
    <tile/>
    <tile/>
    <tile/>
    <tile/>
    <tile/>
    <tile/>
    <tile/>
    <tile/>
    <tile/>
    <tile/>
    <tile/>
    <tile/>
    <tile/>
    <tile/>
    <tile/>
    <tile/>
    <tile/>
    <tile gid="257"/>
    <tile/>
    <tile/>
    <tile/>
    <tile/>
    <tile gid="258"/>
    <tile/>
    <tile/>
    <tile/>
    <tile/>
    <tile/>
    <tile/>
    <tile/>
    <tile/>
    <tile/>
    <tile/>
    <tile/>
    <tile gid="257"/>
    <tile/>
    <tile/>
    <tile/>
    <tile/>
    <tile/>
    <tile gid="258"/>
    <tile/>
    <tile/>
    <tile/>
    <tile/>
    <tile/>
    <tile/>
    <tile/>
    <tile/>
    <tile/>
    <tile/>
    <tile/>
    <tile/>
    <tile/>
    <tile/>
    <tile gid="225"/>
    <tile gid="227"/>
    <tile gid="2"/>
    <tile gid="2"/>
    <tile gid="2"/>
    <tile gid="2"/>
    <tile gid="2"/>
    <tile gid="228"/>
    <tile/>
    <tile/>
    <tile/>
    <tile/>
    <tile gid="257"/>
    <tile/>
    <tile/>
    <tile/>
    <tile/>
    <tile gid="258"/>
    <tile/>
    <tile/>
    <tile/>
    <tile/>
    <tile/>
    <tile/>
    <tile/>
    <tile/>
    <tile/>
    <tile/>
    <tile/>
    <tile gid="257"/>
    <tile/>
    <tile/>
    <tile/>
    <tile/>
    <tile/>
    <tile gid="258"/>
    <tile/>
    <tile/>
    <tile/>
    <tile/>
    <tile/>
    <tile/>
    <tile/>
    <tile/>
    <tile/>
    <tile/>
    <tile/>
    <tile/>
    <tile/>
    <tile/>
    <tile gid="257"/>
    <tile gid="34"/>
    <tile gid="34"/>
    <tile gid="165"/>
    <tile gid="34"/>
    <tile gid="165"/>
    <tile gid="34"/>
    <tile gid="260"/>
    <tile gid="2"/>
    <tile gid="2"/>
    <tile gid="2"/>
    <tile gid="2"/>
    <tile gid="261"/>
    <tile/>
    <tile/>
    <tile/>
    <tile/>
    <tile gid="258"/>
    <tile/>
    <tile/>
    <tile/>
    <tile/>
    <tile/>
    <tile/>
    <tile gid="227"/>
    <tile gid="2"/>
    <tile gid="2"/>
    <tile gid="2"/>
    <tile gid="2"/>
    <tile gid="2"/>
    <tile/>
    <tile/>
    <tile/>
    <tile/>
    <tile/>
    <tile gid="258"/>
    <tile gid="2"/>
    <tile gid="2"/>
    <tile gid="2"/>
    <tile gid="2"/>
    <tile gid="228"/>
    <tile/>
    <tile/>
    <tile/>
    <tile/>
    <tile/>
    <tile/>
    <tile/>
    <tile/>
    <tile/>
    <tile gid="257"/>
    <tile/>
    <tile/>
    <tile gid="197"/>
    <tile/>
    <tile gid="197"/>
    <tile/>
    <tile gid="289"/>
    <tile gid="34"/>
    <tile gid="34"/>
    <tile gid="34"/>
    <tile gid="165"/>
    <tile gid="34"/>
    <tile/>
    <tile/>
    <tile/>
    <tile/>
    <tile gid="258"/>
    <tile/>
    <tile/>
    <tile/>
    <tile/>
    <tile/>
    <tile/>
    <tile gid="259"/>
    <tile gid="165"/>
    <tile gid="34"/>
    <tile gid="34"/>
    <tile gid="34"/>
    <tile gid="165"/>
    <tile/>
    <tile/>
    <tile/>
    <tile/>
    <tile/>
    <tile gid="165"/>
    <tile gid="34"/>
    <tile gid="34"/>
    <tile gid="34"/>
    <tile gid="165"/>
    <tile gid="260"/>
    <tile/>
    <tile/>
    <tile/>
    <tile/>
    <tile/>
    <tile/>
    <tile/>
    <tile/>
    <tile/>
    <tile gid="257"/>
    <tile/>
    <tile/>
    <tile/>
    <tile/>
    <tile/>
    <tile/>
    <tile/>
    <tile/>
    <tile/>
    <tile/>
    <tile gid="197"/>
    <tile/>
    <tile/>
    <tile/>
    <tile/>
    <tile/>
    <tile gid="258"/>
    <tile/>
    <tile/>
    <tile/>
    <tile/>
    <tile/>
    <tile/>
    <tile gid="258"/>
    <tile gid="197"/>
    <tile/>
    <tile/>
    <tile/>
    <tile gid="197"/>
    <tile/>
    <tile/>
    <tile/>
    <tile/>
    <tile/>
    <tile gid="197"/>
    <tile/>
    <tile/>
    <tile/>
    <tile gid="197"/>
    <tile gid="257"/>
    <tile/>
    <tile/>
    <tile/>
    <tile/>
    <tile/>
    <tile/>
    <tile/>
    <tile/>
    <tile/>
    <tile gid="257"/>
    <tile/>
    <tile/>
    <tile/>
    <tile/>
    <tile/>
    <tile/>
    <tile/>
    <tile/>
    <tile/>
    <tile/>
    <tile/>
    <tile/>
    <tile/>
    <tile/>
    <tile/>
    <tile/>
    <tile gid="258"/>
    <tile/>
    <tile/>
    <tile/>
    <tile/>
    <tile/>
    <tile/>
    <tile gid="258"/>
    <tile/>
    <tile/>
    <tile/>
    <tile/>
    <tile/>
    <tile/>
    <tile/>
    <tile/>
    <tile/>
    <tile/>
    <tile/>
    <tile/>
    <tile/>
    <tile/>
    <tile/>
    <tile gid="257"/>
    <tile/>
    <tile/>
    <tile/>
    <tile/>
    <tile/>
    <tile/>
    <tile/>
    <tile/>
    <tile/>
    <tile gid="257"/>
    <tile/>
    <tile/>
    <tile/>
    <tile/>
    <tile/>
    <tile/>
    <tile/>
    <tile/>
    <tile/>
    <tile/>
    <tile/>
    <tile/>
    <tile/>
    <tile/>
    <tile/>
    <tile/>
    <tile gid="258"/>
    <tile/>
    <tile/>
    <tile/>
    <tile/>
    <tile/>
    <tile/>
    <tile gid="258"/>
    <tile/>
    <tile/>
    <tile/>
    <tile gid="198"/>
    <tile/>
    <tile/>
    <tile/>
    <tile/>
    <tile/>
    <tile/>
    <tile/>
    <tile gid="198"/>
    <tile/>
    <tile/>
    <tile/>
    <tile gid="257"/>
    <tile/>
    <tile/>
    <tile/>
    <tile/>
    <tile/>
    <tile/>
    <tile/>
    <tile/>
    <tile/>
    <tile gid="257"/>
    <tile/>
    <tile/>
    <tile/>
    <tile/>
    <tile/>
    <tile/>
    <tile/>
    <tile gid="258"/>
    <tile/>
    <tile/>
    <tile/>
    <tile gid="257"/>
    <tile/>
    <tile/>
    <tile/>
    <tile/>
    <tile gid="258"/>
    <tile/>
    <tile/>
    <tile/>
    <tile/>
    <tile/>
    <tile/>
    <tile gid="258"/>
    <tile/>
    <tile/>
    <tile/>
    <tile gid="230"/>
    <tile/>
    <tile/>
    <tile/>
    <tile/>
    <tile/>
    <tile/>
    <tile/>
    <tile gid="230"/>
    <tile/>
    <tile/>
    <tile/>
    <tile gid="257"/>
    <tile/>
    <tile/>
    <tile/>
    <tile/>
    <tile/>
    <tile/>
    <tile/>
    <tile/>
    <tile/>
    <tile gid="289"/>
    <tile/>
    <tile/>
    <tile/>
    <tile/>
    <tile/>
    <tile/>
    <tile/>
    <tile gid="290"/>
    <tile/>
    <tile/>
    <tile/>
    <tile gid="257"/>
    <tile/>
    <tile/>
    <tile/>
    <tile/>
    <tile gid="258"/>
    <tile/>
    <tile/>
    <tile/>
    <tile/>
    <tile/>
    <tile/>
    <tile gid="258"/>
    <tile/>
    <tile/>
    <tile/>
    <tile/>
    <tile/>
    <tile/>
    <tile/>
    <tile/>
    <tile/>
    <tile/>
    <tile/>
    <tile/>
    <tile/>
    <tile/>
    <tile/>
    <tile gid="257"/>
    <tile/>
    <tile/>
    <tile/>
    <tile/>
    <tile/>
    <tile/>
    <tile/>
    <tile/>
    <tile/>
    <tile/>
    <tile gid="227"/>
    <tile gid="2"/>
    <tile gid="2"/>
    <tile gid="2"/>
    <tile gid="2"/>
    <tile gid="2"/>
    <tile gid="228"/>
    <tile/>
    <tile/>
    <tile/>
    <tile/>
    <tile gid="257"/>
    <tile/>
    <tile/>
    <tile/>
    <tile/>
    <tile gid="258"/>
    <tile/>
    <tile/>
    <tile/>
    <tile/>
    <tile/>
    <tile/>
    <tile gid="258"/>
    <tile/>
    <tile/>
    <tile/>
    <tile/>
    <tile/>
    <tile/>
    <tile/>
    <tile/>
    <tile/>
    <tile/>
    <tile/>
    <tile/>
    <tile/>
    <tile/>
    <tile/>
    <tile gid="257"/>
    <tile/>
    <tile/>
    <tile/>
    <tile/>
    <tile/>
    <tile/>
    <tile/>
    <tile/>
    <tile/>
    <tile/>
    <tile gid="259"/>
    <tile gid="34"/>
    <tile gid="34"/>
    <tile gid="34"/>
    <tile gid="34"/>
    <tile gid="34"/>
    <tile gid="260"/>
    <tile gid="2"/>
    <tile gid="2"/>
    <tile gid="2"/>
    <tile gid="2"/>
    <tile gid="261"/>
    <tile/>
    <tile/>
    <tile/>
    <tile/>
    <tile gid="258"/>
    <tile/>
    <tile/>
    <tile/>
    <tile/>
    <tile/>
    <tile/>
    <tile gid="258"/>
    <tile/>
    <tile/>
    <tile/>
    <tile/>
    <tile/>
    <tile/>
    <tile gid="198"/>
    <tile/>
    <tile/>
    <tile/>
    <tile/>
    <tile/>
    <tile/>
    <tile/>
    <tile/>
    <tile gid="257"/>
    <tile/>
    <tile/>
    <tile/>
    <tile/>
    <tile/>
    <tile/>
    <tile/>
    <tile/>
    <tile/>
    <tile/>
    <tile gid="258"/>
    <tile/>
    <tile/>
    <tile/>
    <tile/>
    <tile/>
    <tile gid="289"/>
    <tile gid="98"/>
    <tile gid="34"/>
    <tile gid="98"/>
    <tile gid="34"/>
    <tile gid="98"/>
    <tile/>
    <tile/>
    <tile/>
    <tile/>
    <tile gid="258"/>
    <tile/>
    <tile/>
    <tile/>
    <tile/>
    <tile/>
    <tile/>
    <tile gid="258"/>
    <tile/>
    <tile/>
    <tile/>
    <tile/>
    <tile/>
    <tile/>
    <tile gid="230"/>
    <tile/>
    <tile/>
    <tile/>
    <tile/>
    <tile/>
    <tile/>
    <tile/>
    <tile/>
    <tile gid="257"/>
    <tile/>
    <tile/>
    <tile/>
    <tile/>
    <tile/>
    <tile/>
    <tile/>
    <tile/>
    <tile/>
    <tile/>
    <tile gid="258"/>
    <tile/>
    <tile/>
    <tile/>
    <tile/>
    <tile/>
    <tile/>
    <tile/>
    <tile/>
    <tile/>
    <tile/>
    <tile/>
    <tile/>
    <tile/>
    <tile/>
    <tile/>
    <tile gid="258"/>
    <tile/>
    <tile/>
    <tile/>
    <tile/>
    <tile/>
    <tile/>
    <tile gid="258"/>
    <tile/>
    <tile/>
    <tile/>
    <tile/>
    <tile/>
    <tile/>
    <tile/>
    <tile/>
    <tile/>
    <tile/>
    <tile/>
    <tile/>
    <tile/>
    <tile/>
    <tile/>
    <tile gid="257"/>
    <tile/>
    <tile/>
    <tile/>
    <tile/>
    <tile/>
    <tile/>
    <tile/>
    <tile/>
    <tile/>
    <tile/>
    <tile gid="258"/>
    <tile/>
    <tile/>
    <tile/>
    <tile/>
    <tile/>
    <tile/>
    <tile/>
    <tile/>
    <tile/>
    <tile/>
    <tile/>
    <tile/>
    <tile/>
    <tile/>
    <tile/>
    <tile gid="258"/>
    <tile/>
    <tile/>
    <tile/>
    <tile/>
    <tile/>
    <tile/>
    <tile gid="258"/>
    <tile/>
    <tile/>
    <tile/>
    <tile/>
    <tile/>
    <tile/>
    <tile/>
    <tile/>
    <tile/>
    <tile/>
    <tile/>
    <tile/>
    <tile/>
    <tile/>
    <tile/>
    <tile gid="257"/>
    <tile/>
    <tile/>
    <tile/>
    <tile/>
    <tile/>
    <tile/>
    <tile/>
    <tile/>
    <tile/>
    <tile/>
    <tile gid="258"/>
    <tile/>
    <tile/>
    <tile/>
    <tile/>
    <tile/>
    <tile/>
    <tile/>
    <tile/>
    <tile/>
    <tile/>
    <tile/>
    <tile/>
    <tile/>
    <tile/>
    <tile/>
    <tile gid="290"/>
    <tile/>
    <tile/>
    <tile/>
    <tile/>
    <tile/>
    <tile/>
    <tile/>
    <tile/>
    <tile/>
    <tile/>
    <tile/>
    <tile/>
    <tile/>
    <tile/>
    <tile/>
    <tile/>
    <tile/>
    <tile/>
    <tile/>
    <tile/>
    <tile/>
    <tile/>
    <tile/>
    <tile/>
    <tile/>
    <tile/>
    <tile/>
    <tile/>
    <tile/>
    <tile/>
    <tile/>
    <tile/>
    <tile/>
    <tile gid="258"/>
    <tile/>
    <tile/>
    <tile/>
    <tile/>
    <tile/>
    <tile/>
    <tile gid="290"/>
    <tile/>
    <tile/>
    <tile/>
    <tile/>
    <tile/>
    <tile/>
    <tile/>
    <tile/>
    <tile/>
    <tile/>
    <tile/>
    <tile/>
    <tile/>
    <tile/>
    <tile/>
    <tile/>
    <tile/>
    <tile/>
    <tile/>
    <tile/>
    <tile/>
    <tile/>
    <tile/>
    <tile/>
    <tile/>
    <tile/>
    <tile/>
    <tile/>
    <tile/>
    <tile/>
    <tile/>
    <tile/>
    <tile/>
    <tile/>
    <tile/>
    <tile/>
    <tile/>
    <tile/>
    <tile/>
    <tile/>
    <tile/>
    <tile/>
    <tile gid="258"/>
    <tile/>
    <tile/>
    <tile/>
    <tile/>
    <tile gid="258"/>
    <tile/>
    <tile/>
    <tile/>
    <tile/>
    <tile/>
    <tile/>
    <tile/>
    <tile/>
    <tile/>
    <tile/>
    <tile/>
    <tile/>
    <tile/>
    <tile/>
    <tile/>
    <tile/>
    <tile/>
    <tile/>
    <tile/>
    <tile/>
    <tile/>
    <tile/>
    <tile/>
    <tile/>
    <tile/>
    <tile/>
    <tile/>
    <tile/>
    <tile/>
    <tile/>
    <tile/>
    <tile/>
    <tile/>
    <tile/>
    <tile/>
    <tile/>
    <tile/>
    <tile/>
    <tile/>
    <tile/>
    <tile/>
    <tile/>
    <tile/>
    <tile/>
    <tile/>
    <tile/>
    <tile/>
    <tile/>
    <tile/>
    <tile gid="290"/>
    <tile/>
    <tile/>
    <tile/>
    <tile/>
    <tile/>
    <tile/>
    <tile/>
    <tile/>
    <tile/>
    <tile/>
    <tile/>
    <tile/>
    <tile/>
    <tile/>
   </data>
  </layer>
  <layer id="72" name="upper_walls" width="50" height="50">
   <data>
    <tile/>
    <tile/>
    <tile/>
    <tile/>
    <tile/>
    <tile/>
    <tile/>
    <tile/>
    <tile/>
    <tile/>
    <tile/>
    <tile/>
    <tile/>
    <tile/>
    <tile/>
    <tile/>
    <tile/>
    <tile/>
    <tile/>
    <tile/>
    <tile/>
    <tile/>
    <tile/>
    <tile/>
    <tile/>
    <tile/>
    <tile/>
    <tile/>
    <tile/>
    <tile/>
    <tile/>
    <tile/>
    <tile/>
    <tile/>
    <tile/>
    <tile/>
    <tile/>
    <tile/>
    <tile/>
    <tile/>
    <tile/>
    <tile/>
    <tile/>
    <tile/>
    <tile/>
    <tile/>
    <tile/>
    <tile/>
    <tile/>
    <tile/>
    <tile/>
    <tile/>
    <tile/>
    <tile/>
    <tile/>
    <tile/>
    <tile/>
    <tile/>
    <tile/>
    <tile/>
    <tile/>
    <tile/>
    <tile/>
    <tile/>
    <tile/>
    <tile/>
    <tile/>
    <tile/>
    <tile/>
    <tile/>
    <tile/>
    <tile/>
    <tile/>
    <tile/>
    <tile/>
    <tile/>
    <tile/>
    <tile/>
    <tile/>
    <tile/>
    <tile/>
    <tile/>
    <tile/>
    <tile/>
    <tile/>
    <tile/>
    <tile/>
    <tile/>
    <tile/>
    <tile/>
    <tile/>
    <tile/>
    <tile/>
    <tile/>
    <tile/>
    <tile/>
    <tile/>
    <tile/>
    <tile/>
    <tile/>
    <tile/>
    <tile/>
    <tile/>
    <tile/>
    <tile/>
    <tile/>
    <tile/>
    <tile/>
    <tile/>
    <tile/>
    <tile/>
    <tile/>
    <tile/>
    <tile/>
    <tile/>
    <tile/>
    <tile/>
    <tile/>
    <tile/>
    <tile/>
    <tile/>
    <tile/>
    <tile/>
    <tile/>
    <tile/>
    <tile/>
    <tile/>
    <tile/>
    <tile/>
    <tile/>
    <tile/>
    <tile/>
    <tile/>
    <tile/>
    <tile/>
    <tile/>
    <tile/>
    <tile/>
    <tile/>
    <tile/>
    <tile/>
    <tile/>
    <tile/>
    <tile/>
    <tile/>
    <tile/>
    <tile/>
    <tile/>
    <tile/>
    <tile/>
    <tile/>
    <tile/>
    <tile/>
    <tile/>
    <tile/>
    <tile/>
    <tile/>
    <tile/>
    <tile/>
    <tile/>
    <tile/>
    <tile/>
    <tile/>
    <tile/>
    <tile/>
    <tile/>
    <tile/>
    <tile/>
    <tile/>
    <tile/>
    <tile/>
    <tile/>
    <tile/>
    <tile/>
    <tile/>
    <tile/>
    <tile/>
    <tile/>
    <tile/>
    <tile/>
    <tile/>
    <tile/>
    <tile/>
    <tile/>
    <tile/>
    <tile/>
    <tile/>
    <tile/>
    <tile/>
    <tile/>
    <tile/>
    <tile/>
    <tile/>
    <tile/>
    <tile/>
    <tile/>
    <tile/>
    <tile/>
    <tile/>
    <tile/>
    <tile/>
    <tile/>
    <tile/>
    <tile/>
    <tile/>
    <tile/>
    <tile/>
    <tile/>
    <tile/>
    <tile/>
    <tile/>
    <tile/>
    <tile/>
    <tile/>
    <tile/>
    <tile/>
    <tile/>
    <tile/>
    <tile/>
    <tile/>
    <tile/>
    <tile/>
    <tile/>
    <tile/>
    <tile/>
    <tile/>
    <tile/>
    <tile/>
    <tile/>
    <tile/>
    <tile/>
    <tile/>
    <tile/>
    <tile/>
    <tile/>
    <tile/>
    <tile/>
    <tile/>
    <tile/>
    <tile/>
    <tile/>
    <tile/>
    <tile/>
    <tile/>
    <tile/>
    <tile/>
    <tile/>
    <tile/>
    <tile/>
    <tile/>
    <tile/>
    <tile/>
    <tile/>
    <tile/>
    <tile/>
    <tile/>
    <tile/>
    <tile/>
    <tile/>
    <tile/>
    <tile/>
    <tile/>
    <tile/>
    <tile/>
    <tile/>
    <tile/>
    <tile/>
    <tile/>
    <tile/>
    <tile/>
    <tile/>
    <tile/>
    <tile/>
    <tile/>
    <tile/>
    <tile/>
    <tile/>
    <tile/>
    <tile/>
    <tile/>
    <tile/>
    <tile/>
    <tile/>
    <tile/>
    <tile/>
    <tile/>
    <tile/>
    <tile/>
    <tile/>
    <tile/>
    <tile/>
    <tile/>
    <tile/>
    <tile/>
    <tile/>
    <tile/>
    <tile/>
    <tile/>
    <tile/>
    <tile/>
    <tile/>
    <tile/>
    <tile/>
    <tile/>
    <tile/>
    <tile/>
    <tile/>
    <tile/>
    <tile/>
    <tile/>
    <tile/>
    <tile/>
    <tile/>
    <tile/>
    <tile/>
    <tile/>
    <tile/>
    <tile/>
    <tile/>
    <tile/>
    <tile/>
    <tile/>
    <tile/>
    <tile/>
    <tile/>
    <tile/>
    <tile/>
    <tile/>
    <tile/>
    <tile/>
    <tile/>
    <tile/>
    <tile/>
    <tile/>
    <tile/>
    <tile/>
    <tile/>
    <tile/>
    <tile/>
    <tile/>
    <tile/>
    <tile/>
    <tile/>
    <tile/>
    <tile/>
    <tile/>
    <tile/>
    <tile/>
    <tile/>
    <tile/>
    <tile/>
    <tile/>
    <tile/>
    <tile/>
    <tile/>
    <tile/>
    <tile/>
    <tile/>
    <tile/>
    <tile/>
    <tile/>
    <tile/>
    <tile/>
    <tile/>
    <tile/>
    <tile/>
    <tile/>
    <tile/>
    <tile/>
    <tile/>
    <tile/>
    <tile/>
    <tile/>
    <tile/>
    <tile/>
    <tile/>
    <tile/>
    <tile/>
    <tile/>
    <tile/>
    <tile/>
    <tile/>
    <tile/>
    <tile/>
    <tile/>
    <tile/>
    <tile/>
    <tile/>
    <tile/>
    <tile/>
    <tile/>
    <tile/>
    <tile/>
    <tile/>
    <tile/>
    <tile/>
    <tile/>
    <tile/>
    <tile/>
    <tile/>
    <tile/>
    <tile/>
    <tile/>
    <tile/>
    <tile/>
    <tile/>
    <tile/>
    <tile/>
    <tile/>
    <tile/>
    <tile/>
    <tile/>
    <tile/>
    <tile/>
    <tile/>
    <tile/>
    <tile/>
    <tile/>
    <tile/>
    <tile/>
    <tile gid="2"/>
    <tile gid="2"/>
    <tile gid="2"/>
    <tile gid="228"/>
    <tile/>
    <tile/>
    <tile gid="227"/>
    <tile gid="2"/>
    <tile gid="2"/>
    <tile gid="292"/>
    <tile/>
    <tile/>
    <tile/>
    <tile/>
    <tile/>
    <tile/>
    <tile/>
    <tile/>
    <tile/>
    <tile/>
    <tile/>
    <tile/>
    <tile/>
    <tile/>
    <tile/>
    <tile/>
    <tile/>
    <tile/>
    <tile/>
    <tile/>
    <tile/>
    <tile/>
    <tile/>
    <tile/>
    <tile/>
    <tile/>
    <tile/>
    <tile/>
    <tile/>
    <tile/>
    <tile/>
    <tile/>
    <tile/>
    <tile/>
    <tile/>
    <tile/>
    <tile/>
    <tile/>
    <tile/>
    <tile/>
    <tile gid="34"/>
    <tile gid="165"/>
    <tile gid="34"/>
    <tile gid="260"/>
    <tile/>
    <tile/>
    <tile gid="259"/>
    <tile gid="34"/>
    <tile gid="165"/>
    <tile gid="324"/>
    <tile/>
    <tile/>
    <tile/>
    <tile/>
    <tile/>
    <tile/>
    <tile/>
    <tile/>
    <tile/>
    <tile/>
    <tile/>
    <tile/>
    <tile/>
    <tile/>
    <tile/>
    <tile/>
    <tile/>
    <tile/>
    <tile/>
    <tile/>
    <tile/>
    <tile/>
    <tile/>
    <tile/>
    <tile/>
    <tile/>
    <tile/>
    <tile/>
    <tile/>
    <tile/>
    <tile/>
    <tile/>
    <tile/>
    <tile/>
    <tile/>
    <tile/>
    <tile/>
    <tile/>
    <tile/>
    <tile/>
    <tile/>
    <tile/>
    <tile/>
    <tile/>
    <tile/>
    <tile/>
    <tile/>
    <tile/>
    <tile/>
    <tile/>
    <tile/>
    <tile/>
    <tile/>
    <tile/>
    <tile/>
    <tile/>
    <tile/>
    <tile/>
    <tile/>
    <tile/>
    <tile/>
    <tile/>
    <tile/>
    <tile/>
    <tile/>
    <tile/>
    <tile/>
    <tile/>
    <tile/>
    <tile/>
    <tile/>
    <tile/>
    <tile/>
    <tile/>
    <tile/>
    <tile/>
    <tile/>
    <tile/>
    <tile/>
    <tile/>
    <tile/>
    <tile/>
    <tile/>
    <tile/>
    <tile/>
    <tile/>
    <tile/>
    <tile/>
    <tile/>
    <tile/>
    <tile/>
    <tile/>
    <tile/>
    <tile/>
    <tile/>
    <tile/>
    <tile/>
    <tile/>
    <tile/>
    <tile/>
    <tile/>
    <tile/>
    <tile/>
    <tile/>
    <tile/>
    <tile/>
    <tile/>
    <tile/>
    <tile/>
    <tile/>
    <tile/>
    <tile/>
    <tile/>
    <tile/>
    <tile/>
    <tile/>
    <tile/>
    <tile/>
    <tile/>
    <tile/>
    <tile/>
    <tile/>
    <tile/>
    <tile/>
    <tile/>
    <tile/>
    <tile/>
    <tile/>
    <tile/>
    <tile/>
    <tile/>
    <tile/>
    <tile/>
    <tile/>
    <tile/>
    <tile/>
    <tile/>
    <tile/>
    <tile/>
    <tile/>
    <tile/>
    <tile/>
    <tile/>
    <tile/>
    <tile/>
    <tile/>
    <tile/>
    <tile/>
    <tile/>
    <tile/>
    <tile/>
    <tile/>
    <tile/>
    <tile/>
    <tile/>
    <tile/>
    <tile/>
    <tile/>
    <tile/>
    <tile/>
    <tile/>
    <tile/>
    <tile/>
    <tile/>
    <tile/>
    <tile/>
    <tile/>
    <tile/>
    <tile/>
    <tile/>
    <tile/>
    <tile/>
    <tile/>
    <tile/>
    <tile/>
    <tile/>
    <tile/>
    <tile/>
    <tile/>
    <tile/>
    <tile/>
    <tile/>
    <tile/>
    <tile/>
    <tile/>
    <tile/>
    <tile/>
    <tile/>
    <tile/>
    <tile/>
    <tile/>
    <tile/>
    <tile/>
    <tile/>
    <tile/>
    <tile/>
    <tile/>
    <tile/>
    <tile/>
    <tile/>
    <tile/>
    <tile/>
    <tile/>
    <tile/>
    <tile/>
    <tile/>
    <tile/>
    <tile/>
    <tile/>
    <tile/>
    <tile/>
    <tile/>
    <tile/>
    <tile/>
    <tile/>
    <tile/>
    <tile/>
    <tile/>
    <tile/>
    <tile/>
    <tile/>
    <tile/>
    <tile/>
    <tile/>
    <tile/>
    <tile/>
    <tile/>
    <tile/>
    <tile/>
    <tile/>
    <tile/>
    <tile/>
    <tile/>
    <tile/>
    <tile/>
    <tile/>
    <tile/>
    <tile/>
    <tile/>
    <tile/>
    <tile/>
    <tile/>
    <tile/>
    <tile/>
    <tile/>
    <tile/>
    <tile/>
    <tile/>
    <tile/>
    <tile/>
    <tile/>
    <tile/>
    <tile/>
    <tile/>
    <tile/>
    <tile/>
    <tile/>
    <tile/>
    <tile/>
    <tile/>
    <tile/>
    <tile/>
    <tile/>
    <tile/>
    <tile/>
    <tile/>
    <tile/>
    <tile/>
    <tile/>
    <tile/>
    <tile/>
    <tile/>
    <tile/>
    <tile/>
    <tile/>
    <tile/>
    <tile/>
    <tile/>
    <tile/>
    <tile/>
    <tile/>
    <tile/>
    <tile/>
    <tile/>
    <tile/>
    <tile/>
    <tile/>
    <tile/>
    <tile/>
    <tile/>
    <tile/>
    <tile/>
    <tile/>
    <tile/>
    <tile/>
    <tile/>
    <tile/>
    <tile/>
    <tile/>
    <tile/>
    <tile/>
    <tile/>
    <tile/>
    <tile/>
    <tile/>
    <tile/>
    <tile/>
    <tile/>
    <tile/>
    <tile/>
    <tile/>
    <tile/>
    <tile/>
    <tile/>
    <tile/>
    <tile/>
    <tile/>
    <tile/>
    <tile/>
    <tile/>
    <tile/>
    <tile/>
    <tile/>
    <tile/>
    <tile/>
    <tile/>
    <tile/>
    <tile/>
    <tile/>
    <tile/>
    <tile/>
    <tile/>
    <tile/>
    <tile/>
    <tile/>
    <tile/>
    <tile/>
    <tile/>
    <tile/>
    <tile/>
    <tile/>
    <tile/>
    <tile/>
    <tile/>
    <tile/>
    <tile/>
    <tile/>
    <tile/>
    <tile/>
    <tile/>
    <tile/>
    <tile/>
    <tile/>
    <tile/>
    <tile/>
    <tile/>
    <tile/>
    <tile/>
    <tile/>
    <tile/>
    <tile/>
    <tile/>
    <tile/>
    <tile/>
    <tile/>
    <tile/>
    <tile/>
    <tile/>
    <tile/>
    <tile/>
    <tile/>
    <tile/>
    <tile/>
    <tile/>
    <tile/>
    <tile/>
    <tile/>
    <tile/>
    <tile/>
    <tile/>
    <tile/>
    <tile/>
    <tile/>
    <tile/>
    <tile/>
    <tile/>
    <tile/>
    <tile/>
    <tile/>
    <tile/>
    <tile/>
    <tile/>
    <tile/>
    <tile/>
    <tile/>
    <tile/>
    <tile/>
    <tile/>
    <tile/>
    <tile/>
    <tile/>
    <tile/>
    <tile/>
    <tile/>
    <tile/>
    <tile/>
    <tile/>
    <tile/>
    <tile/>
    <tile/>
    <tile/>
    <tile/>
    <tile/>
    <tile/>
    <tile/>
    <tile/>
    <tile/>
    <tile/>
    <tile/>
    <tile/>
    <tile/>
    <tile/>
    <tile/>
    <tile/>
    <tile/>
    <tile/>
    <tile/>
    <tile/>
    <tile/>
    <tile/>
    <tile/>
    <tile/>
    <tile/>
    <tile/>
    <tile/>
    <tile/>
    <tile/>
    <tile/>
    <tile/>
    <tile/>
    <tile/>
    <tile/>
    <tile/>
    <tile/>
    <tile/>
    <tile/>
    <tile/>
    <tile/>
    <tile/>
    <tile/>
    <tile/>
    <tile/>
    <tile/>
    <tile/>
    <tile/>
    <tile/>
    <tile/>
    <tile/>
    <tile/>
    <tile/>
    <tile/>
    <tile/>
    <tile/>
    <tile/>
    <tile/>
    <tile/>
    <tile/>
    <tile/>
    <tile/>
    <tile/>
    <tile/>
    <tile/>
    <tile/>
    <tile/>
    <tile/>
    <tile/>
    <tile/>
    <tile/>
    <tile/>
    <tile/>
    <tile/>
    <tile/>
    <tile/>
    <tile/>
    <tile/>
    <tile/>
    <tile/>
    <tile/>
    <tile/>
    <tile/>
    <tile/>
    <tile/>
    <tile/>
    <tile/>
    <tile gid="166"/>
    <tile/>
    <tile/>
    <tile/>
    <tile/>
    <tile/>
    <tile/>
    <tile/>
    <tile/>
    <tile/>
    <tile/>
    <tile/>
    <tile/>
    <tile/>
    <tile/>
    <tile/>
    <tile/>
    <tile/>
    <tile/>
    <tile/>
    <tile/>
    <tile/>
    <tile/>
    <tile/>
    <tile/>
    <tile/>
    <tile/>
    <tile/>
    <tile/>
    <tile/>
    <tile/>
    <tile/>
    <tile/>
    <tile/>
    <tile/>
    <tile/>
    <tile/>
    <tile/>
    <tile/>
    <tile/>
    <tile/>
    <tile/>
    <tile/>
    <tile/>
    <tile/>
    <tile/>
    <tile/>
    <tile/>
    <tile/>
    <tile/>
    <tile/>
    <tile/>
    <tile/>
    <tile/>
    <tile/>
    <tile/>
    <tile/>
    <tile/>
    <tile/>
    <tile/>
    <tile/>
    <tile/>
    <tile/>
    <tile/>
    <tile/>
    <tile/>
    <tile/>
    <tile/>
    <tile/>
    <tile/>
    <tile/>
    <tile/>
    <tile/>
    <tile/>
    <tile/>
    <tile/>
    <tile/>
    <tile/>
    <tile/>
    <tile/>
    <tile/>
    <tile/>
    <tile/>
    <tile/>
    <tile/>
    <tile/>
    <tile/>
    <tile/>
    <tile/>
    <tile/>
    <tile/>
    <tile/>
    <tile/>
    <tile/>
    <tile/>
    <tile/>
    <tile/>
    <tile/>
    <tile/>
    <tile/>
    <tile/>
    <tile/>
    <tile/>
    <tile/>
    <tile/>
    <tile/>
    <tile/>
    <tile/>
    <tile/>
    <tile/>
    <tile/>
    <tile/>
    <tile/>
    <tile/>
    <tile/>
    <tile/>
    <tile gid="2"/>
    <tile gid="2"/>
    <tile gid="228"/>
    <tile/>
    <tile/>
    <tile gid="227"/>
    <tile gid="2"/>
    <tile gid="292"/>
    <tile/>
    <tile/>
    <tile/>
    <tile/>
    <tile/>
    <tile/>
    <tile/>
    <tile/>
    <tile/>
    <tile/>
    <tile/>
    <tile/>
    <tile/>
    <tile/>
    <tile/>
    <tile/>
    <tile/>
    <tile/>
    <tile/>
    <tile/>
    <tile/>
    <tile gid="166"/>
    <tile/>
    <tile/>
    <tile/>
    <tile/>
    <tile/>
    <tile/>
    <tile/>
    <tile/>
    <tile/>
    <tile/>
    <tile/>
    <tile/>
    <tile/>
    <tile/>
    <tile/>
    <tile/>
    <tile/>
    <tile/>
    <tile/>
    <tile/>
    <tile gid="34"/>
    <tile gid="165"/>
    <tile gid="260"/>
    <tile/>
    <tile/>
    <tile gid="259"/>
    <tile gid="165"/>
    <tile gid="324"/>
    <tile/>
    <tile/>
    <tile/>
    <tile/>
    <tile/>
    <tile/>
    <tile/>
    <tile/>
    <tile/>
    <tile/>
    <tile/>
    <tile/>
    <tile/>
    <tile/>
    <tile/>
    <tile/>
    <tile/>
    <tile/>
    <tile/>
    <tile/>
    <tile/>
    <tile/>
    <tile/>
    <tile/>
    <tile/>
    <tile/>
    <tile/>
    <tile/>
    <tile gid="166"/>
    <tile/>
    <tile/>
    <tile/>
    <tile/>
    <tile/>
    <tile/>
    <tile/>
    <tile/>
    <tile/>
    <tile/>
    <tile/>
    <tile/>
    <tile/>
    <tile/>
    <tile/>
    <tile/>
    <tile/>
    <tile/>
    <tile/>
    <tile/>
    <tile/>
    <tile/>
    <tile/>
    <tile/>
    <tile/>
    <tile/>
    <tile/>
    <tile/>
    <tile/>
    <tile/>
    <tile/>
    <tile/>
    <tile/>
    <tile/>
    <tile/>
    <tile/>
    <tile/>
    <tile/>
    <tile/>
    <tile/>
    <tile/>
    <tile/>
    <tile/>
    <tile/>
    <tile/>
    <tile/>
    <tile/>
    <tile/>
    <tile/>
    <tile/>
    <tile/>
    <tile/>
    <tile/>
    <tile gid="166"/>
    <tile/>
    <tile/>
    <tile/>
    <tile/>
    <tile/>
    <tile/>
    <tile/>
    <tile/>
    <tile/>
    <tile/>
    <tile/>
    <tile/>
    <tile/>
    <tile/>
    <tile/>
    <tile/>
    <tile/>
    <tile/>
    <tile/>
    <tile/>
    <tile/>
    <tile/>
    <tile/>
    <tile/>
    <tile/>
    <tile/>
    <tile/>
    <tile/>
    <tile/>
    <tile/>
    <tile/>
    <tile/>
    <tile/>
    <tile/>
    <tile/>
    <tile/>
    <tile/>
    <tile/>
    <tile/>
    <tile/>
    <tile/>
    <tile/>
    <tile/>
    <tile/>
    <tile/>
    <tile/>
    <tile/>
    <tile/>
    <tile/>
    <tile/>
    <tile/>
    <tile/>
    <tile/>
    <tile/>
    <tile/>
    <tile/>
    <tile/>
    <tile/>
    <tile/>
    <tile/>
    <tile/>
    <tile/>
    <tile/>
    <tile/>
    <tile/>
    <tile/>
    <tile/>
    <tile/>
    <tile/>
    <tile/>
    <tile/>
    <tile/>
    <tile/>
    <tile/>
    <tile/>
    <tile/>
    <tile/>
    <tile/>
    <tile/>
    <tile/>
    <tile/>
    <tile/>
    <tile/>
    <tile gid="227"/>
    <tile gid="2"/>
    <tile gid="228"/>
    <tile/>
    <tile/>
    <tile/>
    <tile/>
    <tile/>
    <tile/>
    <tile/>
    <tile/>
    <tile/>
    <tile/>
    <tile/>
    <tile/>
    <tile/>
    <tile/>
    <tile/>
    <tile/>
    <tile/>
    <tile/>
    <tile/>
    <tile/>
    <tile/>
    <tile/>
    <tile/>
    <tile/>
    <tile/>
    <tile/>
    <tile/>
    <tile/>
    <tile/>
    <tile/>
    <tile/>
    <tile/>
    <tile/>
    <tile/>
    <tile/>
    <tile/>
    <tile/>
    <tile/>
    <tile/>
    <tile/>
    <tile/>
    <tile/>
    <tile/>
    <tile/>
    <tile/>
    <tile/>
    <tile/>
    <tile gid="259"/>
    <tile gid="165"/>
    <tile gid="260"/>
    <tile/>
    <tile/>
    <tile/>
    <tile/>
    <tile/>
    <tile/>
    <tile gid="166"/>
    <tile/>
    <tile/>
    <tile/>
    <tile/>
    <tile/>
    <tile/>
    <tile/>
    <tile/>
    <tile/>
    <tile/>
    <tile/>
    <tile/>
    <tile/>
    <tile/>
    <tile/>
    <tile/>
    <tile/>
    <tile/>
    <tile/>
    <tile/>
    <tile/>
    <tile/>
    <tile/>
    <tile/>
    <tile/>
    <tile/>
    <tile/>
    <tile/>
    <tile/>
    <tile/>
    <tile/>
    <tile/>
    <tile/>
    <tile/>
    <tile/>
    <tile/>
    <tile/>
    <tile/>
    <tile/>
    <tile/>
    <tile/>
    <tile/>
    <tile/>
    <tile/>
    <tile/>
    <tile/>
    <tile/>
    <tile/>
    <tile/>
    <tile/>
    <tile/>
    <tile/>
    <tile/>
    <tile/>
    <tile/>
    <tile/>
    <tile/>
    <tile/>
    <tile/>
    <tile/>
    <tile/>
    <tile/>
    <tile/>
    <tile/>
    <tile/>
    <tile/>
    <tile/>
    <tile/>
    <tile/>
    <tile/>
    <tile/>
    <tile/>
    <tile/>
    <tile/>
    <tile/>
    <tile/>
    <tile/>
    <tile/>
    <tile/>
    <tile/>
    <tile/>
    <tile/>
    <tile/>
    <tile/>
    <tile/>
    <tile/>
    <tile/>
    <tile/>
    <tile/>
    <tile/>
    <tile/>
    <tile/>
    <tile/>
    <tile/>
    <tile/>
    <tile/>
    <tile/>
    <tile/>
    <tile/>
    <tile/>
    <tile/>
    <tile/>
    <tile/>
    <tile/>
    <tile/>
    <tile/>
    <tile/>
    <tile/>
    <tile/>
    <tile gid="227"/>
    <tile gid="2"/>
    <tile gid="2"/>
    <tile gid="2"/>
    <tile gid="2"/>
    <tile gid="2"/>
    <tile gid="2"/>
    <tile gid="2"/>
    <tile gid="228"/>
    <tile/>
    <tile/>
    <tile/>
    <tile/>
    <tile/>
    <tile/>
    <tile/>
    <tile/>
    <tile/>
    <tile/>
    <tile/>
    <tile/>
    <tile gid="2"/>
    <tile gid="2"/>
    <tile gid="2"/>
    <tile gid="2"/>
    <tile gid="228"/>
    <tile/>
    <tile/>
    <tile/>
    <tile/>
    <tile/>
    <tile/>
    <tile/>
    <tile/>
    <tile gid="3"/>
    <tile gid="3"/>
    <tile gid="3"/>
    <tile gid="3"/>
    <tile gid="3"/>
    <tile gid="3"/>
    <tile gid="3"/>
    <tile gid="3"/>
    <tile gid="3"/>
    <tile gid="3"/>
    <tile gid="3"/>
    <tile gid="3"/>
    <tile gid="3"/>
    <tile gid="3"/>
    <tile gid="3"/>
    <tile gid="3"/>
    <tile gid="259"/>
    <tile gid="165"/>
    <tile gid="34"/>
    <tile gid="34"/>
    <tile gid="34"/>
    <tile gid="34"/>
    <tile gid="165"/>
    <tile gid="34"/>
    <tile gid="260"/>
    <tile/>
    <tile/>
    <tile/>
    <tile/>
    <tile/>
    <tile/>
    <tile/>
    <tile/>
    <tile/>
    <tile/>
    <tile/>
    <tile/>
    <tile gid="34"/>
    <tile gid="165"/>
    <tile gid="34"/>
    <tile gid="165"/>
    <tile gid="260"/>
    <tile/>
    <tile/>
    <tile/>
    <tile/>
    <tile/>
    <tile/>
    <tile/>
    <tile/>
    <tile gid="35"/>
    <tile gid="35"/>
    <tile gid="35"/>
    <tile gid="35"/>
    <tile gid="165"/>
    <tile gid="35"/>
    <tile gid="35"/>
    <tile gid="165"/>
    <tile gid="35"/>
    <tile gid="35"/>
    <tile gid="35"/>
    <tile gid="165"/>
    <tile gid="35"/>
    <tile gid="35"/>
    <tile gid="35"/>
    <tile gid="35"/>
    <tile/>
    <tile/>
    <tile/>
    <tile/>
    <tile/>
    <tile/>
    <tile/>
    <tile/>
    <tile/>
    <tile/>
    <tile/>
    <tile/>
    <tile/>
    <tile/>
    <tile/>
    <tile/>
    <tile/>
    <tile/>
    <tile/>
    <tile/>
    <tile/>
    <tile/>
    <tile/>
    <tile/>
    <tile/>
    <tile/>
    <tile/>
    <tile/>
    <tile/>
    <tile/>
    <tile/>
    <tile/>
    <tile/>
    <tile/>
    <tile/>
    <tile/>
    <tile/>
    <tile/>
    <tile/>
    <tile/>
    <tile/>
    <tile/>
    <tile/>
    <tile/>
    <tile/>
    <tile/>
    <tile/>
    <tile/>
    <tile/>
    <tile/>
    <tile/>
    <tile/>
    <tile/>
    <tile/>
    <tile/>
    <tile/>
    <tile/>
    <tile/>
    <tile/>
    <tile/>
    <tile/>
    <tile/>
    <tile/>
    <tile/>
    <tile/>
    <tile/>
    <tile/>
    <tile/>
    <tile/>
    <tile/>
    <tile/>
    <tile/>
    <tile/>
    <tile/>
    <tile/>
    <tile/>
    <tile/>
    <tile/>
    <tile/>
    <tile/>
    <tile/>
    <tile/>
    <tile/>
    <tile/>
    <tile/>
    <tile/>
    <tile/>
    <tile/>
    <tile/>
    <tile/>
    <tile/>
    <tile/>
    <tile/>
    <tile/>
    <tile/>
    <tile/>
    <tile/>
    <tile/>
    <tile/>
    <tile/>
    <tile/>
    <tile/>
    <tile/>
    <tile/>
    <tile/>
    <tile/>
    <tile/>
    <tile/>
    <tile/>
    <tile/>
    <tile/>
    <tile/>
    <tile/>
    <tile/>
    <tile/>
    <tile/>
    <tile/>
    <tile/>
    <tile/>
    <tile/>
    <tile/>
    <tile/>
    <tile/>
    <tile/>
    <tile/>
    <tile/>
    <tile/>
    <tile/>
    <tile/>
    <tile/>
    <tile/>
    <tile/>
    <tile/>
    <tile/>
    <tile/>
    <tile/>
    <tile/>
    <tile/>
    <tile/>
    <tile/>
    <tile/>
    <tile/>
    <tile/>
    <tile/>
    <tile/>
    <tile/>
    <tile/>
    <tile/>
    <tile/>
    <tile/>
    <tile/>
    <tile/>
    <tile/>
    <tile/>
    <tile/>
    <tile/>
    <tile/>
    <tile/>
    <tile/>
    <tile/>
    <tile/>
    <tile/>
    <tile/>
    <tile/>
    <tile/>
    <tile/>
    <tile/>
    <tile/>
    <tile/>
    <tile/>
    <tile/>
    <tile/>
    <tile/>
    <tile/>
    <tile/>
    <tile gid="292"/>
    <tile/>
    <tile/>
    <tile/>
    <tile/>
    <tile/>
    <tile gid="291"/>
    <tile/>
    <tile/>
    <tile/>
    <tile/>
    <tile/>
    <tile/>
    <tile/>
    <tile/>
    <tile/>
    <tile/>
    <tile/>
    <tile/>
    <tile/>
    <tile/>
    <tile/>
    <tile/>
    <tile/>
    <tile/>
    <tile/>
    <tile/>
    <tile/>
    <tile/>
    <tile/>
    <tile/>
    <tile/>
    <tile/>
    <tile/>
    <tile/>
    <tile/>
    <tile/>
    <tile/>
    <tile/>
    <tile/>
    <tile/>
    <tile/>
    <tile/>
    <tile/>
    <tile/>
    <tile/>
    <tile/>
    <tile/>
    <tile/>
    <tile/>
    <tile gid="324"/>
    <tile/>
    <tile/>
    <tile/>
    <tile/>
    <tile/>
    <tile gid="323"/>
    <tile/>
    <tile/>
    <tile/>
    <tile/>
    <tile/>
    <tile/>
    <tile/>
    <tile/>
    <tile/>
    <tile/>
    <tile/>
    <tile/>
    <tile/>
    <tile/>
    <tile/>
    <tile/>
    <tile/>
    <tile/>
    <tile/>
    <tile/>
    <tile/>
    <tile/>
    <tile/>
    <tile/>
    <tile/>
    <tile/>
    <tile/>
    <tile/>
    <tile/>
    <tile/>
    <tile/>
    <tile/>
    <tile/>
    <tile/>
    <tile/>
    <tile/>
    <tile/>
    <tile/>
    <tile/>
    <tile/>
    <tile/>
    <tile/>
    <tile/>
    <tile/>
    <tile/>
    <tile/>
    <tile/>
    <tile/>
    <tile/>
    <tile/>
    <tile/>
    <tile/>
    <tile/>
    <tile/>
    <tile/>
    <tile/>
    <tile/>
    <tile/>
    <tile/>
    <tile/>
    <tile/>
    <tile/>
    <tile/>
    <tile/>
    <tile/>
    <tile/>
    <tile/>
    <tile/>
    <tile/>
    <tile/>
    <tile/>
    <tile/>
    <tile gid="227"/>
    <tile gid="2"/>
    <tile gid="2"/>
    <tile gid="2"/>
    <tile gid="228"/>
    <tile/>
    <tile/>
    <tile/>
    <tile/>
    <tile/>
    <tile/>
    <tile/>
    <tile/>
    <tile/>
    <tile/>
    <tile/>
    <tile/>
    <tile/>
    <tile/>
    <tile/>
    <tile gid="166"/>
    <tile/>
    <tile/>
    <tile/>
    <tile/>
    <tile/>
    <tile/>
    <tile/>
    <tile gid="166"/>
    <tile/>
    <tile/>
    <tile/>
    <tile/>
    <tile/>
    <tile/>
    <tile/>
    <tile/>
    <tile/>
    <tile/>
    <tile/>
    <tile/>
    <tile/>
    <tile/>
    <tile/>
    <tile/>
    <tile/>
    <tile/>
    <tile/>
    <tile/>
    <tile/>
    <tile gid="259"/>
    <tile gid="165"/>
    <tile gid="34"/>
    <tile gid="34"/>
    <tile gid="260"/>
    <tile/>
    <tile/>
    <tile/>
    <tile/>
    <tile/>
    <tile/>
    <tile/>
    <tile/>
    <tile/>
    <tile/>
    <tile/>
    <tile/>
    <tile/>
    <tile/>
    <tile/>
    <tile/>
    <tile/>
    <tile/>
    <tile/>
    <tile/>
    <tile/>
    <tile/>
    <tile/>
    <tile/>
    <tile/>
    <tile/>
    <tile/>
    <tile/>
    <tile/>
    <tile/>
    <tile/>
    <tile/>
    <tile/>
    <tile/>
    <tile/>
    <tile/>
    <tile/>
    <tile/>
    <tile gid="2"/>
    <tile gid="2"/>
    <tile gid="2"/>
    <tile gid="2"/>
    <tile gid="2"/>
    <tile gid="2"/>
    <tile gid="2"/>
    <tile/>
    <tile/>
    <tile/>
    <tile/>
    <tile/>
    <tile/>
    <tile/>
    <tile/>
    <tile/>
    <tile/>
    <tile/>
    <tile/>
    <tile/>
    <tile/>
    <tile/>
    <tile/>
    <tile/>
    <tile/>
    <tile/>
    <tile/>
    <tile/>
    <tile/>
    <tile/>
    <tile/>
    <tile/>
    <tile/>
    <tile/>
    <tile/>
    <tile/>
    <tile/>
    <tile/>
    <tile/>
    <tile/>
    <tile/>
    <tile/>
    <tile/>
    <tile/>
    <tile/>
    <tile/>
    <tile/>
    <tile/>
    <tile/>
    <tile/>
    <tile gid="165"/>
    <tile gid="34"/>
    <tile gid="34"/>
    <tile gid="165"/>
    <tile gid="34"/>
    <tile gid="34"/>
    <tile gid="165"/>
    <tile/>
    <tile/>
    <tile/>
    <tile/>
    <tile/>
    <tile/>
    <tile/>
    <tile/>
    <tile/>
    <tile/>
    <tile/>
    <tile/>
    <tile/>
    <tile/>
    <tile/>
    <tile/>
    <tile/>
    <tile/>
    <tile/>
    <tile/>
    <tile/>
    <tile/>
    <tile/>
    <tile/>
    <tile/>
    <tile/>
    <tile/>
    <tile/>
    <tile/>
    <tile/>
    <tile/>
    <tile/>
    <tile/>
    <tile/>
    <tile/>
    <tile/>
    <tile/>
    <tile/>
    <tile/>
    <tile/>
    <tile/>
    <tile/>
    <tile/>
    <tile/>
    <tile/>
    <tile/>
    <tile/>
    <tile/>
    <tile/>
    <tile/>
    <tile/>
    <tile/>
    <tile/>
    <tile/>
    <tile/>
    <tile/>
    <tile/>
    <tile/>
    <tile/>
    <tile/>
    <tile/>
    <tile/>
    <tile/>
    <tile/>
    <tile/>
    <tile/>
    <tile/>
    <tile/>
    <tile/>
    <tile/>
    <tile/>
    <tile/>
    <tile/>
    <tile gid="166"/>
    <tile/>
    <tile/>
    <tile/>
    <tile/>
    <tile/>
    <tile/>
    <tile/>
    <tile/>
    <tile/>
    <tile/>
    <tile/>
    <tile/>
    <tile/>
    <tile/>
    <tile/>
    <tile/>
    <tile/>
    <tile/>
    <tile/>
    <tile/>
    <tile/>
    <tile/>
    <tile/>
    <tile/>
    <tile/>
    <tile/>
    <tile/>
    <tile/>
    <tile/>
    <tile/>
    <tile/>
    <tile/>
    <tile/>
    <tile/>
    <tile/>
    <tile/>
    <tile/>
    <tile/>
    <tile/>
    <tile/>
    <tile/>
    <tile/>
    <tile/>
    <tile/>
    <tile/>
    <tile/>
    <tile/>
    <tile/>
    <tile/>
    <tile/>
    <tile/>
    <tile/>
    <tile/>
    <tile/>
    <tile/>
    <tile/>
    <tile/>
    <tile/>
    <tile/>
    <tile/>
    <tile/>
    <tile/>
    <tile/>
    <tile/>
    <tile/>
    <tile/>
    <tile/>
    <tile/>
    <tile/>
    <tile/>
    <tile/>
    <tile/>
    <tile/>
    <tile/>
    <tile/>
    <tile/>
    <tile/>
    <tile/>
    <tile/>
    <tile/>
    <tile/>
    <tile/>
    <tile/>
    <tile/>
    <tile/>
    <tile/>
    <tile/>
    <tile/>
    <tile/>
    <tile/>
    <tile/>
    <tile/>
    <tile/>
    <tile/>
    <tile/>
    <tile/>
    <tile/>
    <tile/>
    <tile/>
    <tile/>
    <tile/>
    <tile/>
    <tile/>
    <tile/>
    <tile/>
    <tile/>
    <tile/>
    <tile/>
    <tile/>
    <tile/>
    <tile/>
    <tile/>
    <tile/>
    <tile/>
    <tile/>
    <tile/>
    <tile/>
    <tile/>
    <tile/>
    <tile/>
    <tile/>
    <tile/>
    <tile/>
    <tile/>
    <tile/>
    <tile/>
    <tile/>
    <tile/>
    <tile/>
    <tile/>
    <tile/>
    <tile/>
    <tile/>
    <tile/>
    <tile/>
    <tile/>
    <tile/>
    <tile/>
    <tile/>
    <tile/>
    <tile/>
    <tile/>
    <tile/>
    <tile/>
    <tile/>
    <tile/>
    <tile/>
    <tile/>
    <tile/>
    <tile/>
    <tile/>
    <tile/>
    <tile/>
    <tile/>
    <tile/>
    <tile/>
    <tile/>
    <tile/>
    <tile/>
    <tile/>
    <tile/>
    <tile/>
    <tile/>
    <tile/>
    <tile/>
    <tile/>
    <tile/>
    <tile/>
    <tile/>
    <tile/>
    <tile/>
    <tile/>
    <tile/>
    <tile/>
    <tile/>
    <tile/>
    <tile gid="227"/>
    <tile gid="2"/>
    <tile gid="2"/>
    <tile gid="2"/>
    <tile gid="2"/>
    <tile gid="2"/>
    <tile gid="2"/>
    <tile gid="2"/>
    <tile gid="2"/>
    <tile/>
    <tile/>
    <tile/>
    <tile/>
    <tile/>
    <tile/>
    <tile/>
    <tile gid="2"/>
    <tile gid="2"/>
    <tile gid="2"/>
    <tile gid="2"/>
    <tile gid="2"/>
    <tile gid="2"/>
    <tile gid="2"/>
    <tile gid="2"/>
    <tile gid="2"/>
    <tile gid="2"/>
    <tile gid="2"/>
    <tile gid="2"/>
    <tile gid="2"/>
    <tile gid="2"/>
    <tile gid="2"/>
    <tile gid="2"/>
    <tile gid="292"/>
    <tile/>
    <tile/>
    <tile/>
    <tile/>
    <tile/>
    <tile/>
    <tile/>
    <tile/>
    <tile/>
    <tile/>
    <tile/>
    <tile/>
    <tile/>
    <tile/>
    <tile/>
    <tile gid="227"/>
    <tile gid="2"/>
    <tile gid="165"/>
    <tile gid="34"/>
    <tile gid="34"/>
    <tile gid="34"/>
    <tile gid="165"/>
    <tile gid="34"/>
    <tile gid="34"/>
    <tile gid="34"/>
    <tile gid="165"/>
    <tile/>
    <tile/>
    <tile/>
    <tile/>
    <tile/>
    <tile/>
    <tile/>
    <tile gid="34"/>
    <tile gid="165"/>
    <tile gid="34"/>
    <tile gid="34"/>
    <tile gid="34"/>
    <tile gid="34"/>
    <tile gid="34"/>
    <tile gid="34"/>
    <tile gid="34"/>
    <tile gid="165"/>
    <tile gid="34"/>
    <tile gid="34"/>
    <tile gid="34"/>
    <tile gid="34"/>
    <tile gid="165"/>
    <tile gid="34"/>
    <tile gid="324"/>
    <tile/>
    <tile/>
    <tile/>
    <tile/>
    <tile/>
    <tile/>
    <tile/>
    <tile/>
    <tile/>
    <tile/>
    <tile/>
    <tile/>
    <tile/>
    <tile/>
    <tile/>
    <tile gid="259"/>
    <tile gid="34"/>
    <tile/>
    <tile/>
    <tile/>
    <tile/>
    <tile/>
    <tile/>
    <tile/>
    <tile/>
    <tile/>
    <tile/>
    <tile/>
    <tile/>
    <tile/>
    <tile/>
    <tile/>
    <tile/>
    <tile/>
    <tile/>
    <tile/>
    <tile/>
    <tile/>
    <tile/>
    <tile/>
    <tile/>
    <tile/>
    <tile/>
    <tile/>
    <tile/>
    <tile/>
    <tile/>
    <tile/>
    <tile/>
    <tile/>
    <tile/>
    <tile/>
    <tile/>
    <tile/>
    <tile/>
    <tile/>
    <tile/>
    <tile/>
    <tile/>
    <tile/>
    <tile gid="2"/>
    <tile gid="2"/>
    <tile gid="2"/>
    <tile gid="2"/>
    <tile gid="2"/>
    <tile/>
    <tile/>
    <tile/>
    <tile/>
    <tile/>
    <tile/>
    <tile/>
    <tile/>
    <tile/>
    <tile/>
    <tile/>
    <tile/>
    <tile/>
    <tile/>
    <tile/>
    <tile/>
    <tile/>
    <tile/>
    <tile/>
    <tile/>
    <tile/>
    <tile/>
    <tile/>
    <tile/>
    <tile/>
    <tile/>
    <tile/>
    <tile/>
    <tile/>
    <tile/>
    <tile/>
    <tile/>
    <tile/>
    <tile/>
    <tile/>
    <tile/>
    <tile/>
    <tile/>
    <tile/>
    <tile/>
    <tile/>
    <tile/>
    <tile/>
    <tile/>
    <tile/>
    <tile gid="34"/>
    <tile gid="34"/>
    <tile gid="165"/>
    <tile gid="34"/>
    <tile gid="34"/>
    <tile/>
    <tile/>
    <tile/>
    <tile/>
    <tile/>
    <tile/>
    <tile/>
    <tile/>
    <tile/>
    <tile/>
    <tile/>
    <tile/>
    <tile/>
    <tile/>
    <tile/>
   </data>
  </layer>
 </group>
 <group id="70" name="collData" visible="0">
  <layer id="53" name="wall_coll" width="50" height="50">
   <data>
    <tile/>
    <tile/>
    <tile/>
    <tile/>
    <tile/>
    <tile/>
    <tile/>
    <tile/>
    <tile/>
    <tile/>
    <tile/>
    <tile/>
    <tile/>
    <tile/>
    <tile/>
    <tile/>
    <tile/>
    <tile/>
    <tile/>
    <tile/>
    <tile/>
    <tile/>
    <tile/>
    <tile/>
    <tile/>
    <tile/>
    <tile/>
    <tile/>
    <tile/>
    <tile/>
    <tile/>
    <tile/>
    <tile/>
    <tile/>
    <tile/>
    <tile/>
    <tile/>
    <tile/>
    <tile/>
    <tile/>
    <tile/>
    <tile/>
    <tile/>
    <tile/>
    <tile/>
    <tile/>
    <tile/>
    <tile/>
    <tile/>
    <tile/>
    <tile/>
    <tile/>
    <tile/>
    <tile/>
    <tile/>
    <tile/>
    <tile/>
    <tile/>
    <tile/>
    <tile/>
    <tile/>
    <tile/>
    <tile/>
    <tile/>
    <tile/>
    <tile/>
    <tile/>
    <tile/>
    <tile/>
    <tile gid="387"/>
    <tile gid="387"/>
    <tile gid="387"/>
    <tile gid="387"/>
    <tile gid="387"/>
    <tile gid="387"/>
    <tile gid="387"/>
    <tile gid="387"/>
    <tile gid="387"/>
    <tile gid="387"/>
    <tile gid="387"/>
    <tile gid="387"/>
    <tile/>
    <tile/>
    <tile/>
    <tile/>
    <tile/>
    <tile/>
    <tile/>
    <tile/>
    <tile/>
    <tile/>
    <tile/>
    <tile/>
    <tile/>
    <tile/>
    <tile/>
    <tile/>
    <tile/>
    <tile/>
    <tile/>
    <tile/>
    <tile/>
    <tile/>
    <tile/>
    <tile/>
    <tile/>
    <tile/>
    <tile/>
    <tile/>
    <tile/>
    <tile/>
    <tile/>
    <tile/>
    <tile/>
    <tile/>
    <tile/>
    <tile/>
    <tile/>
    <tile/>
    <tile gid="387"/>
    <tile/>
    <tile/>
    <tile/>
    <tile/>
    <tile/>
    <tile/>
    <tile/>
    <tile/>
    <tile/>
    <tile/>
    <tile gid="387"/>
    <tile/>
    <tile/>
    <tile/>
    <tile/>
    <tile/>
    <tile/>
    <tile/>
    <tile/>
    <tile/>
    <tile/>
    <tile/>
    <tile/>
    <tile/>
    <tile/>
    <tile/>
    <tile/>
    <tile/>
    <tile/>
    <tile/>
    <tile/>
    <tile/>
    <tile/>
    <tile/>
    <tile/>
    <tile/>
    <tile/>
    <tile/>
    <tile/>
    <tile/>
    <tile/>
    <tile/>
    <tile/>
    <tile/>
    <tile/>
    <tile/>
    <tile/>
    <tile/>
    <tile/>
    <tile gid="387"/>
    <tile/>
    <tile/>
    <tile/>
    <tile/>
    <tile/>
    <tile/>
    <tile/>
    <tile/>
    <tile/>
    <tile/>
    <tile gid="387"/>
    <tile/>
    <tile/>
    <tile/>
    <tile/>
    <tile/>
    <tile/>
    <tile/>
    <tile/>
    <tile/>
    <tile/>
    <tile/>
    <tile/>
    <tile/>
    <tile/>
    <tile/>
    <tile/>
    <tile/>
    <tile/>
    <tile/>
    <tile/>
    <tile/>
    <tile/>
    <tile/>
    <tile/>
    <tile/>
    <tile/>
    <tile/>
    <tile/>
    <tile/>
    <tile/>
    <tile/>
    <tile/>
    <tile/>
    <tile/>
    <tile/>
    <tile/>
    <tile/>
    <tile/>
    <tile gid="387"/>
    <tile/>
    <tile/>
    <tile/>
    <tile/>
    <tile/>
    <tile/>
    <tile/>
    <tile/>
    <tile/>
    <tile/>
    <tile gid="387"/>
    <tile/>
    <tile/>
    <tile/>
    <tile/>
    <tile/>
    <tile/>
    <tile/>
    <tile/>
    <tile/>
    <tile/>
    <tile/>
    <tile/>
    <tile/>
    <tile/>
    <tile/>
    <tile/>
    <tile/>
    <tile/>
    <tile/>
    <tile/>
    <tile/>
    <tile/>
    <tile/>
    <tile/>
    <tile/>
    <tile/>
    <tile/>
    <tile/>
    <tile/>
    <tile/>
    <tile/>
    <tile/>
    <tile/>
    <tile/>
    <tile/>
    <tile/>
    <tile/>
    <tile/>
    <tile gid="387"/>
    <tile/>
    <tile/>
    <tile/>
    <tile/>
    <tile/>
    <tile/>
    <tile/>
    <tile/>
    <tile/>
    <tile/>
    <tile gid="387"/>
    <tile/>
    <tile/>
    <tile/>
    <tile/>
    <tile/>
    <tile/>
    <tile/>
    <tile/>
    <tile/>
    <tile/>
    <tile/>
    <tile/>
    <tile/>
    <tile/>
    <tile/>
    <tile/>
    <tile/>
    <tile/>
    <tile/>
    <tile/>
    <tile/>
    <tile/>
    <tile/>
    <tile/>
    <tile/>
    <tile/>
    <tile/>
    <tile/>
    <tile/>
    <tile/>
    <tile/>
    <tile/>
    <tile/>
    <tile/>
    <tile/>
    <tile/>
    <tile/>
    <tile/>
    <tile gid="387"/>
    <tile/>
    <tile/>
    <tile/>
    <tile/>
    <tile/>
    <tile/>
    <tile/>
    <tile/>
    <tile/>
    <tile/>
    <tile gid="387"/>
    <tile/>
    <tile/>
    <tile/>
    <tile/>
    <tile/>
    <tile/>
    <tile/>
    <tile/>
    <tile/>
    <tile/>
    <tile/>
    <tile/>
    <tile/>
    <tile/>
    <tile/>
    <tile/>
    <tile/>
    <tile/>
    <tile/>
    <tile/>
    <tile/>
    <tile/>
    <tile/>
    <tile/>
    <tile/>
    <tile/>
    <tile/>
    <tile/>
    <tile/>
    <tile/>
    <tile/>
    <tile/>
    <tile/>
    <tile/>
    <tile/>
    <tile/>
    <tile/>
    <tile/>
    <tile gid="387"/>
    <tile/>
    <tile/>
    <tile/>
    <tile/>
    <tile/>
    <tile/>
    <tile/>
    <tile/>
    <tile/>
    <tile/>
    <tile gid="387"/>
    <tile/>
    <tile/>
    <tile/>
    <tile/>
    <tile/>
    <tile/>
    <tile/>
    <tile/>
    <tile/>
    <tile/>
    <tile/>
    <tile/>
    <tile/>
    <tile/>
    <tile/>
    <tile/>
    <tile/>
    <tile/>
    <tile/>
    <tile/>
    <tile/>
    <tile/>
    <tile/>
    <tile/>
    <tile/>
    <tile/>
    <tile/>
    <tile/>
    <tile/>
    <tile/>
    <tile/>
    <tile/>
    <tile/>
    <tile/>
    <tile/>
    <tile/>
    <tile/>
    <tile/>
    <tile gid="387"/>
    <tile/>
    <tile/>
    <tile/>
    <tile/>
    <tile/>
    <tile/>
    <tile/>
    <tile/>
    <tile/>
    <tile/>
    <tile gid="387"/>
    <tile/>
    <tile/>
    <tile/>
    <tile/>
    <tile/>
    <tile/>
    <tile/>
    <tile/>
    <tile/>
    <tile/>
    <tile/>
    <tile/>
    <tile/>
    <tile/>
    <tile/>
    <tile/>
    <tile/>
    <tile/>
    <tile/>
    <tile/>
    <tile/>
    <tile/>
    <tile/>
    <tile/>
    <tile/>
    <tile/>
    <tile/>
    <tile/>
    <tile/>
    <tile/>
    <tile/>
    <tile/>
    <tile/>
    <tile/>
    <tile/>
    <tile/>
    <tile/>
    <tile/>
    <tile gid="387"/>
    <tile gid="387"/>
    <tile gid="387"/>
    <tile gid="387"/>
    <tile gid="387"/>
    <tile/>
    <tile/>
    <tile gid="387"/>
    <tile gid="387"/>
    <tile gid="387"/>
    <tile gid="387"/>
    <tile gid="387"/>
    <tile/>
    <tile/>
    <tile/>
    <tile/>
    <tile/>
    <tile/>
    <tile/>
    <tile/>
    <tile/>
    <tile/>
    <tile/>
    <tile/>
    <tile/>
    <tile/>
    <tile/>
    <tile/>
    <tile/>
    <tile/>
    <tile/>
    <tile/>
    <tile/>
    <tile/>
    <tile/>
    <tile/>
    <tile/>
    <tile/>
    <tile/>
    <tile/>
    <tile/>
    <tile/>
    <tile/>
    <tile/>
    <tile/>
    <tile/>
    <tile/>
    <tile/>
    <tile/>
    <tile/>
    <tile/>
    <tile/>
    <tile/>
    <tile/>
    <tile gid="387"/>
    <tile/>
    <tile/>
    <tile gid="387"/>
    <tile/>
    <tile/>
    <tile/>
    <tile/>
    <tile/>
    <tile/>
    <tile/>
    <tile/>
    <tile/>
    <tile/>
    <tile/>
    <tile/>
    <tile/>
    <tile/>
    <tile/>
    <tile/>
    <tile/>
    <tile/>
    <tile/>
    <tile/>
    <tile/>
    <tile/>
    <tile/>
    <tile/>
    <tile/>
    <tile/>
    <tile/>
    <tile/>
    <tile/>
    <tile/>
    <tile/>
    <tile/>
    <tile/>
    <tile/>
    <tile/>
    <tile/>
    <tile/>
    <tile/>
    <tile/>
    <tile/>
    <tile/>
    <tile/>
    <tile/>
    <tile/>
    <tile/>
    <tile/>
    <tile gid="387"/>
    <tile/>
    <tile/>
    <tile gid="387"/>
    <tile/>
    <tile/>
    <tile/>
    <tile/>
    <tile/>
    <tile/>
    <tile/>
    <tile/>
    <tile/>
    <tile/>
    <tile/>
    <tile/>
    <tile/>
    <tile/>
    <tile/>
    <tile/>
    <tile/>
    <tile/>
    <tile/>
    <tile/>
    <tile/>
    <tile/>
    <tile/>
    <tile/>
    <tile/>
    <tile/>
    <tile/>
    <tile/>
    <tile/>
    <tile/>
    <tile/>
    <tile/>
    <tile/>
    <tile/>
    <tile/>
    <tile/>
    <tile/>
    <tile/>
    <tile/>
    <tile/>
    <tile/>
    <tile/>
    <tile/>
    <tile/>
    <tile/>
    <tile/>
    <tile gid="387"/>
    <tile/>
    <tile/>
    <tile gid="387"/>
    <tile/>
    <tile/>
    <tile/>
    <tile/>
    <tile/>
    <tile/>
    <tile/>
    <tile/>
    <tile/>
    <tile/>
    <tile/>
    <tile/>
    <tile/>
    <tile/>
    <tile/>
    <tile/>
    <tile/>
    <tile/>
    <tile/>
    <tile/>
    <tile/>
    <tile/>
    <tile/>
    <tile/>
    <tile/>
    <tile/>
    <tile/>
    <tile/>
    <tile/>
    <tile/>
    <tile/>
    <tile/>
    <tile/>
    <tile/>
    <tile/>
    <tile/>
    <tile/>
    <tile/>
    <tile/>
    <tile/>
    <tile/>
    <tile/>
    <tile/>
    <tile/>
    <tile/>
    <tile gid="387"/>
    <tile gid="387"/>
    <tile/>
    <tile/>
    <tile gid="387"/>
    <tile gid="387"/>
    <tile/>
    <tile/>
    <tile/>
    <tile/>
    <tile/>
    <tile/>
    <tile/>
    <tile/>
    <tile/>
    <tile/>
    <tile/>
    <tile/>
    <tile/>
    <tile/>
    <tile/>
    <tile/>
    <tile/>
    <tile/>
    <tile/>
    <tile/>
    <tile/>
    <tile/>
    <tile/>
    <tile/>
    <tile/>
    <tile/>
    <tile/>
    <tile/>
    <tile/>
    <tile/>
    <tile/>
    <tile/>
    <tile/>
    <tile/>
    <tile/>
    <tile/>
    <tile/>
    <tile/>
    <tile/>
    <tile/>
    <tile/>
    <tile/>
    <tile/>
    <tile gid="387"/>
    <tile gid="387"/>
    <tile/>
    <tile/>
    <tile/>
    <tile/>
    <tile gid="387"/>
    <tile gid="387"/>
    <tile/>
    <tile/>
    <tile/>
    <tile/>
    <tile/>
    <tile/>
    <tile/>
    <tile/>
    <tile/>
    <tile/>
    <tile/>
    <tile/>
    <tile/>
    <tile/>
    <tile/>
    <tile/>
    <tile/>
    <tile/>
    <tile/>
    <tile/>
    <tile/>
    <tile/>
    <tile/>
    <tile/>
    <tile/>
    <tile/>
    <tile/>
    <tile/>
    <tile/>
    <tile/>
    <tile/>
    <tile/>
    <tile/>
    <tile/>
    <tile/>
    <tile/>
    <tile/>
    <tile/>
    <tile/>
    <tile/>
    <tile/>
    <tile gid="387"/>
    <tile gid="387"/>
    <tile/>
    <tile/>
    <tile/>
    <tile/>
    <tile/>
    <tile/>
    <tile gid="387"/>
    <tile gid="387"/>
    <tile/>
    <tile/>
    <tile/>
    <tile/>
    <tile/>
    <tile/>
    <tile/>
    <tile/>
    <tile/>
    <tile/>
    <tile/>
    <tile/>
    <tile/>
    <tile/>
    <tile/>
    <tile/>
    <tile/>
    <tile/>
    <tile/>
    <tile/>
    <tile/>
    <tile/>
    <tile/>
    <tile/>
    <tile/>
    <tile/>
    <tile/>
    <tile/>
    <tile/>
    <tile/>
    <tile/>
    <tile/>
    <tile/>
    <tile/>
    <tile/>
    <tile/>
    <tile/>
    <tile/>
    <tile/>
    <tile gid="387"/>
    <tile gid="387"/>
    <tile/>
    <tile/>
    <tile/>
    <tile/>
    <tile/>
    <tile/>
    <tile/>
    <tile/>
    <tile gid="387"/>
    <tile gid="387"/>
    <tile/>
    <tile/>
    <tile/>
    <tile/>
    <tile/>
    <tile/>
    <tile/>
    <tile/>
    <tile/>
    <tile/>
    <tile/>
    <tile/>
    <tile/>
    <tile/>
    <tile/>
    <tile/>
    <tile/>
    <tile/>
    <tile/>
    <tile/>
    <tile/>
    <tile/>
    <tile/>
    <tile/>
    <tile/>
    <tile/>
    <tile/>
    <tile/>
    <tile/>
    <tile/>
    <tile/>
    <tile/>
    <tile/>
    <tile/>
    <tile/>
    <tile gid="387"/>
    <tile gid="387"/>
    <tile gid="387"/>
    <tile gid="387"/>
    <tile/>
    <tile/>
    <tile/>
    <tile/>
    <tile/>
    <tile/>
    <tile/>
    <tile/>
    <tile/>
    <tile/>
    <tile gid="387"/>
    <tile gid="387"/>
    <tile gid="387"/>
    <tile gid="387"/>
    <tile/>
    <tile/>
    <tile/>
    <tile/>
    <tile/>
    <tile gid="387"/>
    <tile gid="387"/>
    <tile gid="387"/>
    <tile gid="387"/>
    <tile gid="387"/>
    <tile gid="387"/>
    <tile gid="387"/>
    <tile gid="387"/>
    <tile gid="387"/>
    <tile gid="387"/>
    <tile/>
    <tile/>
    <tile/>
    <tile/>
    <tile/>
    <tile/>
    <tile/>
    <tile/>
    <tile/>
    <tile/>
    <tile/>
    <tile/>
    <tile/>
    <tile/>
    <tile/>
    <tile/>
    <tile/>
    <tile gid="387"/>
    <tile/>
    <tile/>
    <tile/>
    <tile/>
    <tile/>
    <tile/>
    <tile/>
    <tile/>
    <tile/>
    <tile/>
    <tile/>
    <tile/>
    <tile/>
    <tile/>
    <tile/>
    <tile/>
    <tile gid="387"/>
    <tile/>
    <tile/>
    <tile/>
    <tile/>
    <tile/>
    <tile gid="387"/>
    <tile/>
    <tile/>
    <tile/>
    <tile/>
    <tile/>
    <tile/>
    <tile/>
    <tile/>
    <tile gid="387"/>
    <tile/>
    <tile/>
    <tile/>
    <tile/>
    <tile/>
    <tile/>
    <tile/>
    <tile/>
    <tile/>
    <tile/>
    <tile/>
    <tile/>
    <tile/>
    <tile/>
    <tile/>
    <tile/>
    <tile/>
    <tile gid="387"/>
    <tile/>
    <tile/>
    <tile/>
    <tile/>
    <tile/>
    <tile/>
    <tile/>
    <tile/>
    <tile/>
    <tile/>
    <tile/>
    <tile/>
    <tile/>
    <tile/>
    <tile/>
    <tile/>
    <tile gid="387"/>
    <tile/>
    <tile/>
    <tile/>
    <tile/>
    <tile/>
    <tile gid="387"/>
    <tile/>
    <tile/>
    <tile/>
    <tile/>
    <tile/>
    <tile/>
    <tile/>
    <tile/>
    <tile gid="387"/>
    <tile/>
    <tile/>
    <tile/>
    <tile/>
    <tile/>
    <tile/>
    <tile/>
    <tile/>
    <tile/>
    <tile/>
    <tile/>
    <tile/>
    <tile/>
    <tile/>
    <tile/>
    <tile/>
    <tile/>
    <tile gid="387"/>
    <tile/>
    <tile/>
    <tile/>
    <tile/>
    <tile/>
    <tile/>
    <tile/>
    <tile/>
    <tile/>
    <tile/>
    <tile/>
    <tile/>
    <tile/>
    <tile/>
    <tile/>
    <tile/>
    <tile gid="387"/>
    <tile/>
    <tile/>
    <tile/>
    <tile/>
    <tile/>
    <tile gid="387"/>
    <tile/>
    <tile/>
    <tile/>
    <tile/>
    <tile/>
    <tile/>
    <tile/>
    <tile/>
    <tile gid="387"/>
    <tile/>
    <tile/>
    <tile/>
    <tile/>
    <tile/>
    <tile/>
    <tile/>
    <tile/>
    <tile/>
    <tile/>
    <tile/>
    <tile/>
    <tile/>
    <tile/>
    <tile/>
    <tile/>
    <tile/>
    <tile gid="387"/>
    <tile/>
    <tile/>
    <tile/>
    <tile/>
    <tile/>
    <tile/>
    <tile/>
    <tile/>
    <tile/>
    <tile/>
    <tile/>
    <tile/>
    <tile/>
    <tile/>
    <tile/>
    <tile/>
    <tile gid="387"/>
    <tile/>
    <tile/>
    <tile/>
    <tile/>
    <tile/>
    <tile gid="387"/>
    <tile/>
    <tile/>
    <tile/>
    <tile/>
    <tile/>
    <tile/>
    <tile/>
    <tile/>
    <tile gid="387"/>
    <tile/>
    <tile/>
    <tile/>
    <tile/>
    <tile/>
    <tile/>
    <tile/>
    <tile/>
    <tile/>
    <tile gid="387"/>
    <tile gid="387"/>
    <tile gid="387"/>
    <tile gid="387"/>
    <tile gid="387"/>
    <tile gid="387"/>
    <tile gid="387"/>
    <tile gid="387"/>
    <tile gid="387"/>
    <tile/>
    <tile/>
    <tile/>
    <tile/>
    <tile/>
    <tile/>
    <tile/>
    <tile/>
    <tile/>
    <tile/>
    <tile/>
    <tile/>
    <tile/>
    <tile/>
    <tile/>
    <tile/>
    <tile gid="387"/>
    <tile/>
    <tile/>
    <tile/>
    <tile/>
    <tile/>
    <tile gid="387"/>
    <tile gid="387"/>
    <tile gid="387"/>
    <tile gid="387"/>
    <tile/>
    <tile/>
    <tile gid="387"/>
    <tile gid="387"/>
    <tile gid="387"/>
    <tile gid="387"/>
    <tile/>
    <tile/>
    <tile/>
    <tile/>
    <tile/>
    <tile/>
    <tile/>
    <tile/>
    <tile/>
    <tile gid="387"/>
    <tile/>
    <tile/>
    <tile/>
    <tile/>
    <tile/>
    <tile/>
    <tile/>
    <tile/>
    <tile/>
    <tile/>
    <tile/>
    <tile/>
    <tile/>
    <tile/>
    <tile/>
    <tile/>
    <tile/>
    <tile/>
    <tile/>
    <tile/>
    <tile/>
    <tile/>
    <tile/>
    <tile/>
    <tile gid="387"/>
    <tile/>
    <tile/>
    <tile/>
    <tile/>
    <tile/>
    <tile/>
    <tile/>
    <tile/>
    <tile gid="387"/>
    <tile/>
    <tile/>
    <tile gid="387"/>
    <tile/>
    <tile/>
    <tile/>
    <tile/>
    <tile/>
    <tile/>
    <tile/>
    <tile/>
    <tile/>
    <tile/>
    <tile/>
    <tile/>
    <tile gid="387"/>
    <tile/>
    <tile/>
    <tile/>
    <tile/>
    <tile/>
    <tile/>
    <tile/>
    <tile/>
    <tile/>
    <tile/>
    <tile/>
    <tile/>
    <tile/>
    <tile/>
    <tile/>
    <tile/>
    <tile/>
    <tile/>
    <tile/>
    <tile/>
    <tile/>
    <tile/>
    <tile/>
    <tile/>
    <tile gid="387"/>
    <tile/>
    <tile/>
    <tile/>
    <tile/>
    <tile/>
    <tile/>
    <tile/>
    <tile/>
    <tile gid="387"/>
    <tile/>
    <tile/>
    <tile gid="387"/>
    <tile/>
    <tile/>
    <tile/>
    <tile/>
    <tile/>
    <tile/>
    <tile/>
    <tile gid="387"/>
    <tile gid="387"/>
    <tile gid="387"/>
    <tile gid="387"/>
    <tile gid="387"/>
    <tile gid="387"/>
    <tile/>
    <tile/>
    <tile/>
    <tile/>
    <tile/>
    <tile/>
    <tile/>
    <tile/>
    <tile/>
    <tile/>
    <tile/>
    <tile/>
    <tile/>
    <tile/>
    <tile/>
    <tile/>
    <tile/>
    <tile/>
    <tile/>
    <tile/>
    <tile/>
    <tile/>
    <tile/>
    <tile/>
    <tile gid="387"/>
    <tile/>
    <tile/>
    <tile/>
    <tile/>
    <tile/>
    <tile/>
    <tile/>
    <tile/>
    <tile gid="387"/>
    <tile/>
    <tile/>
    <tile gid="387"/>
    <tile/>
    <tile/>
    <tile/>
    <tile/>
    <tile/>
    <tile/>
    <tile/>
    <tile gid="387"/>
    <tile/>
    <tile/>
    <tile/>
    <tile/>
    <tile/>
    <tile/>
    <tile/>
    <tile/>
    <tile/>
    <tile/>
    <tile/>
    <tile/>
    <tile/>
    <tile/>
    <tile/>
    <tile/>
    <tile/>
    <tile/>
    <tile/>
    <tile/>
    <tile/>
    <tile/>
    <tile/>
    <tile/>
    <tile/>
    <tile/>
    <tile/>
    <tile/>
    <tile/>
    <tile gid="387"/>
    <tile gid="387"/>
    <tile gid="387"/>
    <tile gid="387"/>
    <tile gid="387"/>
    <tile gid="387"/>
    <tile gid="387"/>
    <tile/>
    <tile gid="387"/>
    <tile gid="387"/>
    <tile/>
    <tile/>
    <tile gid="387"/>
    <tile gid="387"/>
    <tile/>
    <tile/>
    <tile/>
    <tile/>
    <tile/>
    <tile/>
    <tile gid="387"/>
    <tile/>
    <tile/>
    <tile/>
    <tile/>
    <tile/>
    <tile/>
    <tile/>
    <tile/>
    <tile/>
    <tile/>
    <tile gid="387"/>
    <tile gid="387"/>
    <tile gid="387"/>
    <tile/>
    <tile/>
    <tile/>
    <tile/>
    <tile/>
    <tile/>
    <tile/>
    <tile/>
    <tile/>
    <tile/>
    <tile/>
    <tile/>
    <tile/>
    <tile/>
    <tile/>
    <tile/>
    <tile/>
    <tile/>
    <tile/>
    <tile/>
    <tile/>
    <tile/>
    <tile/>
    <tile/>
    <tile/>
    <tile/>
    <tile/>
    <tile/>
    <tile/>
    <tile gid="387"/>
    <tile/>
    <tile/>
    <tile/>
    <tile/>
    <tile/>
    <tile/>
    <tile gid="387"/>
    <tile/>
    <tile/>
    <tile/>
    <tile/>
    <tile/>
    <tile/>
    <tile/>
    <tile/>
    <tile/>
    <tile/>
    <tile gid="387"/>
    <tile/>
    <tile gid="387"/>
    <tile/>
    <tile/>
    <tile/>
    <tile/>
    <tile/>
    <tile/>
    <tile/>
    <tile/>
    <tile/>
    <tile/>
    <tile/>
    <tile/>
    <tile/>
    <tile/>
    <tile/>
    <tile/>
    <tile/>
    <tile/>
    <tile/>
    <tile/>
    <tile/>
    <tile/>
    <tile/>
    <tile/>
    <tile/>
    <tile/>
    <tile/>
    <tile/>
    <tile/>
    <tile gid="387"/>
    <tile/>
    <tile/>
    <tile/>
    <tile/>
    <tile/>
    <tile/>
    <tile gid="387"/>
    <tile/>
    <tile/>
    <tile/>
    <tile/>
    <tile/>
    <tile/>
    <tile/>
    <tile/>
    <tile/>
    <tile/>
    <tile gid="387"/>
    <tile/>
    <tile gid="387"/>
    <tile/>
    <tile/>
    <tile/>
    <tile/>
    <tile/>
    <tile/>
    <tile/>
    <tile/>
    <tile/>
    <tile/>
    <tile/>
    <tile/>
    <tile/>
    <tile/>
    <tile/>
    <tile/>
    <tile/>
    <tile/>
    <tile/>
    <tile/>
    <tile/>
    <tile/>
    <tile/>
    <tile/>
    <tile/>
    <tile/>
    <tile/>
    <tile/>
    <tile/>
    <tile gid="387"/>
    <tile/>
    <tile/>
    <tile/>
    <tile/>
    <tile/>
    <tile/>
    <tile gid="387"/>
    <tile/>
    <tile/>
    <tile/>
    <tile/>
    <tile/>
    <tile/>
    <tile/>
    <tile/>
    <tile/>
    <tile/>
    <tile gid="387"/>
    <tile/>
    <tile gid="387"/>
    <tile/>
    <tile/>
    <tile/>
    <tile/>
    <tile/>
    <tile/>
    <tile/>
    <tile/>
    <tile/>
    <tile/>
    <tile/>
    <tile/>
    <tile/>
    <tile/>
    <tile/>
    <tile/>
    <tile gid="387"/>
    <tile gid="387"/>
    <tile gid="387"/>
    <tile gid="387"/>
    <tile gid="387"/>
    <tile gid="387"/>
    <tile gid="387"/>
    <tile gid="387"/>
    <tile gid="387"/>
    <tile/>
    <tile/>
    <tile/>
    <tile/>
    <tile gid="387"/>
    <tile/>
    <tile/>
    <tile/>
    <tile/>
    <tile/>
    <tile/>
    <tile gid="387"/>
    <tile gid="387"/>
    <tile gid="387"/>
    <tile gid="387"/>
    <tile gid="387"/>
    <tile gid="387"/>
    <tile/>
    <tile/>
    <tile/>
    <tile/>
    <tile/>
    <tile gid="387"/>
    <tile/>
    <tile gid="387"/>
    <tile gid="387"/>
    <tile gid="387"/>
    <tile gid="387"/>
    <tile gid="387"/>
    <tile gid="387"/>
    <tile gid="387"/>
    <tile gid="387"/>
    <tile gid="387"/>
    <tile gid="387"/>
    <tile gid="387"/>
    <tile gid="387"/>
    <tile gid="387"/>
    <tile gid="387"/>
    <tile gid="387"/>
    <tile gid="387"/>
    <tile gid="387"/>
    <tile gid="387"/>
    <tile/>
    <tile/>
    <tile/>
    <tile/>
    <tile/>
    <tile/>
    <tile/>
    <tile gid="387"/>
    <tile/>
    <tile/>
    <tile/>
    <tile/>
    <tile gid="387"/>
    <tile/>
    <tile/>
    <tile/>
    <tile/>
    <tile/>
    <tile/>
    <tile/>
    <tile/>
    <tile/>
    <tile/>
    <tile/>
    <tile gid="387"/>
    <tile/>
    <tile/>
    <tile/>
    <tile/>
    <tile/>
    <tile gid="387"/>
    <tile/>
    <tile/>
    <tile/>
    <tile/>
    <tile/>
    <tile/>
    <tile/>
    <tile/>
    <tile/>
    <tile/>
    <tile/>
    <tile/>
    <tile/>
    <tile/>
    <tile/>
    <tile/>
    <tile/>
    <tile/>
    <tile/>
    <tile/>
    <tile/>
    <tile/>
    <tile/>
    <tile/>
    <tile/>
    <tile/>
    <tile gid="387"/>
    <tile/>
    <tile/>
    <tile/>
    <tile/>
    <tile gid="387"/>
    <tile/>
    <tile/>
    <tile/>
    <tile/>
    <tile/>
    <tile/>
    <tile/>
    <tile/>
    <tile/>
    <tile/>
    <tile/>
    <tile gid="387"/>
    <tile/>
    <tile/>
    <tile/>
    <tile/>
    <tile/>
    <tile gid="387"/>
    <tile/>
    <tile/>
    <tile/>
    <tile/>
    <tile/>
    <tile/>
    <tile/>
    <tile/>
    <tile/>
    <tile/>
    <tile/>
    <tile/>
    <tile/>
    <tile/>
    <tile/>
    <tile/>
    <tile/>
    <tile/>
    <tile/>
    <tile/>
    <tile/>
    <tile/>
    <tile/>
    <tile/>
    <tile/>
    <tile/>
    <tile gid="387"/>
    <tile/>
    <tile/>
    <tile/>
    <tile/>
    <tile gid="387"/>
    <tile/>
    <tile/>
    <tile/>
    <tile/>
    <tile/>
    <tile/>
    <tile/>
    <tile/>
    <tile/>
    <tile/>
    <tile/>
    <tile gid="387"/>
    <tile/>
    <tile/>
    <tile/>
    <tile/>
    <tile/>
    <tile gid="387"/>
    <tile/>
    <tile/>
    <tile/>
    <tile/>
    <tile/>
    <tile/>
    <tile/>
    <tile/>
    <tile/>
    <tile/>
    <tile/>
    <tile/>
    <tile/>
    <tile/>
    <tile gid="387"/>
    <tile gid="387"/>
    <tile gid="387"/>
    <tile gid="387"/>
    <tile gid="387"/>
    <tile gid="387"/>
    <tile gid="387"/>
    <tile gid="387"/>
    <tile gid="387"/>
    <tile gid="387"/>
    <tile/>
    <tile/>
    <tile gid="387"/>
    <tile/>
    <tile/>
    <tile/>
    <tile/>
    <tile gid="387"/>
    <tile/>
    <tile/>
    <tile/>
    <tile/>
    <tile/>
    <tile/>
    <tile/>
    <tile/>
    <tile/>
    <tile/>
    <tile/>
    <tile gid="387"/>
    <tile/>
    <tile/>
    <tile/>
    <tile/>
    <tile/>
    <tile gid="387"/>
    <tile/>
    <tile/>
    <tile/>
    <tile/>
    <tile/>
    <tile/>
    <tile/>
    <tile/>
    <tile/>
    <tile/>
    <tile/>
    <tile/>
    <tile/>
    <tile/>
    <tile gid="387"/>
    <tile/>
    <tile/>
    <tile/>
    <tile/>
    <tile/>
    <tile/>
    <tile/>
    <tile/>
    <tile gid="387"/>
    <tile gid="387"/>
    <tile gid="387"/>
    <tile gid="387"/>
    <tile/>
    <tile/>
    <tile/>
    <tile/>
    <tile gid="387"/>
    <tile/>
    <tile/>
    <tile/>
    <tile/>
    <tile/>
    <tile gid="387"/>
    <tile gid="387"/>
    <tile gid="387"/>
    <tile gid="387"/>
    <tile gid="387"/>
    <tile gid="387"/>
    <tile gid="387"/>
    <tile/>
    <tile/>
    <tile/>
    <tile/>
    <tile/>
    <tile gid="387"/>
    <tile gid="387"/>
    <tile gid="387"/>
    <tile gid="387"/>
    <tile gid="387"/>
    <tile gid="387"/>
    <tile gid="387"/>
    <tile/>
    <tile/>
    <tile/>
    <tile/>
    <tile/>
    <tile/>
    <tile/>
    <tile/>
    <tile gid="387"/>
    <tile/>
    <tile/>
    <tile/>
    <tile/>
    <tile/>
    <tile/>
    <tile/>
    <tile/>
    <tile/>
    <tile/>
    <tile/>
    <tile/>
    <tile/>
    <tile/>
    <tile/>
    <tile/>
    <tile gid="387"/>
    <tile/>
    <tile/>
    <tile/>
    <tile/>
    <tile/>
    <tile gid="387"/>
    <tile/>
    <tile/>
    <tile/>
    <tile/>
    <tile/>
    <tile/>
    <tile/>
    <tile/>
    <tile/>
    <tile/>
    <tile/>
    <tile/>
    <tile/>
    <tile/>
    <tile/>
    <tile/>
    <tile/>
    <tile gid="387"/>
    <tile/>
    <tile/>
    <tile/>
    <tile/>
    <tile/>
    <tile/>
    <tile/>
    <tile/>
    <tile gid="387"/>
    <tile/>
    <tile/>
    <tile/>
    <tile/>
    <tile/>
    <tile/>
    <tile/>
    <tile/>
    <tile/>
    <tile/>
    <tile/>
    <tile/>
    <tile/>
    <tile/>
    <tile/>
    <tile/>
    <tile gid="387"/>
    <tile/>
    <tile/>
    <tile/>
    <tile/>
    <tile/>
    <tile gid="387"/>
    <tile/>
    <tile/>
    <tile/>
    <tile/>
    <tile/>
    <tile/>
    <tile/>
    <tile/>
    <tile/>
    <tile/>
    <tile/>
    <tile/>
    <tile/>
    <tile/>
    <tile/>
    <tile/>
    <tile/>
    <tile gid="387"/>
    <tile/>
    <tile/>
    <tile/>
    <tile/>
    <tile/>
    <tile/>
    <tile/>
    <tile/>
    <tile gid="387"/>
    <tile/>
    <tile/>
    <tile/>
    <tile/>
    <tile/>
    <tile/>
    <tile/>
    <tile gid="387"/>
    <tile gid="387"/>
    <tile gid="387"/>
    <tile gid="387"/>
    <tile gid="387"/>
    <tile/>
    <tile/>
    <tile/>
    <tile/>
    <tile gid="387"/>
    <tile/>
    <tile/>
    <tile/>
    <tile/>
    <tile/>
    <tile gid="387"/>
    <tile/>
    <tile/>
    <tile/>
    <tile/>
    <tile/>
    <tile/>
    <tile/>
    <tile/>
    <tile/>
    <tile/>
    <tile/>
    <tile/>
    <tile/>
    <tile/>
    <tile/>
    <tile/>
    <tile/>
    <tile gid="387"/>
    <tile/>
    <tile/>
    <tile/>
    <tile/>
    <tile/>
    <tile/>
    <tile/>
    <tile/>
    <tile gid="387"/>
    <tile gid="387"/>
    <tile gid="387"/>
    <tile gid="387"/>
    <tile gid="387"/>
    <tile gid="387"/>
    <tile gid="387"/>
    <tile gid="387"/>
    <tile gid="387"/>
    <tile/>
    <tile/>
    <tile/>
    <tile gid="387"/>
    <tile/>
    <tile/>
    <tile/>
    <tile/>
    <tile gid="387"/>
    <tile/>
    <tile/>
    <tile/>
    <tile/>
    <tile/>
    <tile gid="387"/>
    <tile/>
    <tile/>
    <tile/>
    <tile/>
    <tile/>
    <tile/>
    <tile/>
    <tile/>
    <tile/>
    <tile/>
    <tile/>
    <tile/>
    <tile/>
    <tile/>
    <tile/>
    <tile/>
    <tile/>
    <tile gid="387"/>
    <tile/>
    <tile/>
    <tile/>
    <tile/>
    <tile/>
    <tile/>
    <tile/>
    <tile/>
    <tile/>
    <tile/>
    <tile/>
    <tile/>
    <tile/>
    <tile/>
    <tile/>
    <tile/>
    <tile/>
    <tile/>
    <tile/>
    <tile/>
    <tile gid="387"/>
    <tile/>
    <tile/>
    <tile/>
    <tile/>
    <tile gid="387"/>
    <tile/>
    <tile/>
    <tile/>
    <tile/>
    <tile/>
    <tile gid="387"/>
    <tile/>
    <tile/>
    <tile/>
    <tile/>
    <tile/>
    <tile/>
    <tile/>
    <tile/>
    <tile/>
    <tile/>
    <tile/>
    <tile/>
    <tile/>
    <tile/>
    <tile/>
    <tile/>
    <tile/>
    <tile gid="387"/>
    <tile/>
    <tile/>
    <tile/>
    <tile/>
    <tile/>
    <tile/>
    <tile/>
    <tile/>
    <tile/>
    <tile/>
    <tile/>
    <tile/>
    <tile/>
    <tile/>
    <tile/>
    <tile/>
    <tile/>
    <tile/>
    <tile/>
    <tile/>
    <tile gid="387"/>
    <tile/>
    <tile/>
    <tile/>
    <tile/>
    <tile gid="387"/>
    <tile/>
    <tile/>
    <tile/>
    <tile/>
    <tile/>
    <tile gid="387"/>
    <tile/>
    <tile/>
    <tile/>
    <tile/>
    <tile/>
    <tile/>
    <tile/>
    <tile/>
    <tile/>
    <tile/>
    <tile/>
    <tile/>
    <tile/>
    <tile/>
    <tile/>
    <tile/>
    <tile/>
    <tile gid="387"/>
    <tile/>
    <tile/>
    <tile/>
    <tile/>
    <tile/>
    <tile/>
    <tile/>
    <tile/>
    <tile gid="387"/>
    <tile gid="387"/>
    <tile gid="387"/>
    <tile gid="387"/>
    <tile gid="387"/>
    <tile gid="387"/>
    <tile gid="387"/>
    <tile gid="387"/>
    <tile gid="387"/>
    <tile/>
    <tile/>
    <tile/>
    <tile gid="387"/>
    <tile/>
    <tile/>
    <tile/>
    <tile/>
    <tile gid="387"/>
    <tile/>
    <tile/>
    <tile/>
    <tile/>
    <tile/>
    <tile gid="387"/>
    <tile/>
    <tile/>
    <tile/>
    <tile/>
    <tile/>
    <tile/>
    <tile/>
    <tile/>
    <tile/>
    <tile/>
    <tile/>
    <tile/>
    <tile/>
    <tile/>
    <tile/>
    <tile/>
    <tile/>
    <tile gid="387"/>
    <tile/>
    <tile/>
    <tile/>
    <tile/>
    <tile/>
    <tile/>
    <tile/>
    <tile/>
    <tile gid="387"/>
    <tile/>
    <tile/>
    <tile/>
    <tile/>
    <tile/>
    <tile/>
    <tile/>
    <tile gid="387"/>
    <tile gid="387"/>
    <tile gid="387"/>
    <tile gid="387"/>
    <tile gid="387"/>
    <tile/>
    <tile/>
    <tile/>
    <tile/>
    <tile gid="387"/>
    <tile/>
    <tile/>
    <tile/>
    <tile/>
    <tile/>
    <tile gid="387"/>
    <tile/>
    <tile/>
    <tile/>
    <tile/>
    <tile/>
    <tile/>
    <tile/>
    <tile/>
    <tile/>
    <tile/>
    <tile/>
    <tile/>
    <tile/>
    <tile/>
    <tile/>
    <tile/>
    <tile/>
    <tile gid="387"/>
    <tile/>
    <tile/>
    <tile/>
    <tile/>
    <tile/>
    <tile/>
    <tile/>
    <tile/>
    <tile gid="387"/>
    <tile/>
    <tile/>
    <tile/>
    <tile/>
    <tile/>
    <tile/>
    <tile/>
    <tile/>
    <tile/>
    <tile/>
    <tile/>
    <tile/>
    <tile/>
    <tile/>
    <tile/>
    <tile/>
    <tile gid="387"/>
    <tile/>
    <tile/>
    <tile/>
    <tile/>
    <tile/>
    <tile gid="387"/>
    <tile/>
    <tile/>
    <tile/>
    <tile/>
    <tile/>
    <tile/>
    <tile/>
    <tile/>
    <tile/>
    <tile/>
    <tile/>
    <tile/>
    <tile/>
    <tile/>
    <tile/>
    <tile/>
    <tile/>
    <tile gid="387"/>
    <tile/>
    <tile/>
    <tile/>
    <tile/>
    <tile/>
    <tile/>
    <tile/>
    <tile/>
    <tile gid="387"/>
    <tile/>
    <tile/>
    <tile/>
    <tile/>
    <tile/>
    <tile/>
    <tile/>
    <tile/>
    <tile/>
    <tile/>
    <tile/>
    <tile/>
    <tile/>
    <tile/>
    <tile/>
    <tile/>
    <tile gid="387"/>
    <tile/>
    <tile/>
    <tile/>
    <tile/>
    <tile/>
    <tile gid="387"/>
    <tile/>
    <tile/>
    <tile/>
    <tile/>
    <tile/>
    <tile/>
    <tile/>
    <tile/>
    <tile/>
    <tile/>
    <tile/>
    <tile/>
    <tile/>
    <tile/>
    <tile/>
    <tile/>
    <tile/>
    <tile gid="387"/>
    <tile/>
    <tile/>
    <tile/>
    <tile/>
    <tile/>
    <tile/>
    <tile/>
    <tile/>
    <tile gid="387"/>
    <tile/>
    <tile/>
    <tile/>
    <tile/>
    <tile/>
    <tile/>
    <tile/>
    <tile gid="387"/>
    <tile gid="387"/>
    <tile gid="387"/>
    <tile gid="387"/>
    <tile gid="387"/>
    <tile gid="387"/>
    <tile gid="387"/>
    <tile gid="387"/>
    <tile gid="387"/>
    <tile gid="387"/>
    <tile/>
    <tile/>
    <tile/>
    <tile/>
    <tile/>
    <tile gid="387"/>
    <tile gid="387"/>
    <tile gid="387"/>
    <tile gid="387"/>
    <tile gid="387"/>
    <tile gid="387"/>
    <tile gid="387"/>
    <tile gid="387"/>
    <tile gid="387"/>
    <tile gid="387"/>
    <tile gid="387"/>
    <tile gid="387"/>
    <tile gid="387"/>
    <tile gid="387"/>
    <tile gid="387"/>
    <tile gid="387"/>
    <tile gid="387"/>
    <tile gid="387"/>
    <tile gid="387"/>
    <tile/>
    <tile/>
    <tile/>
    <tile/>
    <tile/>
    <tile/>
    <tile/>
    <tile/>
    <tile gid="387"/>
    <tile/>
    <tile/>
    <tile/>
    <tile/>
    <tile/>
    <tile gid="387"/>
    <tile gid="387"/>
    <tile gid="387"/>
    <tile/>
    <tile/>
    <tile/>
    <tile/>
    <tile/>
    <tile/>
    <tile/>
    <tile/>
    <tile/>
    <tile/>
    <tile/>
    <tile/>
    <tile/>
    <tile/>
    <tile/>
    <tile/>
    <tile/>
    <tile/>
    <tile/>
    <tile/>
    <tile/>
    <tile/>
    <tile/>
    <tile/>
    <tile/>
    <tile/>
    <tile/>
    <tile/>
    <tile/>
    <tile/>
    <tile/>
    <tile/>
    <tile/>
    <tile/>
    <tile/>
    <tile/>
    <tile/>
    <tile/>
    <tile/>
    <tile/>
    <tile/>
    <tile gid="387"/>
    <tile/>
    <tile/>
    <tile/>
    <tile/>
    <tile/>
    <tile gid="387"/>
    <tile/>
    <tile/>
    <tile/>
    <tile/>
    <tile/>
    <tile/>
    <tile/>
    <tile/>
    <tile/>
    <tile/>
    <tile/>
    <tile/>
    <tile/>
    <tile/>
    <tile/>
    <tile/>
    <tile/>
    <tile/>
    <tile/>
    <tile/>
    <tile/>
    <tile/>
    <tile/>
    <tile/>
    <tile/>
    <tile/>
    <tile/>
    <tile/>
    <tile/>
    <tile/>
    <tile/>
    <tile/>
    <tile/>
    <tile/>
    <tile/>
    <tile/>
    <tile/>
    <tile/>
    <tile/>
    <tile/>
    <tile/>
    <tile/>
    <tile/>
    <tile gid="387"/>
    <tile gid="387"/>
    <tile gid="387"/>
    <tile gid="387"/>
    <tile gid="387"/>
    <tile gid="387"/>
    <tile gid="387"/>
    <tile/>
    <tile/>
    <tile/>
    <tile/>
    <tile/>
    <tile/>
    <tile/>
    <tile/>
    <tile/>
    <tile/>
    <tile/>
    <tile/>
    <tile/>
    <tile/>
   </data>
  </layer>
 </group>
 <group id="55" name="rooms">
  <group id="59" name="room">
   <objectgroup id="78" name="wall">
    <object id="254" x="400" y="191.333" width="16" height="16"/>
    <object id="255" x="383.333" y="191.667" width="16" height="16"/>
   </objectgroup>
   <objectgroup id="61" name="spawn">
    <object id="153" x="407" y="478" height="1"/>
    <object id="162" x="245.333" y="694.333"/>
    <object id="163" x="293.667" y="694.667"/>
    <object id="164" x="277" y="729.333"/>
    <object id="165" x="139.667" y="675.667"/>
    <object id="166" x="96" y="702.667"/>
    <object id="167" x="222.333" y="659"/>
    <object id="168" x="137.333" y="732"/>
    <object id="169" x="73" y="732"/>
    <object id="170" x="204.667" y="731.667"/>
    <object id="272" x="164" y="614.333"/>
    <object id="273" x="296.667" y="609.333"/>
    <object id="274" x="80" y="616"/>
    <object id="275" x="201.667" y="689.667"/>
    <object id="276" x="79.667" y="662.334"/>
    <object id="277" x="280.667" y="658.667"/>
   </objectgroup>
  </group>
  <group id="79" name="room">
   <objectgroup id="80" name="wall">
    <object id="257" x="143.333" y="576.333" width="16" height="16"/>
    <object id="258" x="159" y="575.667" width="16" height="16"/>
    <object id="259" x="208" y="576" width="16" height="16"/>
    <object id="260" x="175.333" y="575.667" width="16" height="16"/>
    <object id="261" x="192" y="576" width="16" height="16"/>
   </objectgroup>
   <objectgroup id="81" name="spawn">
    <object id="262" x="407" y="478" height="1"/>
    <object id="263" x="86" y="432.333"/>
    <object id="264" x="160" y="504"/>
    <object id="265" x="203" y="486.667"/>
    <object id="266" x="163" y="538.333"/>
    <object id="267" x="174" y="450.333"/>
    <object id="268" x="205.667" y="545.667"/>
    <object id="269" x="122.667" y="455.333"/>
    <object id="270" x="197.667" y="398"/>
    <object id="271" x="86.6667" y="480.333"/>
   </objectgroup>
  </group>
  <group id="56" name="room">
   <objectgroup id="74" name="wall">
    <object id="233" x="255.667" y="416.33" width="16" height="16"/>
    <object id="234" x="256" y="399.663" width="16" height="16"/>
    <object id="235" x="255.667" y="366.663" width="16" height="16"/>
    <object id="236" x="256.333" y="384.33" width="16" height="16"/>
   </objectgroup>
   <objectgroup id="58" name="spawn">
    <object id="146" x="336" y="321" height="1"/>
    <object id="175" x="297" y="303"/>
    <object id="176" x="288" y="478" height="1"/>
    <object id="177" x="290" y="476"/>
    <object id="178" x="335" y="468"/>
    <object id="179" x="342" y="424"/>
    <object id="180" x="362" y="398"/>
    <object id="181" x="404" y="373"/>
    <object id="182" x="466" y="470"/>
    <object id="183" x="435" y="323"/>
    <object id="184" x="462" y="299"/>
    <object id="185" x="403" y="296"/>
    <object id="186" x="345" y="299"/>
    <object id="187" x="288" y="431"/>
    <object id="188" x="292" y="400"/>
    <object id="189" x="456" y="366"/>
    <object id="190" x="294" y="335"/>
    <object id="191" x="347" y="335"/>
    <object id="192" x="344" y="368"/>
    <object id="193" x="504" y="316"/>
    <object id="194" x="434" y="443"/>
   </objectgroup>
  </group>
  <group id="62" name="room" locked="1">
   <objectgroup id="76" name="wall">
    <object id="239" x="527.667" y="430.997" width="16" height="16"/>
    <object id="240" x="528.667" y="480.33" width="16" height="16"/>
    <object id="241" x="528.333" y="464.663" width="16" height="16"/>
    <object id="242" x="528" y="447.997" width="16" height="16"/>
   </objectgroup>
   <objectgroup id="64" name="spawn">
    <object id="223" x="663" y="311"/>
    <object id="224" x="667" y="337"/>
    <object id="225" x="707" y="312"/>
    <object id="226" x="747" y="314"/>
    <object id="227" x="744" y="329"/>
    <object id="228" x="707" y="449"/>
    <object id="229" x="572" y="456"/>
    <object id="230" x="636" y="452"/>
    <object id="231" x="671" y="457"/>
   </objectgroup>
  </group>
  <group id="65" name="room" locked="1">
   <objectgroup id="66" name="wall">
    <object id="215" x="672" y="479.33" width="16" height="16"/>
    <object id="217" x="688" y="479.33" width="16" height="16"/>
    <object id="218" x="704" y="479.663" width="16" height="16"/>
    <object id="219" x="719.667" y="479.663" width="16" height="16"/>
   </objectgroup>
   <objectgroup id="67" name="spawn">
    <object id="195" x="566" y="580"/>
    <object id="196" x="506" y="580"/>
    <object id="197" x="539" y="616"/>
    <object id="198" x="689" y="577"/>
    <object id="199" x="721" y="608"/>
    <object id="200" x="713" y="714"/>
   </objectgroup>
  </group>
 </group>
 <objectgroup id="73" name="spawn">
  <object id="222" x="520" y="731"/>
 </objectgroup>
</map>
