<?xml version="1.0" encoding="UTF-8"?>
<map version="1.10" tiledversion="1.10.1" orientation="orthogonal" renderorder="right-down" width="50" height="50" tilewidth="16" tileheight="16" infinite="0" nextlayerid="97" nextobjectid="405">
 <tileset firstgid="1" source="DungeonTileset.tsx"/>
 <group id="52" name="render">
  <layer id="51" name="floor" width="50" height="50">
   <data>
    <tile gid="1"/>
    <tile gid="1"/>
    <tile gid="1"/>
    <tile gid="1"/>
    <tile gid="1"/>
    <tile gid="1"/>
    <tile gid="1"/>
    <tile gid="1"/>
    <tile gid="1"/>
    <tile gid="1"/>
    <tile gid="1"/>
    <tile gid="1"/>
    <tile gid="1"/>
    <tile gid="1"/>
    <tile gid="1"/>
    <tile gid="1"/>
    <tile gid="1"/>
    <tile gid="1"/>
    <tile gid="1"/>
    <tile gid="1"/>
    <tile gid="1"/>
    <tile gid="1"/>
    <tile gid="1"/>
    <tile gid="1"/>
    <tile gid="1"/>
    <tile gid="1"/>
    <tile gid="1"/>
    <tile gid="1"/>
    <tile gid="1"/>
    <tile gid="1"/>
    <tile gid="1"/>
    <tile gid="1"/>
    <tile gid="1"/>
    <tile gid="1"/>
    <tile gid="1"/>
    <tile gid="1"/>
    <tile gid="1"/>
    <tile gid="1"/>
    <tile gid="1"/>
    <tile gid="1"/>
    <tile gid="1"/>
    <tile gid="1"/>
    <tile gid="1"/>
    <tile gid="1"/>
    <tile gid="1"/>
    <tile gid="1"/>
    <tile gid="1"/>
    <tile gid="1"/>
    <tile gid="1"/>
    <tile gid="1"/>
    <tile gid="1"/>
    <tile gid="1"/>
    <tile gid="1"/>
    <tile gid="1"/>
    <tile gid="1"/>
    <tile gid="1"/>
    <tile gid="1"/>
    <tile gid="1"/>
    <tile gid="1"/>
    <tile gid="1"/>
    <tile gid="1"/>
    <tile gid="1"/>
    <tile gid="1"/>
    <tile gid="1"/>
    <tile gid="1"/>
    <tile gid="1"/>
    <tile gid="1"/>
    <tile gid="1"/>
    <tile gid="1"/>
    <tile gid="1"/>
    <tile gid="130"/>
    <tile gid="130"/>
    <tile gid="130"/>
    <tile gid="130"/>
    <tile gid="130"/>
    <tile gid="130"/>
    <tile gid="130"/>
    <tile gid="130"/>
    <tile gid="130"/>
    <tile gid="130"/>
    <tile gid="1"/>
    <tile gid="1"/>
    <tile gid="1"/>
    <tile gid="1"/>
    <tile gid="1"/>
    <tile gid="1"/>
    <tile gid="1"/>
    <tile gid="1"/>
    <tile gid="1"/>
    <tile gid="1"/>
    <tile gid="1"/>
    <tile gid="1"/>
    <tile gid="1"/>
    <tile gid="1"/>
    <tile gid="1"/>
    <tile gid="1"/>
    <tile gid="1"/>
    <tile gid="1"/>
    <tile gid="1"/>
    <tile gid="1"/>
    <tile gid="1"/>
    <tile gid="1"/>
    <tile gid="1"/>
    <tile gid="1"/>
    <tile gid="1"/>
    <tile gid="1"/>
    <tile gid="1"/>
    <tile gid="1"/>
    <tile gid="1"/>
    <tile gid="1"/>
    <tile gid="1"/>
    <tile gid="1"/>
    <tile gid="1"/>
    <tile gid="1"/>
    <tile gid="1"/>
    <tile gid="1"/>
    <tile gid="1"/>
    <tile gid="1"/>
    <tile gid="1"/>
    <tile gid="1"/>
    <tile gid="130"/>
    <tile gid="130"/>
    <tile gid="130"/>
    <tile gid="131"/>
    <tile gid="131"/>
    <tile gid="130"/>
    <tile gid="130"/>
    <tile gid="130"/>
    <tile gid="130"/>
    <tile gid="130"/>
    <tile gid="1"/>
    <tile gid="1"/>
    <tile gid="1"/>
    <tile gid="1"/>
    <tile gid="1"/>
    <tile gid="1"/>
    <tile gid="1"/>
    <tile gid="1"/>
    <tile gid="1"/>
    <tile gid="1"/>
    <tile gid="1"/>
    <tile gid="1"/>
    <tile gid="1"/>
    <tile gid="1"/>
    <tile gid="1"/>
    <tile gid="1"/>
    <tile gid="1"/>
    <tile gid="1"/>
    <tile gid="1"/>
    <tile gid="1"/>
    <tile gid="1"/>
    <tile gid="1"/>
    <tile gid="1"/>
    <tile gid="1"/>
    <tile gid="1"/>
    <tile gid="1"/>
    <tile gid="1"/>
    <tile gid="1"/>
    <tile gid="1"/>
    <tile gid="1"/>
    <tile gid="1"/>
    <tile gid="1"/>
    <tile gid="1"/>
    <tile gid="1"/>
    <tile gid="1"/>
    <tile gid="1"/>
    <tile gid="1"/>
    <tile gid="1"/>
    <tile gid="1"/>
    <tile gid="1"/>
    <tile gid="130"/>
    <tile gid="130"/>
    <tile gid="130"/>
    <tile gid="130"/>
    <tile gid="195"/>
    <tile gid="130"/>
    <tile gid="130"/>
    <tile gid="130"/>
    <tile gid="195"/>
    <tile gid="130"/>
    <tile gid="1"/>
    <tile gid="1"/>
    <tile gid="1"/>
    <tile gid="1"/>
    <tile gid="1"/>
    <tile gid="1"/>
    <tile gid="1"/>
    <tile gid="1"/>
    <tile gid="1"/>
    <tile gid="1"/>
    <tile gid="1"/>
    <tile gid="1"/>
    <tile gid="1"/>
    <tile gid="1"/>
    <tile gid="1"/>
    <tile gid="1"/>
    <tile gid="1"/>
    <tile gid="1"/>
    <tile gid="1"/>
    <tile gid="1"/>
    <tile gid="1"/>
    <tile gid="1"/>
    <tile gid="1"/>
    <tile gid="1"/>
    <tile gid="1"/>
    <tile gid="1"/>
    <tile gid="1"/>
    <tile gid="1"/>
    <tile gid="1"/>
    <tile gid="1"/>
    <tile gid="1"/>
    <tile gid="1"/>
    <tile gid="1"/>
    <tile gid="1"/>
    <tile gid="1"/>
    <tile gid="1"/>
    <tile gid="1"/>
    <tile gid="1"/>
    <tile gid="1"/>
    <tile gid="1"/>
    <tile gid="131"/>
    <tile gid="130"/>
    <tile gid="195"/>
    <tile gid="130"/>
    <tile gid="131"/>
    <tile gid="130"/>
    <tile gid="130"/>
    <tile gid="130"/>
    <tile gid="130"/>
    <tile gid="130"/>
    <tile gid="1"/>
    <tile gid="1"/>
    <tile gid="1"/>
    <tile gid="1"/>
    <tile gid="1"/>
    <tile gid="1"/>
    <tile gid="1"/>
    <tile gid="1"/>
    <tile gid="1"/>
    <tile gid="1"/>
    <tile gid="1"/>
    <tile gid="1"/>
    <tile gid="1"/>
    <tile gid="1"/>
    <tile gid="1"/>
    <tile gid="1"/>
    <tile gid="1"/>
    <tile gid="1"/>
    <tile gid="1"/>
    <tile gid="1"/>
    <tile gid="1"/>
    <tile gid="1"/>
    <tile gid="1"/>
    <tile gid="1"/>
    <tile gid="1"/>
    <tile gid="1"/>
    <tile gid="1"/>
    <tile gid="1"/>
    <tile gid="1"/>
    <tile gid="1"/>
    <tile gid="1"/>
    <tile gid="1"/>
    <tile gid="1"/>
    <tile gid="1"/>
    <tile gid="1"/>
    <tile gid="1"/>
    <tile gid="1"/>
    <tile gid="1"/>
    <tile gid="1"/>
    <tile gid="1"/>
    <tile gid="131"/>
    <tile gid="130"/>
    <tile gid="130"/>
    <tile gid="130"/>
    <tile gid="130"/>
    <tile gid="130"/>
    <tile gid="195"/>
    <tile gid="130"/>
    <tile gid="131"/>
    <tile gid="130"/>
    <tile gid="1"/>
    <tile gid="1"/>
    <tile gid="1"/>
    <tile gid="1"/>
    <tile gid="1"/>
    <tile gid="1"/>
    <tile gid="1"/>
    <tile gid="1"/>
    <tile gid="1"/>
    <tile gid="1"/>
    <tile gid="1"/>
    <tile gid="1"/>
    <tile gid="1"/>
    <tile gid="1"/>
    <tile gid="1"/>
    <tile gid="1"/>
    <tile gid="1"/>
    <tile gid="1"/>
    <tile gid="1"/>
    <tile gid="1"/>
    <tile gid="1"/>
    <tile gid="1"/>
    <tile gid="1"/>
    <tile gid="1"/>
    <tile gid="1"/>
    <tile gid="1"/>
    <tile gid="1"/>
    <tile gid="1"/>
    <tile gid="1"/>
    <tile gid="1"/>
    <tile gid="1"/>
    <tile gid="1"/>
    <tile gid="1"/>
    <tile gid="1"/>
    <tile gid="1"/>
    <tile gid="1"/>
    <tile gid="1"/>
    <tile gid="1"/>
    <tile gid="1"/>
    <tile gid="1"/>
    <tile gid="131"/>
    <tile gid="130"/>
    <tile gid="130"/>
    <tile gid="130"/>
    <tile gid="130"/>
    <tile gid="131"/>
    <tile gid="131"/>
    <tile gid="195"/>
    <tile gid="131"/>
    <tile gid="130"/>
    <tile gid="1"/>
    <tile gid="1"/>
    <tile gid="1"/>
    <tile gid="1"/>
    <tile gid="1"/>
    <tile gid="1"/>
    <tile gid="1"/>
    <tile gid="1"/>
    <tile gid="1"/>
    <tile gid="1"/>
    <tile gid="1"/>
    <tile gid="1"/>
    <tile gid="1"/>
    <tile gid="1"/>
    <tile gid="1"/>
    <tile gid="1"/>
    <tile gid="1"/>
    <tile gid="1"/>
    <tile gid="1"/>
    <tile gid="1"/>
    <tile gid="1"/>
    <tile gid="1"/>
    <tile gid="1"/>
    <tile gid="1"/>
    <tile gid="1"/>
    <tile gid="1"/>
    <tile gid="1"/>
    <tile gid="1"/>
    <tile gid="1"/>
    <tile gid="1"/>
    <tile gid="1"/>
    <tile gid="1"/>
    <tile gid="1"/>
    <tile gid="1"/>
    <tile gid="1"/>
    <tile gid="1"/>
    <tile gid="1"/>
    <tile gid="1"/>
    <tile gid="1"/>
    <tile gid="1"/>
    <tile gid="131"/>
    <tile gid="131"/>
    <tile gid="130"/>
    <tile gid="131"/>
    <tile gid="131"/>
    <tile gid="130"/>
    <tile gid="130"/>
    <tile gid="130"/>
    <tile gid="130"/>
    <tile gid="130"/>
    <tile gid="1"/>
    <tile gid="1"/>
    <tile gid="1"/>
    <tile gid="1"/>
    <tile gid="1"/>
    <tile gid="1"/>
    <tile gid="1"/>
    <tile gid="1"/>
    <tile gid="1"/>
    <tile gid="1"/>
    <tile gid="1"/>
    <tile gid="1"/>
    <tile gid="1"/>
    <tile gid="1"/>
    <tile gid="1"/>
    <tile gid="1"/>
    <tile gid="1"/>
    <tile gid="1"/>
    <tile gid="1"/>
    <tile gid="1"/>
    <tile gid="1"/>
    <tile gid="1"/>
    <tile gid="1"/>
    <tile gid="1"/>
    <tile gid="1"/>
    <tile gid="1"/>
    <tile gid="1"/>
    <tile gid="1"/>
    <tile gid="1"/>
    <tile gid="1"/>
    <tile gid="1"/>
    <tile gid="1"/>
    <tile gid="1"/>
    <tile gid="1"/>
    <tile gid="1"/>
    <tile gid="1"/>
    <tile gid="1"/>
    <tile gid="1"/>
    <tile gid="1"/>
    <tile gid="1"/>
    <tile gid="195"/>
    <tile gid="131"/>
    <tile gid="130"/>
    <tile gid="130"/>
    <tile gid="195"/>
    <tile gid="130"/>
    <tile gid="130"/>
    <tile gid="195"/>
    <tile gid="130"/>
    <tile gid="130"/>
    <tile gid="1"/>
    <tile gid="1"/>
    <tile gid="1"/>
    <tile gid="1"/>
    <tile gid="1"/>
    <tile gid="1"/>
    <tile gid="1"/>
    <tile gid="1"/>
    <tile gid="1"/>
    <tile gid="1"/>
    <tile gid="1"/>
    <tile gid="1"/>
    <tile gid="1"/>
    <tile gid="1"/>
    <tile gid="1"/>
    <tile gid="1"/>
    <tile gid="1"/>
    <tile gid="1"/>
    <tile gid="1"/>
    <tile gid="1"/>
    <tile gid="1"/>
    <tile gid="1"/>
    <tile gid="1"/>
    <tile gid="1"/>
    <tile gid="1"/>
    <tile gid="1"/>
    <tile gid="1"/>
    <tile gid="1"/>
    <tile gid="1"/>
    <tile gid="1"/>
    <tile gid="1"/>
    <tile gid="1"/>
    <tile gid="1"/>
    <tile gid="1"/>
    <tile gid="1"/>
    <tile gid="1"/>
    <tile gid="1"/>
    <tile gid="1"/>
    <tile gid="1"/>
    <tile gid="1"/>
    <tile gid="130"/>
    <tile gid="130"/>
    <tile gid="130"/>
    <tile gid="130"/>
    <tile gid="130"/>
    <tile gid="130"/>
    <tile gid="130"/>
    <tile gid="130"/>
    <tile gid="130"/>
    <tile gid="130"/>
    <tile gid="1"/>
    <tile gid="1"/>
    <tile gid="1"/>
    <tile gid="1"/>
    <tile gid="1"/>
    <tile gid="1"/>
    <tile gid="1"/>
    <tile gid="1"/>
    <tile gid="1"/>
    <tile gid="1"/>
    <tile gid="1"/>
    <tile gid="1"/>
    <tile gid="1"/>
    <tile gid="1"/>
    <tile gid="1"/>
    <tile gid="1"/>
    <tile gid="1"/>
    <tile gid="1"/>
    <tile gid="1"/>
    <tile gid="1"/>
    <tile gid="1"/>
    <tile gid="1"/>
    <tile gid="1"/>
    <tile gid="1"/>
    <tile gid="1"/>
    <tile gid="1"/>
    <tile gid="1"/>
    <tile gid="1"/>
    <tile gid="1"/>
    <tile gid="1"/>
    <tile gid="1"/>
    <tile gid="1"/>
    <tile gid="1"/>
    <tile gid="1"/>
    <tile gid="1"/>
    <tile gid="1"/>
    <tile gid="1"/>
    <tile gid="1"/>
    <tile gid="1"/>
    <tile gid="1"/>
    <tile gid="1"/>
    <tile gid="1"/>
    <tile gid="1"/>
    <tile gid="1"/>
    <tile gid="132"/>
    <tile gid="132"/>
    <tile gid="1"/>
    <tile gid="1"/>
    <tile gid="1"/>
    <tile gid="1"/>
    <tile gid="1"/>
    <tile gid="1"/>
    <tile gid="1"/>
    <tile gid="1"/>
    <tile gid="1"/>
    <tile gid="1"/>
    <tile gid="1"/>
    <tile gid="1"/>
    <tile gid="1"/>
    <tile gid="1"/>
    <tile gid="1"/>
    <tile gid="1"/>
    <tile gid="1"/>
    <tile gid="1"/>
    <tile gid="1"/>
    <tile gid="1"/>
    <tile gid="1"/>
    <tile gid="1"/>
    <tile gid="1"/>
    <tile gid="1"/>
    <tile gid="1"/>
    <tile gid="1"/>
    <tile gid="1"/>
    <tile gid="1"/>
    <tile gid="1"/>
    <tile gid="1"/>
    <tile gid="1"/>
    <tile gid="1"/>
    <tile gid="1"/>
    <tile gid="1"/>
    <tile gid="1"/>
    <tile gid="1"/>
    <tile gid="1"/>
    <tile gid="1"/>
    <tile gid="1"/>
    <tile gid="1"/>
    <tile gid="1"/>
    <tile gid="1"/>
    <tile gid="1"/>
    <tile gid="1"/>
    <tile gid="1"/>
    <tile gid="1"/>
    <tile gid="1"/>
    <tile gid="1"/>
    <tile gid="132"/>
    <tile gid="132"/>
    <tile gid="1"/>
    <tile gid="1"/>
    <tile gid="1"/>
    <tile gid="1"/>
    <tile gid="1"/>
    <tile gid="1"/>
    <tile gid="1"/>
    <tile gid="1"/>
    <tile gid="1"/>
    <tile gid="1"/>
    <tile gid="1"/>
    <tile gid="1"/>
    <tile gid="1"/>
    <tile gid="1"/>
    <tile gid="1"/>
    <tile gid="1"/>
    <tile gid="1"/>
    <tile gid="1"/>
    <tile gid="1"/>
    <tile gid="1"/>
    <tile gid="1"/>
    <tile gid="1"/>
    <tile gid="1"/>
    <tile gid="1"/>
    <tile gid="1"/>
    <tile gid="1"/>
    <tile gid="1"/>
    <tile gid="1"/>
    <tile gid="1"/>
    <tile gid="1"/>
    <tile gid="1"/>
    <tile gid="1"/>
    <tile gid="1"/>
    <tile gid="1"/>
    <tile gid="1"/>
    <tile gid="1"/>
    <tile gid="1"/>
    <tile gid="1"/>
    <tile gid="1"/>
    <tile gid="1"/>
    <tile gid="1"/>
    <tile gid="1"/>
    <tile gid="1"/>
    <tile gid="1"/>
    <tile gid="1"/>
    <tile gid="1"/>
    <tile gid="1"/>
    <tile gid="1"/>
    <tile gid="132"/>
    <tile gid="132"/>
    <tile gid="1"/>
    <tile gid="1"/>
    <tile gid="1"/>
    <tile gid="1"/>
    <tile gid="1"/>
    <tile gid="1"/>
    <tile gid="1"/>
    <tile gid="1"/>
    <tile gid="1"/>
    <tile gid="1"/>
    <tile gid="1"/>
    <tile gid="1"/>
    <tile gid="1"/>
    <tile gid="1"/>
    <tile gid="1"/>
    <tile gid="1"/>
    <tile gid="1"/>
    <tile gid="1"/>
    <tile gid="1"/>
    <tile gid="1"/>
    <tile gid="1"/>
    <tile gid="1"/>
    <tile gid="1"/>
    <tile gid="1"/>
    <tile gid="1"/>
    <tile gid="1"/>
    <tile gid="1"/>
    <tile gid="1"/>
    <tile gid="1"/>
    <tile gid="1"/>
    <tile gid="1"/>
    <tile gid="1"/>
    <tile gid="1"/>
    <tile gid="1"/>
    <tile gid="1"/>
    <tile gid="1"/>
    <tile gid="1"/>
    <tile gid="1"/>
    <tile gid="1"/>
    <tile gid="1"/>
    <tile gid="1"/>
    <tile gid="1"/>
    <tile gid="1"/>
    <tile gid="1"/>
    <tile gid="1"/>
    <tile gid="1"/>
    <tile gid="1"/>
    <tile gid="1"/>
    <tile gid="132"/>
    <tile gid="132"/>
    <tile gid="1"/>
    <tile gid="1"/>
    <tile gid="1"/>
    <tile gid="1"/>
    <tile gid="1"/>
    <tile gid="1"/>
    <tile gid="1"/>
    <tile gid="1"/>
    <tile gid="1"/>
    <tile gid="1"/>
    <tile gid="1"/>
    <tile gid="1"/>
    <tile gid="1"/>
    <tile gid="1"/>
    <tile gid="1"/>
    <tile gid="1"/>
    <tile gid="1"/>
    <tile gid="1"/>
    <tile gid="1"/>
    <tile gid="1"/>
    <tile gid="1"/>
    <tile gid="1"/>
    <tile gid="1"/>
    <tile gid="1"/>
    <tile gid="1"/>
    <tile gid="1"/>
    <tile gid="1"/>
    <tile gid="1"/>
    <tile gid="1"/>
    <tile gid="1"/>
    <tile gid="1"/>
    <tile gid="1"/>
    <tile gid="1"/>
    <tile gid="1"/>
    <tile gid="1"/>
    <tile gid="1"/>
    <tile gid="1"/>
    <tile gid="1"/>
    <tile gid="1"/>
    <tile gid="1"/>
    <tile gid="1"/>
    <tile gid="1"/>
    <tile gid="1"/>
    <tile gid="1"/>
    <tile gid="1"/>
    <tile gid="1"/>
    <tile gid="1"/>
    <tile gid="130"/>
    <tile gid="130"/>
    <tile gid="130"/>
    <tile gid="130"/>
    <tile gid="1"/>
    <tile gid="1"/>
    <tile gid="1"/>
    <tile gid="1"/>
    <tile gid="1"/>
    <tile gid="1"/>
    <tile gid="1"/>
    <tile gid="1"/>
    <tile gid="1"/>
    <tile gid="1"/>
    <tile gid="1"/>
    <tile gid="1"/>
    <tile gid="1"/>
    <tile gid="1"/>
    <tile gid="1"/>
    <tile gid="1"/>
    <tile gid="1"/>
    <tile gid="1"/>
    <tile gid="1"/>
    <tile gid="1"/>
    <tile gid="1"/>
    <tile gid="1"/>
    <tile gid="1"/>
    <tile gid="1"/>
    <tile gid="1"/>
    <tile gid="1"/>
    <tile gid="1"/>
    <tile gid="1"/>
    <tile gid="1"/>
    <tile gid="1"/>
    <tile gid="1"/>
    <tile gid="1"/>
    <tile gid="1"/>
    <tile gid="1"/>
    <tile gid="1"/>
    <tile gid="1"/>
    <tile gid="1"/>
    <tile gid="1"/>
    <tile gid="1"/>
    <tile gid="1"/>
    <tile gid="1"/>
    <tile gid="1"/>
    <tile gid="1"/>
    <tile gid="1"/>
    <tile gid="1"/>
    <tile gid="130"/>
    <tile gid="130"/>
    <tile gid="130"/>
    <tile gid="130"/>
    <tile gid="130"/>
    <tile gid="130"/>
    <tile gid="1"/>
    <tile gid="1"/>
    <tile gid="1"/>
    <tile gid="1"/>
    <tile gid="1"/>
    <tile gid="1"/>
    <tile gid="1"/>
    <tile gid="1"/>
    <tile gid="1"/>
    <tile gid="1"/>
    <tile gid="1"/>
    <tile gid="1"/>
    <tile gid="1"/>
    <tile gid="1"/>
    <tile gid="1"/>
    <tile gid="1"/>
    <tile gid="1"/>
    <tile gid="1"/>
    <tile gid="1"/>
    <tile gid="1"/>
    <tile gid="1"/>
    <tile gid="1"/>
    <tile gid="1"/>
    <tile gid="1"/>
    <tile gid="1"/>
    <tile gid="1"/>
    <tile gid="1"/>
    <tile gid="1"/>
    <tile gid="1"/>
    <tile gid="1"/>
    <tile gid="1"/>
    <tile gid="1"/>
    <tile gid="1"/>
    <tile gid="1"/>
    <tile gid="1"/>
    <tile gid="1"/>
    <tile gid="1"/>
    <tile gid="1"/>
    <tile gid="1"/>
    <tile gid="1"/>
    <tile gid="1"/>
    <tile gid="1"/>
    <tile gid="1"/>
    <tile gid="130"/>
    <tile gid="130"/>
    <tile gid="130"/>
    <tile gid="130"/>
    <tile gid="130"/>
    <tile gid="130"/>
    <tile gid="130"/>
    <tile gid="130"/>
    <tile gid="1"/>
    <tile gid="1"/>
    <tile gid="1"/>
    <tile gid="1"/>
    <tile gid="1"/>
    <tile gid="1"/>
    <tile gid="1"/>
    <tile gid="1"/>
    <tile gid="1"/>
    <tile gid="1"/>
    <tile gid="1"/>
    <tile gid="1"/>
    <tile gid="1"/>
    <tile gid="1"/>
    <tile gid="1"/>
    <tile gid="1"/>
    <tile gid="1"/>
    <tile gid="1"/>
    <tile gid="1"/>
    <tile gid="1"/>
    <tile gid="1"/>
    <tile gid="1"/>
    <tile gid="1"/>
    <tile gid="1"/>
    <tile gid="1"/>
    <tile gid="1"/>
    <tile gid="1"/>
    <tile gid="1"/>
    <tile gid="1"/>
    <tile gid="1"/>
    <tile gid="1"/>
    <tile gid="1"/>
    <tile gid="1"/>
    <tile gid="1"/>
    <tile gid="1"/>
    <tile gid="1"/>
    <tile gid="1"/>
    <tile gid="1"/>
    <tile gid="1"/>
    <tile gid="1"/>
    <tile gid="1"/>
    <tile gid="130"/>
    <tile gid="130"/>
    <tile gid="130"/>
    <tile gid="130"/>
    <tile gid="130"/>
    <tile gid="195"/>
    <tile gid="130"/>
    <tile gid="130"/>
    <tile gid="130"/>
    <tile gid="130"/>
    <tile gid="1"/>
    <tile gid="1"/>
    <tile gid="1"/>
    <tile gid="1"/>
    <tile gid="1"/>
    <tile gid="1"/>
    <tile gid="1"/>
    <tile gid="1"/>
    <tile gid="1"/>
    <tile gid="1"/>
    <tile gid="1"/>
    <tile gid="1"/>
    <tile gid="1"/>
    <tile gid="1"/>
    <tile gid="1"/>
    <tile gid="1"/>
    <tile gid="1"/>
    <tile gid="1"/>
    <tile gid="1"/>
    <tile gid="1"/>
    <tile gid="1"/>
    <tile gid="1"/>
    <tile gid="1"/>
    <tile gid="1"/>
    <tile gid="1"/>
    <tile gid="1"/>
    <tile gid="1"/>
    <tile gid="1"/>
    <tile gid="1"/>
    <tile gid="1"/>
    <tile gid="1"/>
    <tile gid="1"/>
    <tile gid="1"/>
    <tile gid="1"/>
    <tile gid="1"/>
    <tile gid="1"/>
    <tile gid="1"/>
    <tile gid="130"/>
    <tile gid="130"/>
    <tile gid="130"/>
    <tile gid="130"/>
    <tile gid="130"/>
    <tile gid="130"/>
    <tile gid="130"/>
    <tile gid="130"/>
    <tile gid="130"/>
    <tile gid="130"/>
    <tile gid="130"/>
    <tile gid="130"/>
    <tile gid="130"/>
    <tile gid="130"/>
    <tile gid="131"/>
    <tile gid="132"/>
    <tile gid="1"/>
    <tile gid="1"/>
    <tile gid="1"/>
    <tile gid="1"/>
    <tile gid="1"/>
    <tile gid="1"/>
    <tile gid="1"/>
    <tile gid="130"/>
    <tile gid="130"/>
    <tile gid="130"/>
    <tile gid="130"/>
    <tile gid="195"/>
    <tile gid="130"/>
    <tile gid="130"/>
    <tile gid="130"/>
    <tile gid="1"/>
    <tile gid="1"/>
    <tile gid="1"/>
    <tile gid="1"/>
    <tile gid="1"/>
    <tile gid="1"/>
    <tile gid="1"/>
    <tile gid="1"/>
    <tile gid="1"/>
    <tile gid="1"/>
    <tile gid="1"/>
    <tile gid="1"/>
    <tile gid="1"/>
    <tile gid="1"/>
    <tile gid="1"/>
    <tile gid="1"/>
    <tile gid="1"/>
    <tile gid="1"/>
    <tile gid="1"/>
    <tile gid="130"/>
    <tile gid="131"/>
    <tile gid="132"/>
    <tile gid="130"/>
    <tile gid="130"/>
    <tile gid="195"/>
    <tile gid="195"/>
    <tile gid="130"/>
    <tile gid="130"/>
    <tile gid="131"/>
    <tile gid="132"/>
    <tile gid="130"/>
    <tile gid="131"/>
    <tile gid="132"/>
    <tile gid="131"/>
    <tile gid="132"/>
    <tile gid="1"/>
    <tile gid="1"/>
    <tile gid="1"/>
    <tile gid="1"/>
    <tile gid="1"/>
    <tile gid="1"/>
    <tile gid="1"/>
    <tile gid="130"/>
    <tile gid="130"/>
    <tile gid="130"/>
    <tile gid="130"/>
    <tile gid="130"/>
    <tile gid="130"/>
    <tile gid="130"/>
    <tile gid="130"/>
    <tile gid="1"/>
    <tile gid="1"/>
    <tile gid="1"/>
    <tile gid="1"/>
    <tile gid="1"/>
    <tile gid="1"/>
    <tile gid="1"/>
    <tile gid="1"/>
    <tile gid="1"/>
    <tile gid="1"/>
    <tile gid="1"/>
    <tile gid="1"/>
    <tile gid="1"/>
    <tile gid="1"/>
    <tile gid="1"/>
    <tile gid="1"/>
    <tile gid="1"/>
    <tile gid="1"/>
    <tile gid="1"/>
    <tile gid="130"/>
    <tile gid="131"/>
    <tile gid="132"/>
    <tile gid="130"/>
    <tile gid="130"/>
    <tile gid="130"/>
    <tile gid="130"/>
    <tile gid="130"/>
    <tile gid="130"/>
    <tile gid="130"/>
    <tile gid="130"/>
    <tile gid="130"/>
    <tile gid="130"/>
    <tile gid="132"/>
    <tile gid="130"/>
    <tile gid="132"/>
    <tile gid="1"/>
    <tile gid="1"/>
    <tile gid="1"/>
    <tile gid="1"/>
    <tile gid="1"/>
    <tile gid="1"/>
    <tile gid="1"/>
    <tile gid="130"/>
    <tile gid="130"/>
    <tile gid="195"/>
    <tile gid="130"/>
    <tile gid="130"/>
    <tile gid="130"/>
    <tile gid="195"/>
    <tile gid="130"/>
    <tile gid="1"/>
    <tile gid="1"/>
    <tile gid="1"/>
    <tile gid="1"/>
    <tile gid="1"/>
    <tile gid="1"/>
    <tile gid="1"/>
    <tile gid="1"/>
    <tile gid="1"/>
    <tile gid="1"/>
    <tile gid="1"/>
    <tile gid="1"/>
    <tile gid="1"/>
    <tile gid="1"/>
    <tile gid="1"/>
    <tile gid="1"/>
    <tile gid="1"/>
    <tile gid="1"/>
    <tile gid="1"/>
    <tile gid="130"/>
    <tile gid="131"/>
    <tile gid="132"/>
    <tile gid="130"/>
    <tile gid="130"/>
    <tile gid="130"/>
    <tile gid="130"/>
    <tile gid="130"/>
    <tile gid="130"/>
    <tile gid="195"/>
    <tile gid="130"/>
    <tile gid="130"/>
    <tile gid="130"/>
    <tile gid="130"/>
    <tile gid="130"/>
    <tile gid="132"/>
    <tile gid="1"/>
    <tile gid="1"/>
    <tile gid="1"/>
    <tile gid="1"/>
    <tile gid="1"/>
    <tile gid="1"/>
    <tile gid="1"/>
    <tile gid="130"/>
    <tile gid="130"/>
    <tile gid="130"/>
    <tile gid="130"/>
    <tile gid="130"/>
    <tile gid="130"/>
    <tile gid="130"/>
    <tile gid="130"/>
    <tile gid="1"/>
    <tile gid="1"/>
    <tile gid="1"/>
    <tile gid="1"/>
    <tile gid="1"/>
    <tile gid="1"/>
    <tile gid="1"/>
    <tile gid="1"/>
    <tile gid="1"/>
    <tile gid="1"/>
    <tile gid="1"/>
    <tile gid="1"/>
    <tile gid="1"/>
    <tile gid="1"/>
    <tile gid="1"/>
    <tile gid="1"/>
    <tile gid="1"/>
    <tile gid="1"/>
    <tile gid="1"/>
    <tile gid="130"/>
    <tile gid="130"/>
    <tile gid="132"/>
    <tile gid="130"/>
    <tile gid="195"/>
    <tile gid="130"/>
    <tile gid="130"/>
    <tile gid="130"/>
    <tile gid="130"/>
    <tile gid="130"/>
    <tile gid="132"/>
    <tile gid="130"/>
    <tile gid="131"/>
    <tile gid="130"/>
    <tile gid="131"/>
    <tile gid="132"/>
    <tile gid="1"/>
    <tile gid="1"/>
    <tile gid="1"/>
    <tile gid="1"/>
    <tile gid="1"/>
    <tile gid="1"/>
    <tile gid="1"/>
    <tile gid="1"/>
    <tile gid="1"/>
    <tile gid="1"/>
    <tile gid="130"/>
    <tile gid="130"/>
    <tile gid="1"/>
    <tile gid="1"/>
    <tile gid="1"/>
    <tile gid="1"/>
    <tile gid="1"/>
    <tile gid="1"/>
    <tile gid="1"/>
    <tile gid="1"/>
    <tile gid="1"/>
    <tile gid="1"/>
    <tile gid="1"/>
    <tile gid="1"/>
    <tile gid="1"/>
    <tile gid="1"/>
    <tile gid="130"/>
    <tile gid="130"/>
    <tile gid="130"/>
    <tile gid="130"/>
    <tile gid="130"/>
    <tile gid="131"/>
    <tile gid="130"/>
    <tile gid="130"/>
    <tile gid="130"/>
    <tile gid="130"/>
    <tile gid="132"/>
    <tile gid="130"/>
    <tile gid="130"/>
    <tile gid="164"/>
    <tile gid="130"/>
    <tile gid="130"/>
    <tile gid="130"/>
    <tile gid="130"/>
    <tile gid="130"/>
    <tile gid="130"/>
    <tile gid="130"/>
    <tile gid="130"/>
    <tile gid="195"/>
    <tile gid="132"/>
    <tile gid="1"/>
    <tile gid="1"/>
    <tile gid="1"/>
    <tile gid="1"/>
    <tile gid="1"/>
    <tile gid="1"/>
    <tile gid="1"/>
    <tile gid="1"/>
    <tile gid="1"/>
    <tile gid="1"/>
    <tile gid="130"/>
    <tile gid="130"/>
    <tile gid="1"/>
    <tile gid="1"/>
    <tile gid="1"/>
    <tile gid="1"/>
    <tile gid="1"/>
    <tile gid="1"/>
    <tile gid="1"/>
    <tile gid="1"/>
    <tile gid="1"/>
    <tile gid="1"/>
    <tile gid="1"/>
    <tile gid="1"/>
    <tile gid="1"/>
    <tile gid="1"/>
    <tile gid="130"/>
    <tile gid="130"/>
    <tile gid="130"/>
    <tile gid="130"/>
    <tile gid="162"/>
    <tile gid="130"/>
    <tile gid="130"/>
    <tile gid="130"/>
    <tile gid="130"/>
    <tile gid="131"/>
    <tile gid="132"/>
    <tile gid="195"/>
    <tile gid="132"/>
    <tile gid="130"/>
    <tile gid="130"/>
    <tile gid="130"/>
    <tile gid="130"/>
    <tile gid="195"/>
    <tile gid="130"/>
    <tile gid="195"/>
    <tile gid="130"/>
    <tile gid="132"/>
    <tile gid="130"/>
    <tile gid="132"/>
    <tile gid="1"/>
    <tile gid="1"/>
    <tile gid="1"/>
    <tile gid="1"/>
    <tile gid="1"/>
    <tile gid="1"/>
    <tile gid="1"/>
    <tile gid="1"/>
    <tile gid="1"/>
    <tile gid="1"/>
    <tile gid="130"/>
    <tile gid="130"/>
    <tile gid="1"/>
    <tile gid="1"/>
    <tile gid="1"/>
    <tile gid="1"/>
    <tile gid="1"/>
    <tile gid="1"/>
    <tile gid="1"/>
    <tile gid="1"/>
    <tile gid="1"/>
    <tile gid="1"/>
    <tile gid="1"/>
    <tile gid="1"/>
    <tile gid="1"/>
    <tile gid="1"/>
    <tile gid="130"/>
    <tile gid="130"/>
    <tile gid="131"/>
    <tile gid="130"/>
    <tile gid="130"/>
    <tile gid="130"/>
    <tile gid="130"/>
    <tile gid="130"/>
    <tile gid="162"/>
    <tile gid="130"/>
    <tile gid="132"/>
    <tile gid="131"/>
    <tile gid="130"/>
    <tile gid="130"/>
    <tile gid="130"/>
    <tile gid="130"/>
    <tile gid="130"/>
    <tile gid="130"/>
    <tile gid="130"/>
    <tile gid="130"/>
    <tile gid="130"/>
    <tile gid="132"/>
    <tile gid="130"/>
    <tile gid="132"/>
    <tile gid="1"/>
    <tile gid="1"/>
    <tile gid="1"/>
    <tile gid="1"/>
    <tile gid="1"/>
    <tile gid="1"/>
    <tile gid="1"/>
    <tile gid="1"/>
    <tile gid="1"/>
    <tile gid="1"/>
    <tile gid="130"/>
    <tile gid="130"/>
    <tile gid="1"/>
    <tile gid="1"/>
    <tile gid="1"/>
    <tile gid="1"/>
    <tile gid="1"/>
    <tile gid="1"/>
    <tile gid="1"/>
    <tile gid="1"/>
    <tile gid="1"/>
    <tile gid="130"/>
    <tile gid="130"/>
    <tile gid="130"/>
    <tile gid="130"/>
    <tile gid="130"/>
    <tile gid="130"/>
    <tile gid="162"/>
    <tile gid="130"/>
    <tile gid="130"/>
    <tile gid="194"/>
    <tile gid="195"/>
    <tile gid="130"/>
    <tile gid="130"/>
    <tile gid="130"/>
    <tile gid="130"/>
    <tile gid="130"/>
    <tile gid="130"/>
    <tile gid="130"/>
    <tile gid="130"/>
    <tile gid="130"/>
    <tile gid="130"/>
    <tile gid="130"/>
    <tile gid="130"/>
    <tile gid="130"/>
    <tile gid="131"/>
    <tile gid="130"/>
    <tile gid="132"/>
    <tile gid="130"/>
    <tile gid="132"/>
    <tile gid="1"/>
    <tile gid="1"/>
    <tile gid="1"/>
    <tile gid="1"/>
    <tile gid="1"/>
    <tile gid="1"/>
    <tile gid="1"/>
    <tile gid="1"/>
    <tile gid="1"/>
    <tile gid="1"/>
    <tile gid="131"/>
    <tile gid="130"/>
    <tile gid="1"/>
    <tile gid="1"/>
    <tile gid="1"/>
    <tile gid="1"/>
    <tile gid="1"/>
    <tile gid="1"/>
    <tile gid="1"/>
    <tile gid="1"/>
    <tile gid="1"/>
    <tile gid="130"/>
    <tile gid="130"/>
    <tile gid="131"/>
    <tile gid="130"/>
    <tile gid="130"/>
    <tile gid="130"/>
    <tile gid="130"/>
    <tile gid="130"/>
    <tile gid="130"/>
    <tile gid="130"/>
    <tile gid="1"/>
    <tile gid="1"/>
    <tile gid="1"/>
    <tile gid="130"/>
    <tile gid="131"/>
    <tile gid="132"/>
    <tile gid="131"/>
    <tile gid="130"/>
    <tile gid="130"/>
    <tile gid="130"/>
    <tile gid="195"/>
    <tile gid="130"/>
    <tile gid="130"/>
    <tile gid="164"/>
    <tile gid="130"/>
    <tile gid="130"/>
    <tile gid="130"/>
    <tile gid="130"/>
    <tile gid="132"/>
    <tile gid="130"/>
    <tile gid="130"/>
    <tile gid="130"/>
    <tile gid="131"/>
    <tile gid="130"/>
    <tile gid="130"/>
    <tile gid="130"/>
    <tile gid="130"/>
    <tile gid="130"/>
    <tile gid="130"/>
    <tile gid="130"/>
    <tile gid="130"/>
    <tile gid="130"/>
    <tile gid="1"/>
    <tile gid="1"/>
    <tile gid="1"/>
    <tile gid="1"/>
    <tile gid="1"/>
    <tile gid="1"/>
    <tile gid="1"/>
    <tile gid="1"/>
    <tile gid="130"/>
    <tile gid="162"/>
    <tile gid="130"/>
    <tile gid="131"/>
    <tile gid="130"/>
    <tile gid="130"/>
    <tile gid="130"/>
    <tile gid="194"/>
    <tile gid="195"/>
    <tile gid="130"/>
    <tile gid="1"/>
    <tile gid="1"/>
    <tile gid="1"/>
    <tile gid="130"/>
    <tile gid="131"/>
    <tile gid="132"/>
    <tile gid="130"/>
    <tile gid="130"/>
    <tile gid="132"/>
    <tile gid="164"/>
    <tile gid="130"/>
    <tile gid="130"/>
    <tile gid="130"/>
    <tile gid="130"/>
    <tile gid="130"/>
    <tile gid="131"/>
    <tile gid="130"/>
    <tile gid="130"/>
    <tile gid="132"/>
    <tile gid="130"/>
    <tile gid="130"/>
    <tile gid="130"/>
    <tile gid="130"/>
    <tile gid="195"/>
    <tile gid="164"/>
    <tile gid="130"/>
    <tile gid="130"/>
    <tile gid="130"/>
    <tile gid="195"/>
    <tile gid="130"/>
    <tile gid="130"/>
    <tile gid="130"/>
    <tile gid="1"/>
    <tile gid="1"/>
    <tile gid="1"/>
    <tile gid="1"/>
    <tile gid="1"/>
    <tile gid="1"/>
    <tile gid="1"/>
    <tile gid="1"/>
    <tile gid="130"/>
    <tile gid="130"/>
    <tile gid="162"/>
    <tile gid="130"/>
    <tile gid="130"/>
    <tile gid="130"/>
    <tile gid="131"/>
    <tile gid="130"/>
    <tile gid="130"/>
    <tile gid="130"/>
    <tile gid="1"/>
    <tile gid="1"/>
    <tile gid="1"/>
    <tile gid="130"/>
    <tile gid="131"/>
    <tile gid="132"/>
    <tile gid="130"/>
    <tile gid="130"/>
    <tile gid="130"/>
    <tile gid="164"/>
    <tile gid="130"/>
    <tile gid="130"/>
    <tile gid="130"/>
    <tile gid="130"/>
    <tile gid="130"/>
    <tile gid="131"/>
    <tile gid="132"/>
    <tile gid="131"/>
    <tile gid="132"/>
    <tile gid="164"/>
    <tile gid="130"/>
    <tile gid="130"/>
    <tile gid="130"/>
    <tile gid="130"/>
    <tile gid="130"/>
    <tile gid="130"/>
    <tile gid="130"/>
    <tile gid="130"/>
    <tile gid="130"/>
    <tile gid="130"/>
    <tile gid="130"/>
    <tile gid="130"/>
    <tile gid="1"/>
    <tile gid="1"/>
    <tile gid="1"/>
    <tile gid="1"/>
    <tile gid="1"/>
    <tile gid="1"/>
    <tile gid="1"/>
    <tile gid="1"/>
    <tile gid="130"/>
    <tile gid="130"/>
    <tile gid="130"/>
    <tile gid="130"/>
    <tile gid="130"/>
    <tile gid="162"/>
    <tile gid="130"/>
    <tile gid="130"/>
    <tile gid="130"/>
    <tile gid="130"/>
    <tile gid="1"/>
    <tile gid="1"/>
    <tile gid="1"/>
    <tile gid="130"/>
    <tile gid="130"/>
    <tile gid="130"/>
    <tile gid="130"/>
    <tile gid="130"/>
    <tile gid="130"/>
    <tile gid="131"/>
    <tile gid="132"/>
    <tile gid="130"/>
    <tile gid="131"/>
    <tile gid="130"/>
    <tile gid="130"/>
    <tile gid="130"/>
    <tile gid="132"/>
    <tile gid="131"/>
    <tile gid="132"/>
    <tile gid="1"/>
    <tile gid="1"/>
    <tile gid="1"/>
    <tile gid="1"/>
    <tile gid="1"/>
    <tile gid="1"/>
    <tile gid="1"/>
    <tile gid="1"/>
    <tile gid="1"/>
    <tile gid="130"/>
    <tile gid="195"/>
    <tile gid="130"/>
    <tile gid="130"/>
    <tile gid="1"/>
    <tile gid="1"/>
    <tile gid="1"/>
    <tile gid="1"/>
    <tile gid="1"/>
    <tile gid="1"/>
    <tile gid="1"/>
    <tile gid="1"/>
    <tile gid="1"/>
    <tile gid="1"/>
    <tile gid="1"/>
    <tile gid="1"/>
    <tile gid="1"/>
    <tile gid="130"/>
    <tile gid="130"/>
    <tile gid="130"/>
    <tile gid="130"/>
    <tile gid="130"/>
    <tile gid="1"/>
    <tile gid="1"/>
    <tile gid="1"/>
    <tile gid="130"/>
    <tile gid="131"/>
    <tile gid="132"/>
    <tile gid="132"/>
    <tile gid="132"/>
    <tile gid="132"/>
    <tile gid="132"/>
    <tile gid="132"/>
    <tile gid="132"/>
    <tile gid="132"/>
    <tile gid="132"/>
    <tile gid="132"/>
    <tile gid="130"/>
    <tile gid="130"/>
    <tile gid="130"/>
    <tile gid="132"/>
    <tile gid="1"/>
    <tile gid="1"/>
    <tile gid="1"/>
    <tile gid="1"/>
    <tile gid="1"/>
    <tile gid="1"/>
    <tile gid="1"/>
    <tile gid="1"/>
    <tile gid="1"/>
    <tile gid="130"/>
    <tile gid="130"/>
    <tile gid="130"/>
    <tile gid="130"/>
    <tile gid="1"/>
    <tile gid="1"/>
    <tile gid="1"/>
    <tile gid="1"/>
    <tile gid="1"/>
    <tile gid="1"/>
    <tile gid="1"/>
    <tile gid="1"/>
    <tile gid="1"/>
    <tile gid="1"/>
    <tile gid="1"/>
    <tile gid="1"/>
    <tile gid="1"/>
    <tile gid="130"/>
    <tile gid="130"/>
    <tile gid="194"/>
    <tile gid="195"/>
    <tile gid="130"/>
    <tile gid="1"/>
    <tile gid="1"/>
    <tile gid="1"/>
    <tile gid="1"/>
    <tile gid="1"/>
    <tile gid="1"/>
    <tile gid="1"/>
    <tile gid="1"/>
    <tile gid="1"/>
    <tile gid="1"/>
    <tile gid="1"/>
    <tile gid="1"/>
    <tile gid="1"/>
    <tile gid="1"/>
    <tile gid="1"/>
    <tile gid="1"/>
    <tile gid="1"/>
    <tile gid="1"/>
    <tile gid="1"/>
    <tile gid="1"/>
    <tile gid="1"/>
    <tile gid="1"/>
    <tile gid="1"/>
    <tile gid="1"/>
    <tile gid="1"/>
    <tile gid="1"/>
    <tile gid="1"/>
    <tile gid="1"/>
    <tile gid="130"/>
    <tile gid="130"/>
    <tile gid="195"/>
    <tile gid="130"/>
    <tile gid="1"/>
    <tile gid="1"/>
    <tile gid="1"/>
    <tile gid="1"/>
    <tile gid="1"/>
    <tile gid="1"/>
    <tile gid="1"/>
    <tile gid="1"/>
    <tile gid="1"/>
    <tile gid="1"/>
    <tile gid="1"/>
    <tile gid="1"/>
    <tile gid="1"/>
    <tile gid="130"/>
    <tile gid="130"/>
    <tile gid="130"/>
    <tile gid="130"/>
    <tile gid="130"/>
    <tile gid="1"/>
    <tile gid="1"/>
    <tile gid="1"/>
    <tile gid="1"/>
    <tile gid="1"/>
    <tile gid="1"/>
    <tile gid="1"/>
    <tile gid="1"/>
    <tile gid="1"/>
    <tile gid="1"/>
    <tile gid="1"/>
    <tile gid="1"/>
    <tile gid="1"/>
    <tile gid="1"/>
    <tile gid="1"/>
    <tile gid="1"/>
    <tile gid="1"/>
    <tile gid="1"/>
    <tile gid="1"/>
    <tile gid="1"/>
    <tile gid="1"/>
    <tile gid="1"/>
    <tile gid="1"/>
    <tile gid="1"/>
    <tile gid="1"/>
    <tile gid="1"/>
    <tile gid="1"/>
    <tile gid="1"/>
    <tile gid="130"/>
    <tile gid="130"/>
    <tile gid="130"/>
    <tile gid="130"/>
    <tile gid="1"/>
    <tile gid="1"/>
    <tile gid="1"/>
    <tile gid="1"/>
    <tile gid="1"/>
    <tile gid="1"/>
    <tile gid="1"/>
    <tile gid="1"/>
    <tile gid="1"/>
    <tile gid="1"/>
    <tile gid="1"/>
    <tile gid="1"/>
    <tile gid="1"/>
    <tile gid="130"/>
    <tile gid="130"/>
    <tile gid="131"/>
    <tile gid="130"/>
    <tile gid="130"/>
    <tile gid="1"/>
    <tile gid="1"/>
    <tile gid="1"/>
    <tile gid="1"/>
    <tile gid="1"/>
    <tile gid="1"/>
    <tile gid="1"/>
    <tile gid="1"/>
    <tile gid="1"/>
    <tile gid="1"/>
    <tile gid="1"/>
    <tile gid="1"/>
    <tile gid="1"/>
    <tile gid="1"/>
    <tile gid="1"/>
    <tile gid="1"/>
    <tile gid="130"/>
    <tile gid="130"/>
    <tile gid="130"/>
    <tile gid="130"/>
    <tile gid="130"/>
    <tile gid="130"/>
    <tile gid="130"/>
    <tile gid="1"/>
    <tile gid="1"/>
    <tile gid="1"/>
    <tile gid="1"/>
    <tile gid="1"/>
    <tile gid="130"/>
    <tile gid="130"/>
    <tile gid="130"/>
    <tile gid="130"/>
    <tile gid="1"/>
    <tile gid="1"/>
    <tile gid="1"/>
    <tile gid="1"/>
    <tile gid="1"/>
    <tile gid="1"/>
    <tile gid="1"/>
    <tile gid="1"/>
    <tile gid="1"/>
    <tile gid="1"/>
    <tile gid="1"/>
    <tile gid="1"/>
    <tile gid="1"/>
    <tile gid="130"/>
    <tile gid="162"/>
    <tile gid="130"/>
    <tile gid="130"/>
    <tile gid="130"/>
    <tile gid="1"/>
    <tile gid="1"/>
    <tile gid="1"/>
    <tile gid="1"/>
    <tile gid="1"/>
    <tile gid="1"/>
    <tile gid="1"/>
    <tile gid="1"/>
    <tile gid="1"/>
    <tile gid="1"/>
    <tile gid="1"/>
    <tile gid="1"/>
    <tile gid="1"/>
    <tile gid="1"/>
    <tile gid="1"/>
    <tile gid="1"/>
    <tile gid="130"/>
    <tile gid="130"/>
    <tile gid="130"/>
    <tile gid="130"/>
    <tile gid="130"/>
    <tile gid="130"/>
    <tile gid="130"/>
    <tile gid="162"/>
    <tile gid="1"/>
    <tile gid="1"/>
    <tile gid="1"/>
    <tile gid="1"/>
    <tile gid="130"/>
    <tile gid="130"/>
    <tile gid="131"/>
    <tile gid="130"/>
    <tile gid="1"/>
    <tile gid="1"/>
    <tile gid="1"/>
    <tile gid="1"/>
    <tile gid="1"/>
    <tile gid="1"/>
    <tile gid="1"/>
    <tile gid="1"/>
    <tile gid="1"/>
    <tile gid="1"/>
    <tile gid="1"/>
    <tile gid="1"/>
    <tile gid="1"/>
    <tile gid="130"/>
    <tile gid="130"/>
    <tile gid="130"/>
    <tile gid="194"/>
    <tile gid="195"/>
    <tile gid="1"/>
    <tile gid="1"/>
    <tile gid="1"/>
    <tile gid="1"/>
    <tile gid="1"/>
    <tile gid="1"/>
    <tile gid="1"/>
    <tile gid="1"/>
    <tile gid="1"/>
    <tile gid="1"/>
    <tile gid="1"/>
    <tile gid="1"/>
    <tile gid="1"/>
    <tile gid="1"/>
    <tile gid="1"/>
    <tile gid="1"/>
    <tile gid="130"/>
    <tile gid="164"/>
    <tile gid="130"/>
    <tile gid="131"/>
    <tile gid="130"/>
    <tile gid="130"/>
    <tile gid="164"/>
    <tile gid="130"/>
    <tile gid="130"/>
    <tile gid="130"/>
    <tile gid="130"/>
    <tile gid="130"/>
    <tile gid="130"/>
    <tile gid="130"/>
    <tile gid="130"/>
    <tile gid="130"/>
    <tile gid="1"/>
    <tile gid="1"/>
    <tile gid="1"/>
    <tile gid="1"/>
    <tile gid="1"/>
    <tile gid="1"/>
    <tile gid="1"/>
    <tile gid="130"/>
    <tile gid="130"/>
    <tile gid="130"/>
    <tile gid="130"/>
    <tile gid="130"/>
    <tile gid="194"/>
    <tile gid="195"/>
    <tile gid="130"/>
    <tile gid="130"/>
    <tile gid="130"/>
    <tile gid="130"/>
    <tile gid="130"/>
    <tile gid="130"/>
    <tile gid="130"/>
    <tile gid="130"/>
    <tile gid="130"/>
    <tile gid="130"/>
    <tile gid="1"/>
    <tile gid="1"/>
    <tile gid="1"/>
    <tile gid="1"/>
    <tile gid="1"/>
    <tile gid="1"/>
    <tile gid="1"/>
    <tile gid="1"/>
    <tile gid="1"/>
    <tile gid="1"/>
    <tile gid="130"/>
    <tile gid="130"/>
    <tile gid="131"/>
    <tile gid="130"/>
    <tile gid="164"/>
    <tile gid="130"/>
    <tile gid="130"/>
    <tile gid="130"/>
    <tile gid="130"/>
    <tile gid="130"/>
    <tile gid="131"/>
    <tile gid="130"/>
    <tile gid="130"/>
    <tile gid="130"/>
    <tile gid="130"/>
    <tile gid="130"/>
    <tile gid="1"/>
    <tile gid="1"/>
    <tile gid="1"/>
    <tile gid="1"/>
    <tile gid="1"/>
    <tile gid="1"/>
    <tile gid="1"/>
    <tile gid="130"/>
    <tile gid="131"/>
    <tile gid="131"/>
    <tile gid="130"/>
    <tile gid="130"/>
    <tile gid="130"/>
    <tile gid="130"/>
    <tile gid="130"/>
    <tile gid="194"/>
    <tile gid="195"/>
    <tile gid="130"/>
    <tile gid="194"/>
    <tile gid="195"/>
    <tile gid="130"/>
    <tile gid="130"/>
    <tile gid="131"/>
    <tile gid="130"/>
    <tile gid="1"/>
    <tile gid="1"/>
    <tile gid="1"/>
    <tile gid="1"/>
    <tile gid="1"/>
    <tile gid="1"/>
    <tile gid="1"/>
    <tile gid="1"/>
    <tile gid="1"/>
    <tile gid="1"/>
    <tile gid="130"/>
    <tile gid="130"/>
    <tile gid="130"/>
    <tile gid="130"/>
    <tile gid="130"/>
    <tile gid="130"/>
    <tile gid="130"/>
    <tile gid="1"/>
    <tile gid="1"/>
    <tile gid="1"/>
    <tile gid="1"/>
    <tile gid="1"/>
    <tile gid="130"/>
    <tile gid="130"/>
    <tile gid="130"/>
    <tile gid="130"/>
    <tile gid="1"/>
    <tile gid="1"/>
    <tile gid="1"/>
    <tile gid="1"/>
    <tile gid="1"/>
    <tile gid="1"/>
    <tile gid="1"/>
    <tile gid="162"/>
    <tile gid="162"/>
    <tile gid="131"/>
    <tile gid="194"/>
    <tile gid="195"/>
    <tile gid="130"/>
    <tile gid="131"/>
    <tile gid="130"/>
    <tile gid="130"/>
    <tile gid="130"/>
    <tile gid="130"/>
    <tile gid="130"/>
    <tile gid="130"/>
    <tile gid="130"/>
    <tile gid="162"/>
    <tile gid="130"/>
    <tile gid="130"/>
    <tile gid="1"/>
    <tile gid="1"/>
    <tile gid="1"/>
    <tile gid="1"/>
    <tile gid="1"/>
    <tile gid="1"/>
    <tile gid="1"/>
    <tile gid="1"/>
    <tile gid="1"/>
    <tile gid="1"/>
    <tile gid="130"/>
    <tile gid="130"/>
    <tile gid="130"/>
    <tile gid="130"/>
    <tile gid="130"/>
    <tile gid="130"/>
    <tile gid="130"/>
    <tile gid="1"/>
    <tile gid="1"/>
    <tile gid="1"/>
    <tile gid="1"/>
    <tile gid="1"/>
    <tile gid="130"/>
    <tile gid="130"/>
    <tile gid="130"/>
    <tile gid="130"/>
    <tile gid="1"/>
    <tile gid="1"/>
    <tile gid="1"/>
    <tile gid="1"/>
    <tile gid="1"/>
    <tile gid="1"/>
    <tile gid="1"/>
    <tile gid="130"/>
    <tile gid="162"/>
    <tile gid="130"/>
    <tile gid="130"/>
    <tile gid="130"/>
    <tile gid="162"/>
    <tile gid="130"/>
    <tile gid="130"/>
    <tile gid="130"/>
    <tile gid="131"/>
    <tile gid="194"/>
    <tile gid="195"/>
    <tile gid="130"/>
    <tile gid="130"/>
    <tile gid="130"/>
    <tile gid="194"/>
    <tile gid="195"/>
    <tile gid="1"/>
    <tile gid="1"/>
    <tile gid="1"/>
    <tile gid="1"/>
    <tile gid="1"/>
    <tile gid="1"/>
    <tile gid="1"/>
    <tile gid="1"/>
    <tile gid="1"/>
    <tile gid="1"/>
    <tile gid="1"/>
    <tile gid="1"/>
    <tile gid="1"/>
    <tile gid="1"/>
    <tile gid="1"/>
    <tile gid="1"/>
    <tile gid="1"/>
    <tile gid="1"/>
    <tile gid="1"/>
    <tile gid="1"/>
    <tile gid="1"/>
    <tile gid="1"/>
    <tile gid="130"/>
    <tile gid="131"/>
    <tile gid="130"/>
    <tile gid="130"/>
    <tile gid="1"/>
    <tile gid="1"/>
    <tile gid="1"/>
    <tile gid="1"/>
    <tile gid="1"/>
    <tile gid="1"/>
    <tile gid="1"/>
    <tile gid="130"/>
    <tile gid="130"/>
    <tile gid="130"/>
    <tile gid="130"/>
    <tile gid="130"/>
    <tile gid="130"/>
    <tile gid="130"/>
    <tile gid="130"/>
    <tile gid="162"/>
    <tile gid="130"/>
    <tile gid="130"/>
    <tile gid="130"/>
    <tile gid="130"/>
    <tile gid="130"/>
    <tile gid="130"/>
    <tile gid="130"/>
    <tile gid="130"/>
    <tile gid="1"/>
    <tile gid="1"/>
    <tile gid="1"/>
    <tile gid="1"/>
    <tile gid="1"/>
    <tile gid="1"/>
    <tile gid="1"/>
    <tile gid="1"/>
    <tile gid="1"/>
    <tile gid="1"/>
    <tile gid="1"/>
    <tile gid="1"/>
    <tile gid="1"/>
    <tile gid="1"/>
    <tile gid="1"/>
    <tile gid="1"/>
    <tile gid="1"/>
    <tile gid="1"/>
    <tile gid="1"/>
    <tile gid="1"/>
    <tile gid="1"/>
    <tile gid="1"/>
    <tile gid="130"/>
    <tile gid="131"/>
    <tile gid="130"/>
    <tile gid="130"/>
    <tile gid="1"/>
    <tile gid="1"/>
    <tile gid="1"/>
    <tile gid="1"/>
    <tile gid="1"/>
    <tile gid="1"/>
    <tile gid="1"/>
    <tile gid="130"/>
    <tile gid="194"/>
    <tile gid="195"/>
    <tile gid="130"/>
    <tile gid="130"/>
    <tile gid="194"/>
    <tile gid="195"/>
    <tile gid="130"/>
    <tile gid="130"/>
    <tile gid="130"/>
    <tile gid="130"/>
    <tile gid="130"/>
    <tile gid="194"/>
    <tile gid="195"/>
    <tile gid="130"/>
    <tile gid="130"/>
    <tile gid="130"/>
    <tile gid="1"/>
    <tile gid="1"/>
    <tile gid="1"/>
    <tile gid="1"/>
    <tile gid="1"/>
    <tile gid="1"/>
    <tile gid="1"/>
    <tile gid="1"/>
    <tile gid="1"/>
    <tile gid="1"/>
    <tile gid="1"/>
    <tile gid="1"/>
    <tile gid="1"/>
    <tile gid="1"/>
    <tile gid="1"/>
    <tile gid="1"/>
    <tile gid="1"/>
    <tile gid="1"/>
    <tile gid="1"/>
    <tile gid="1"/>
    <tile gid="1"/>
    <tile gid="1"/>
    <tile gid="130"/>
    <tile gid="130"/>
    <tile gid="130"/>
    <tile gid="130"/>
    <tile gid="1"/>
    <tile gid="1"/>
    <tile gid="1"/>
    <tile gid="1"/>
    <tile gid="1"/>
    <tile gid="1"/>
    <tile gid="1"/>
    <tile gid="130"/>
    <tile gid="130"/>
    <tile gid="130"/>
    <tile gid="194"/>
    <tile gid="195"/>
    <tile gid="130"/>
    <tile gid="130"/>
    <tile gid="130"/>
    <tile gid="130"/>
    <tile gid="130"/>
    <tile gid="195"/>
    <tile gid="130"/>
    <tile gid="130"/>
    <tile gid="130"/>
    <tile gid="130"/>
    <tile gid="130"/>
    <tile gid="130"/>
    <tile gid="1"/>
    <tile gid="1"/>
    <tile gid="1"/>
    <tile gid="1"/>
    <tile gid="1"/>
    <tile gid="1"/>
    <tile gid="1"/>
    <tile gid="1"/>
    <tile gid="1"/>
    <tile gid="1"/>
    <tile gid="130"/>
    <tile gid="130"/>
    <tile gid="130"/>
    <tile gid="130"/>
    <tile gid="130"/>
    <tile gid="130"/>
    <tile gid="130"/>
    <tile gid="1"/>
    <tile gid="1"/>
    <tile gid="1"/>
    <tile gid="1"/>
    <tile gid="1"/>
    <tile gid="130"/>
    <tile gid="130"/>
    <tile gid="130"/>
    <tile gid="130"/>
    <tile gid="1"/>
    <tile gid="1"/>
    <tile gid="1"/>
    <tile gid="1"/>
    <tile gid="1"/>
    <tile gid="1"/>
    <tile gid="1"/>
    <tile gid="194"/>
    <tile gid="195"/>
    <tile gid="130"/>
    <tile gid="130"/>
    <tile gid="131"/>
    <tile gid="130"/>
    <tile gid="130"/>
    <tile gid="130"/>
    <tile gid="130"/>
    <tile gid="130"/>
    <tile gid="131"/>
    <tile gid="130"/>
    <tile gid="194"/>
    <tile gid="195"/>
    <tile gid="130"/>
    <tile gid="131"/>
    <tile gid="130"/>
    <tile gid="1"/>
    <tile gid="1"/>
    <tile gid="1"/>
    <tile gid="1"/>
    <tile gid="1"/>
    <tile gid="1"/>
    <tile gid="1"/>
    <tile gid="1"/>
    <tile gid="1"/>
    <tile gid="1"/>
    <tile gid="130"/>
    <tile gid="130"/>
    <tile gid="130"/>
    <tile gid="164"/>
    <tile gid="164"/>
    <tile gid="164"/>
    <tile gid="131"/>
    <tile gid="130"/>
    <tile gid="130"/>
    <tile gid="130"/>
    <tile gid="130"/>
    <tile gid="131"/>
    <tile gid="195"/>
    <tile gid="130"/>
    <tile gid="130"/>
    <tile gid="130"/>
    <tile gid="1"/>
    <tile gid="1"/>
    <tile gid="1"/>
    <tile gid="1"/>
    <tile gid="1"/>
    <tile gid="1"/>
    <tile gid="1"/>
    <tile gid="130"/>
    <tile gid="130"/>
    <tile gid="130"/>
    <tile gid="162"/>
    <tile gid="130"/>
    <tile gid="130"/>
    <tile gid="194"/>
    <tile gid="195"/>
    <tile gid="130"/>
    <tile gid="162"/>
    <tile gid="130"/>
    <tile gid="130"/>
    <tile gid="130"/>
    <tile gid="130"/>
    <tile gid="162"/>
    <tile gid="130"/>
    <tile gid="130"/>
    <tile gid="1"/>
    <tile gid="1"/>
    <tile gid="1"/>
    <tile gid="1"/>
    <tile gid="1"/>
    <tile gid="1"/>
    <tile gid="1"/>
    <tile gid="1"/>
    <tile gid="1"/>
    <tile gid="1"/>
    <tile gid="130"/>
    <tile gid="130"/>
    <tile gid="195"/>
    <tile gid="130"/>
    <tile gid="130"/>
    <tile gid="164"/>
    <tile gid="130"/>
    <tile gid="130"/>
    <tile gid="130"/>
    <tile gid="130"/>
    <tile gid="130"/>
    <tile gid="130"/>
    <tile gid="130"/>
    <tile gid="130"/>
    <tile gid="130"/>
    <tile gid="130"/>
    <tile gid="1"/>
    <tile gid="1"/>
    <tile gid="1"/>
    <tile gid="1"/>
    <tile gid="1"/>
    <tile gid="1"/>
    <tile gid="1"/>
    <tile gid="194"/>
    <tile gid="195"/>
    <tile gid="130"/>
    <tile gid="130"/>
    <tile gid="130"/>
    <tile gid="194"/>
    <tile gid="195"/>
    <tile gid="130"/>
    <tile gid="130"/>
    <tile gid="130"/>
    <tile gid="130"/>
    <tile gid="194"/>
    <tile gid="195"/>
    <tile gid="130"/>
    <tile gid="130"/>
    <tile gid="130"/>
    <tile gid="130"/>
    <tile gid="1"/>
    <tile gid="1"/>
    <tile gid="1"/>
    <tile gid="1"/>
    <tile gid="1"/>
    <tile gid="1"/>
    <tile gid="1"/>
    <tile gid="1"/>
    <tile gid="1"/>
    <tile gid="1"/>
    <tile gid="164"/>
    <tile gid="164"/>
    <tile gid="130"/>
    <tile gid="130"/>
    <tile gid="130"/>
    <tile gid="130"/>
    <tile gid="130"/>
    <tile gid="1"/>
    <tile gid="1"/>
    <tile gid="1"/>
    <tile gid="1"/>
    <tile gid="1"/>
    <tile gid="1"/>
    <tile gid="1"/>
    <tile gid="1"/>
    <tile gid="1"/>
    <tile gid="1"/>
    <tile gid="1"/>
    <tile gid="1"/>
    <tile gid="1"/>
    <tile gid="1"/>
    <tile gid="1"/>
    <tile gid="1"/>
    <tile gid="1"/>
    <tile gid="1"/>
    <tile gid="1"/>
    <tile gid="1"/>
    <tile gid="1"/>
    <tile gid="1"/>
    <tile gid="1"/>
    <tile gid="1"/>
    <tile gid="1"/>
    <tile gid="1"/>
    <tile gid="1"/>
    <tile gid="1"/>
    <tile gid="1"/>
    <tile gid="1"/>
    <tile gid="1"/>
    <tile gid="1"/>
    <tile gid="1"/>
    <tile gid="1"/>
    <tile gid="1"/>
    <tile gid="1"/>
    <tile gid="1"/>
    <tile gid="1"/>
    <tile gid="1"/>
    <tile gid="1"/>
    <tile gid="1"/>
    <tile gid="1"/>
    <tile gid="1"/>
    <tile gid="131"/>
    <tile gid="131"/>
    <tile gid="164"/>
    <tile gid="130"/>
    <tile gid="130"/>
    <tile gid="1"/>
    <tile gid="1"/>
    <tile gid="1"/>
    <tile gid="1"/>
    <tile gid="1"/>
    <tile gid="1"/>
    <tile gid="1"/>
    <tile gid="1"/>
    <tile gid="1"/>
    <tile gid="1"/>
    <tile gid="1"/>
    <tile gid="1"/>
    <tile gid="1"/>
    <tile gid="1"/>
    <tile gid="1"/>
    <tile gid="1"/>
    <tile gid="1"/>
    <tile gid="1"/>
    <tile gid="1"/>
    <tile gid="1"/>
    <tile gid="1"/>
    <tile gid="1"/>
    <tile gid="1"/>
    <tile gid="1"/>
    <tile gid="1"/>
    <tile gid="1"/>
    <tile gid="1"/>
    <tile gid="1"/>
    <tile gid="1"/>
    <tile gid="1"/>
    <tile gid="1"/>
    <tile gid="1"/>
    <tile gid="1"/>
    <tile gid="1"/>
    <tile gid="1"/>
    <tile gid="1"/>
    <tile gid="1"/>
    <tile gid="1"/>
    <tile gid="1"/>
    <tile gid="1"/>
    <tile gid="1"/>
    <tile gid="1"/>
    <tile gid="1"/>
    <tile gid="1"/>
    <tile gid="1"/>
    <tile gid="130"/>
    <tile gid="130"/>
    <tile gid="130"/>
    <tile gid="130"/>
    <tile gid="130"/>
    <tile gid="1"/>
    <tile gid="1"/>
    <tile gid="1"/>
    <tile gid="1"/>
    <tile gid="1"/>
    <tile gid="1"/>
    <tile gid="1"/>
    <tile gid="1"/>
    <tile gid="1"/>
    <tile gid="1"/>
    <tile gid="1"/>
    <tile gid="1"/>
    <tile gid="1"/>
    <tile gid="1"/>
    <tile gid="1"/>
    <tile gid="1"/>
    <tile gid="1"/>
    <tile gid="1"/>
    <tile gid="1"/>
    <tile gid="1"/>
    <tile gid="1"/>
    <tile gid="1"/>
    <tile gid="1"/>
    <tile gid="1"/>
    <tile gid="1"/>
    <tile gid="1"/>
    <tile gid="1"/>
    <tile gid="1"/>
    <tile gid="1"/>
    <tile gid="1"/>
    <tile gid="1"/>
    <tile gid="1"/>
    <tile gid="1"/>
    <tile gid="1"/>
    <tile gid="1"/>
    <tile gid="1"/>
    <tile gid="1"/>
    <tile gid="1"/>
    <tile gid="1"/>
    <tile gid="1"/>
    <tile gid="1"/>
    <tile gid="1"/>
    <tile gid="1"/>
    <tile gid="1"/>
    <tile gid="1"/>
    <tile gid="1"/>
    <tile gid="130"/>
    <tile gid="130"/>
    <tile gid="130"/>
    <tile gid="1"/>
    <tile gid="1"/>
    <tile gid="1"/>
    <tile gid="1"/>
    <tile gid="1"/>
    <tile gid="1"/>
    <tile gid="1"/>
    <tile gid="1"/>
    <tile gid="1"/>
    <tile gid="1"/>
    <tile gid="1"/>
    <tile gid="1"/>
    <tile gid="1"/>
    <tile gid="1"/>
    <tile gid="1"/>
    <tile gid="1"/>
   </data>
  </layer>
  <layer id="71" name="lower_walls" width="50" height="50">
   <data>
    <tile gid="1"/>
    <tile gid="1"/>
    <tile gid="1"/>
    <tile gid="1"/>
    <tile gid="1"/>
    <tile gid="1"/>
    <tile gid="1"/>
    <tile gid="1"/>
    <tile gid="1"/>
    <tile gid="1"/>
    <tile gid="1"/>
    <tile gid="1"/>
    <tile gid="1"/>
    <tile gid="1"/>
    <tile gid="1"/>
    <tile gid="1"/>
    <tile gid="1"/>
    <tile gid="1"/>
    <tile gid="1"/>
    <tile gid="225"/>
    <tile gid="227"/>
    <tile gid="5"/>
    <tile gid="2"/>
    <tile gid="2"/>
    <tile gid="5"/>
    <tile gid="5"/>
    <tile gid="2"/>
    <tile gid="2"/>
    <tile gid="5"/>
    <tile gid="228"/>
    <tile gid="226"/>
    <tile gid="1"/>
    <tile gid="1"/>
    <tile gid="1"/>
    <tile gid="1"/>
    <tile gid="1"/>
    <tile gid="1"/>
    <tile gid="1"/>
    <tile gid="1"/>
    <tile gid="1"/>
    <tile gid="1"/>
    <tile gid="1"/>
    <tile gid="1"/>
    <tile gid="1"/>
    <tile gid="1"/>
    <tile gid="1"/>
    <tile gid="1"/>
    <tile gid="1"/>
    <tile gid="1"/>
    <tile gid="1"/>
    <tile gid="1"/>
    <tile gid="1"/>
    <tile gid="1"/>
    <tile gid="1"/>
    <tile gid="1"/>
    <tile gid="1"/>
    <tile gid="1"/>
    <tile gid="1"/>
    <tile gid="1"/>
    <tile gid="1"/>
    <tile gid="1"/>
    <tile gid="1"/>
    <tile gid="1"/>
    <tile gid="1"/>
    <tile gid="1"/>
    <tile gid="1"/>
    <tile gid="1"/>
    <tile gid="1"/>
    <tile gid="1"/>
    <tile gid="257"/>
    <tile gid="34"/>
    <tile gid="37"/>
    <tile gid="34"/>
    <tile gid="34"/>
    <tile gid="37"/>
    <tile gid="37"/>
    <tile gid="34"/>
    <tile gid="34"/>
    <tile gid="37"/>
    <tile gid="324"/>
    <tile gid="258"/>
    <tile gid="1"/>
    <tile gid="1"/>
    <tile gid="1"/>
    <tile gid="1"/>
    <tile gid="1"/>
    <tile gid="1"/>
    <tile gid="1"/>
    <tile gid="1"/>
    <tile gid="1"/>
    <tile gid="1"/>
    <tile gid="1"/>
    <tile gid="1"/>
    <tile gid="1"/>
    <tile gid="1"/>
    <tile gid="1"/>
    <tile gid="1"/>
    <tile gid="1"/>
    <tile gid="1"/>
    <tile gid="1"/>
    <tile gid="1"/>
    <tile gid="1"/>
    <tile gid="1"/>
    <tile gid="1"/>
    <tile gid="1"/>
    <tile gid="1"/>
    <tile gid="1"/>
    <tile gid="1"/>
    <tile gid="1"/>
    <tile gid="1"/>
    <tile gid="1"/>
    <tile gid="1"/>
    <tile gid="1"/>
    <tile gid="1"/>
    <tile gid="1"/>
    <tile gid="1"/>
    <tile gid="1"/>
    <tile gid="1"/>
    <tile gid="1"/>
    <tile gid="257"/>
    <tile gid="1"/>
    <tile gid="69"/>
    <tile gid="1"/>
    <tile gid="1"/>
    <tile gid="69"/>
    <tile gid="69"/>
    <tile gid="1"/>
    <tile gid="1"/>
    <tile gid="69"/>
    <tile gid="1"/>
    <tile gid="258"/>
    <tile gid="1"/>
    <tile gid="1"/>
    <tile gid="1"/>
    <tile gid="1"/>
    <tile gid="1"/>
    <tile gid="1"/>
    <tile gid="1"/>
    <tile gid="1"/>
    <tile gid="1"/>
    <tile gid="1"/>
    <tile gid="1"/>
    <tile gid="1"/>
    <tile gid="1"/>
    <tile gid="1"/>
    <tile gid="1"/>
    <tile gid="1"/>
    <tile gid="1"/>
    <tile gid="1"/>
    <tile gid="1"/>
    <tile gid="1"/>
    <tile gid="1"/>
    <tile gid="1"/>
    <tile gid="1"/>
    <tile gid="1"/>
    <tile gid="1"/>
    <tile gid="1"/>
    <tile gid="1"/>
    <tile gid="1"/>
    <tile gid="1"/>
    <tile gid="1"/>
    <tile gid="1"/>
    <tile gid="1"/>
    <tile gid="1"/>
    <tile gid="1"/>
    <tile gid="1"/>
    <tile gid="1"/>
    <tile gid="1"/>
    <tile gid="1"/>
    <tile gid="257"/>
    <tile gid="1"/>
    <tile gid="1"/>
    <tile gid="1"/>
    <tile gid="1"/>
    <tile gid="1"/>
    <tile gid="1"/>
    <tile gid="1"/>
    <tile gid="1"/>
    <tile gid="1"/>
    <tile gid="1"/>
    <tile gid="258"/>
    <tile gid="1"/>
    <tile gid="1"/>
    <tile gid="1"/>
    <tile gid="1"/>
    <tile gid="1"/>
    <tile gid="1"/>
    <tile gid="1"/>
    <tile gid="1"/>
    <tile gid="1"/>
    <tile gid="1"/>
    <tile gid="1"/>
    <tile gid="1"/>
    <tile gid="1"/>
    <tile gid="1"/>
    <tile gid="1"/>
    <tile gid="1"/>
    <tile gid="1"/>
    <tile gid="1"/>
    <tile gid="1"/>
    <tile gid="1"/>
    <tile gid="1"/>
    <tile gid="1"/>
    <tile gid="1"/>
    <tile gid="1"/>
    <tile gid="1"/>
    <tile gid="1"/>
    <tile gid="1"/>
    <tile gid="1"/>
    <tile gid="1"/>
    <tile gid="1"/>
    <tile gid="1"/>
    <tile gid="1"/>
    <tile gid="1"/>
    <tile gid="1"/>
    <tile gid="1"/>
    <tile gid="1"/>
    <tile gid="1"/>
    <tile gid="1"/>
    <tile gid="257"/>
    <tile gid="1"/>
    <tile gid="1"/>
    <tile gid="1"/>
    <tile gid="1"/>
    <tile gid="1"/>
    <tile gid="1"/>
    <tile gid="1"/>
    <tile gid="1"/>
    <tile gid="1"/>
    <tile gid="1"/>
    <tile gid="258"/>
    <tile gid="1"/>
    <tile gid="1"/>
    <tile gid="1"/>
    <tile gid="1"/>
    <tile gid="1"/>
    <tile gid="1"/>
    <tile gid="1"/>
    <tile gid="1"/>
    <tile gid="1"/>
    <tile gid="1"/>
    <tile gid="1"/>
    <tile gid="1"/>
    <tile gid="1"/>
    <tile gid="1"/>
    <tile gid="1"/>
    <tile gid="1"/>
    <tile gid="1"/>
    <tile gid="1"/>
    <tile gid="1"/>
    <tile gid="1"/>
    <tile gid="1"/>
    <tile gid="1"/>
    <tile gid="1"/>
    <tile gid="1"/>
    <tile gid="1"/>
    <tile gid="1"/>
    <tile gid="1"/>
    <tile gid="1"/>
    <tile gid="1"/>
    <tile gid="1"/>
    <tile gid="1"/>
    <tile gid="1"/>
    <tile gid="1"/>
    <tile gid="1"/>
    <tile gid="1"/>
    <tile gid="1"/>
    <tile gid="1"/>
    <tile gid="1"/>
    <tile gid="257"/>
    <tile gid="1"/>
    <tile gid="1"/>
    <tile gid="1"/>
    <tile gid="1"/>
    <tile gid="1"/>
    <tile gid="1"/>
    <tile gid="1"/>
    <tile gid="1"/>
    <tile gid="1"/>
    <tile gid="1"/>
    <tile gid="258"/>
    <tile gid="1"/>
    <tile gid="1"/>
    <tile gid="1"/>
    <tile gid="1"/>
    <tile gid="1"/>
    <tile gid="1"/>
    <tile gid="1"/>
    <tile gid="1"/>
    <tile gid="1"/>
    <tile gid="1"/>
    <tile gid="1"/>
    <tile gid="1"/>
    <tile gid="1"/>
    <tile gid="1"/>
    <tile gid="1"/>
    <tile gid="1"/>
    <tile gid="1"/>
    <tile gid="1"/>
    <tile gid="1"/>
    <tile gid="1"/>
    <tile gid="1"/>
    <tile gid="1"/>
    <tile gid="1"/>
    <tile gid="1"/>
    <tile gid="1"/>
    <tile gid="1"/>
    <tile gid="1"/>
    <tile gid="1"/>
    <tile gid="1"/>
    <tile gid="1"/>
    <tile gid="1"/>
    <tile gid="1"/>
    <tile gid="1"/>
    <tile gid="1"/>
    <tile gid="1"/>
    <tile gid="1"/>
    <tile gid="1"/>
    <tile gid="1"/>
    <tile gid="257"/>
    <tile gid="1"/>
    <tile gid="1"/>
    <tile gid="1"/>
    <tile gid="1"/>
    <tile gid="1"/>
    <tile gid="1"/>
    <tile gid="1"/>
    <tile gid="1"/>
    <tile gid="1"/>
    <tile gid="1"/>
    <tile gid="258"/>
    <tile gid="1"/>
    <tile gid="1"/>
    <tile gid="1"/>
    <tile gid="1"/>
    <tile gid="1"/>
    <tile gid="1"/>
    <tile gid="1"/>
    <tile gid="1"/>
    <tile gid="1"/>
    <tile gid="1"/>
    <tile gid="1"/>
    <tile gid="1"/>
    <tile gid="1"/>
    <tile gid="1"/>
    <tile gid="1"/>
    <tile gid="1"/>
    <tile gid="1"/>
    <tile gid="1"/>
    <tile gid="1"/>
    <tile gid="1"/>
    <tile gid="1"/>
    <tile gid="1"/>
    <tile gid="1"/>
    <tile gid="1"/>
    <tile gid="1"/>
    <tile gid="1"/>
    <tile gid="1"/>
    <tile gid="1"/>
    <tile gid="1"/>
    <tile gid="1"/>
    <tile gid="1"/>
    <tile gid="1"/>
    <tile gid="1"/>
    <tile gid="1"/>
    <tile gid="1"/>
    <tile gid="1"/>
    <tile gid="1"/>
    <tile gid="1"/>
    <tile gid="257"/>
    <tile gid="1"/>
    <tile gid="1"/>
    <tile gid="1"/>
    <tile gid="1"/>
    <tile gid="1"/>
    <tile gid="1"/>
    <tile gid="1"/>
    <tile gid="1"/>
    <tile gid="1"/>
    <tile gid="1"/>
    <tile gid="258"/>
    <tile gid="1"/>
    <tile gid="1"/>
    <tile gid="1"/>
    <tile gid="1"/>
    <tile gid="1"/>
    <tile gid="1"/>
    <tile gid="1"/>
    <tile gid="1"/>
    <tile gid="1"/>
    <tile gid="1"/>
    <tile gid="1"/>
    <tile gid="1"/>
    <tile gid="1"/>
    <tile gid="1"/>
    <tile gid="1"/>
    <tile gid="1"/>
    <tile gid="1"/>
    <tile gid="1"/>
    <tile gid="1"/>
    <tile gid="1"/>
    <tile gid="1"/>
    <tile gid="1"/>
    <tile gid="1"/>
    <tile gid="1"/>
    <tile gid="1"/>
    <tile gid="1"/>
    <tile gid="1"/>
    <tile gid="1"/>
    <tile gid="1"/>
    <tile gid="1"/>
    <tile gid="1"/>
    <tile gid="1"/>
    <tile gid="1"/>
    <tile gid="1"/>
    <tile gid="1"/>
    <tile gid="1"/>
    <tile gid="1"/>
    <tile gid="1"/>
    <tile gid="257"/>
    <tile gid="1"/>
    <tile gid="1"/>
    <tile gid="1"/>
    <tile gid="1"/>
    <tile gid="1"/>
    <tile gid="1"/>
    <tile gid="1"/>
    <tile gid="1"/>
    <tile gid="1"/>
    <tile gid="1"/>
    <tile gid="258"/>
    <tile gid="1"/>
    <tile gid="1"/>
    <tile gid="1"/>
    <tile gid="1"/>
    <tile gid="1"/>
    <tile gid="1"/>
    <tile gid="1"/>
    <tile gid="1"/>
    <tile gid="1"/>
    <tile gid="1"/>
    <tile gid="1"/>
    <tile gid="1"/>
    <tile gid="1"/>
    <tile gid="1"/>
    <tile gid="1"/>
    <tile gid="1"/>
    <tile gid="1"/>
    <tile gid="1"/>
    <tile gid="1"/>
    <tile gid="1"/>
    <tile gid="1"/>
    <tile gid="1"/>
    <tile gid="1"/>
    <tile gid="1"/>
    <tile gid="1"/>
    <tile gid="1"/>
    <tile gid="1"/>
    <tile gid="1"/>
    <tile gid="1"/>
    <tile gid="1"/>
    <tile gid="1"/>
    <tile gid="1"/>
    <tile gid="1"/>
    <tile gid="1"/>
    <tile gid="1"/>
    <tile gid="1"/>
    <tile gid="1"/>
    <tile gid="1"/>
    <tile gid="289"/>
    <tile gid="1"/>
    <tile gid="1"/>
    <tile gid="1"/>
    <tile gid="1"/>
    <tile gid="1"/>
    <tile gid="1"/>
    <tile gid="1"/>
    <tile gid="1"/>
    <tile gid="1"/>
    <tile gid="1"/>
    <tile gid="290"/>
    <tile gid="1"/>
    <tile gid="1"/>
    <tile gid="1"/>
    <tile gid="1"/>
    <tile gid="1"/>
    <tile gid="1"/>
    <tile gid="1"/>
    <tile gid="1"/>
    <tile gid="1"/>
    <tile gid="1"/>
    <tile gid="1"/>
    <tile gid="1"/>
    <tile gid="1"/>
    <tile gid="1"/>
    <tile gid="1"/>
    <tile gid="1"/>
    <tile gid="1"/>
    <tile gid="1"/>
    <tile gid="1"/>
    <tile gid="1"/>
    <tile gid="1"/>
    <tile gid="1"/>
    <tile gid="1"/>
    <tile gid="1"/>
    <tile gid="1"/>
    <tile gid="1"/>
    <tile gid="1"/>
    <tile gid="1"/>
    <tile gid="1"/>
    <tile gid="1"/>
    <tile gid="1"/>
    <tile gid="1"/>
    <tile gid="1"/>
    <tile gid="1"/>
    <tile gid="1"/>
    <tile gid="1"/>
    <tile gid="1"/>
    <tile gid="1"/>
    <tile gid="1"/>
    <tile gid="1"/>
    <tile gid="1"/>
    <tile gid="1"/>
    <tile gid="257"/>
    <tile gid="1"/>
    <tile gid="1"/>
    <tile gid="258"/>
    <tile gid="1"/>
    <tile gid="1"/>
    <tile gid="1"/>
    <tile gid="1"/>
    <tile gid="1"/>
    <tile gid="1"/>
    <tile gid="1"/>
    <tile gid="1"/>
    <tile gid="1"/>
    <tile gid="1"/>
    <tile gid="1"/>
    <tile gid="1"/>
    <tile gid="1"/>
    <tile gid="1"/>
    <tile gid="1"/>
    <tile gid="1"/>
    <tile gid="1"/>
    <tile gid="1"/>
    <tile gid="1"/>
    <tile gid="1"/>
    <tile gid="1"/>
    <tile gid="1"/>
    <tile gid="1"/>
    <tile gid="1"/>
    <tile gid="1"/>
    <tile gid="1"/>
    <tile gid="1"/>
    <tile gid="1"/>
    <tile gid="1"/>
    <tile gid="1"/>
    <tile gid="1"/>
    <tile gid="1"/>
    <tile gid="1"/>
    <tile gid="1"/>
    <tile gid="1"/>
    <tile gid="1"/>
    <tile gid="1"/>
    <tile gid="1"/>
    <tile gid="1"/>
    <tile gid="1"/>
    <tile gid="1"/>
    <tile gid="1"/>
    <tile gid="1"/>
    <tile gid="1"/>
    <tile gid="1"/>
    <tile gid="1"/>
    <tile gid="257"/>
    <tile gid="1"/>
    <tile gid="1"/>
    <tile gid="258"/>
    <tile gid="1"/>
    <tile gid="1"/>
    <tile gid="1"/>
    <tile gid="1"/>
    <tile gid="1"/>
    <tile gid="1"/>
    <tile gid="1"/>
    <tile gid="1"/>
    <tile gid="1"/>
    <tile gid="1"/>
    <tile gid="1"/>
    <tile gid="1"/>
    <tile gid="1"/>
    <tile gid="1"/>
    <tile gid="1"/>
    <tile gid="1"/>
    <tile gid="1"/>
    <tile gid="1"/>
    <tile gid="1"/>
    <tile gid="1"/>
    <tile gid="1"/>
    <tile gid="1"/>
    <tile gid="1"/>
    <tile gid="1"/>
    <tile gid="1"/>
    <tile gid="1"/>
    <tile gid="1"/>
    <tile gid="1"/>
    <tile gid="1"/>
    <tile gid="1"/>
    <tile gid="1"/>
    <tile gid="1"/>
    <tile gid="1"/>
    <tile gid="1"/>
    <tile gid="1"/>
    <tile gid="1"/>
    <tile gid="1"/>
    <tile gid="1"/>
    <tile gid="1"/>
    <tile gid="1"/>
    <tile gid="1"/>
    <tile gid="1"/>
    <tile gid="1"/>
    <tile gid="1"/>
    <tile gid="1"/>
    <tile gid="225"/>
    <tile gid="292"/>
    <tile gid="1"/>
    <tile gid="1"/>
    <tile gid="262"/>
    <tile gid="226"/>
    <tile gid="1"/>
    <tile gid="1"/>
    <tile gid="1"/>
    <tile gid="1"/>
    <tile gid="1"/>
    <tile gid="1"/>
    <tile gid="1"/>
    <tile gid="1"/>
    <tile gid="1"/>
    <tile gid="1"/>
    <tile gid="1"/>
    <tile gid="1"/>
    <tile gid="1"/>
    <tile gid="1"/>
    <tile gid="1"/>
    <tile gid="1"/>
    <tile gid="1"/>
    <tile gid="1"/>
    <tile gid="1"/>
    <tile gid="1"/>
    <tile gid="1"/>
    <tile gid="1"/>
    <tile gid="1"/>
    <tile gid="1"/>
    <tile gid="1"/>
    <tile gid="1"/>
    <tile gid="1"/>
    <tile gid="1"/>
    <tile gid="1"/>
    <tile gid="1"/>
    <tile gid="1"/>
    <tile gid="1"/>
    <tile gid="1"/>
    <tile gid="1"/>
    <tile gid="1"/>
    <tile gid="1"/>
    <tile gid="1"/>
    <tile gid="1"/>
    <tile gid="1"/>
    <tile gid="1"/>
    <tile gid="1"/>
    <tile gid="1"/>
    <tile gid="1"/>
    <tile gid="225"/>
    <tile gid="261"/>
    <tile gid="165"/>
    <tile gid="1"/>
    <tile gid="1"/>
    <tile gid="165"/>
    <tile gid="262"/>
    <tile gid="226"/>
    <tile gid="1"/>
    <tile gid="1"/>
    <tile gid="1"/>
    <tile gid="1"/>
    <tile gid="1"/>
    <tile gid="1"/>
    <tile gid="1"/>
    <tile gid="1"/>
    <tile gid="1"/>
    <tile gid="1"/>
    <tile gid="1"/>
    <tile gid="1"/>
    <tile gid="1"/>
    <tile gid="1"/>
    <tile gid="1"/>
    <tile gid="1"/>
    <tile gid="1"/>
    <tile gid="1"/>
    <tile gid="1"/>
    <tile gid="1"/>
    <tile gid="1"/>
    <tile gid="1"/>
    <tile gid="1"/>
    <tile gid="1"/>
    <tile gid="1"/>
    <tile gid="1"/>
    <tile gid="1"/>
    <tile gid="1"/>
    <tile gid="1"/>
    <tile gid="1"/>
    <tile gid="1"/>
    <tile gid="1"/>
    <tile gid="1"/>
    <tile gid="1"/>
    <tile gid="1"/>
    <tile gid="1"/>
    <tile gid="1"/>
    <tile gid="1"/>
    <tile gid="1"/>
    <tile gid="1"/>
    <tile gid="1"/>
    <tile gid="225"/>
    <tile gid="261"/>
    <tile gid="165"/>
    <tile gid="197"/>
    <tile gid="1"/>
    <tile gid="1"/>
    <tile gid="197"/>
    <tile gid="165"/>
    <tile gid="262"/>
    <tile gid="226"/>
    <tile gid="1"/>
    <tile gid="1"/>
    <tile gid="1"/>
    <tile gid="1"/>
    <tile gid="1"/>
    <tile gid="1"/>
    <tile gid="1"/>
    <tile gid="1"/>
    <tile gid="1"/>
    <tile gid="1"/>
    <tile gid="1"/>
    <tile gid="1"/>
    <tile gid="1"/>
    <tile gid="1"/>
    <tile gid="1"/>
    <tile gid="1"/>
    <tile gid="1"/>
    <tile gid="1"/>
    <tile gid="1"/>
    <tile gid="1"/>
    <tile gid="1"/>
    <tile gid="1"/>
    <tile gid="1"/>
    <tile gid="1"/>
    <tile gid="1"/>
    <tile gid="1"/>
    <tile gid="1"/>
    <tile gid="1"/>
    <tile gid="1"/>
    <tile gid="1"/>
    <tile gid="1"/>
    <tile gid="1"/>
    <tile gid="1"/>
    <tile gid="1"/>
    <tile gid="1"/>
    <tile gid="1"/>
    <tile gid="1"/>
    <tile gid="1"/>
    <tile gid="1"/>
    <tile gid="225"/>
    <tile gid="261"/>
    <tile gid="165"/>
    <tile gid="197"/>
    <tile gid="1"/>
    <tile gid="1"/>
    <tile gid="1"/>
    <tile gid="1"/>
    <tile gid="197"/>
    <tile gid="165"/>
    <tile gid="262"/>
    <tile gid="226"/>
    <tile gid="1"/>
    <tile gid="1"/>
    <tile gid="1"/>
    <tile gid="1"/>
    <tile gid="1"/>
    <tile gid="1"/>
    <tile gid="1"/>
    <tile gid="1"/>
    <tile gid="1"/>
    <tile gid="1"/>
    <tile gid="1"/>
    <tile gid="1"/>
    <tile gid="1"/>
    <tile gid="1"/>
    <tile gid="1"/>
    <tile gid="1"/>
    <tile gid="1"/>
    <tile gid="1"/>
    <tile gid="1"/>
    <tile gid="1"/>
    <tile gid="1"/>
    <tile gid="1"/>
    <tile gid="1"/>
    <tile gid="1"/>
    <tile gid="1"/>
    <tile gid="1"/>
    <tile gid="1"/>
    <tile gid="1"/>
    <tile gid="1"/>
    <tile gid="1"/>
    <tile gid="1"/>
    <tile gid="1"/>
    <tile gid="1"/>
    <tile gid="1"/>
    <tile gid="1"/>
    <tile gid="225"/>
    <tile gid="227"/>
    <tile gid="2"/>
    <tile gid="261"/>
    <tile gid="165"/>
    <tile gid="197"/>
    <tile gid="1"/>
    <tile gid="1"/>
    <tile gid="1"/>
    <tile gid="1"/>
    <tile gid="1"/>
    <tile gid="1"/>
    <tile gid="197"/>
    <tile gid="165"/>
    <tile gid="262"/>
    <tile gid="2"/>
    <tile gid="228"/>
    <tile gid="226"/>
    <tile gid="1"/>
    <tile gid="1"/>
    <tile gid="1"/>
    <tile gid="1"/>
    <tile gid="1"/>
    <tile gid="225"/>
    <tile gid="227"/>
    <tile gid="5"/>
    <tile gid="2"/>
    <tile gid="5"/>
    <tile gid="5"/>
    <tile gid="2"/>
    <tile gid="5"/>
    <tile gid="4"/>
    <tile gid="226"/>
    <tile gid="1"/>
    <tile gid="1"/>
    <tile gid="1"/>
    <tile gid="1"/>
    <tile gid="1"/>
    <tile gid="1"/>
    <tile gid="1"/>
    <tile gid="1"/>
    <tile gid="1"/>
    <tile gid="1"/>
    <tile gid="1"/>
    <tile gid="1"/>
    <tile gid="1"/>
    <tile gid="1"/>
    <tile gid="1"/>
    <tile gid="1"/>
    <tile gid="1"/>
    <tile gid="257"/>
    <tile gid="323"/>
    <tile gid="34"/>
    <tile gid="34"/>
    <tile gid="197"/>
    <tile gid="1"/>
    <tile gid="1"/>
    <tile gid="1"/>
    <tile gid="1"/>
    <tile gid="1"/>
    <tile gid="1"/>
    <tile gid="1"/>
    <tile gid="1"/>
    <tile gid="197"/>
    <tile gid="34"/>
    <tile gid="34"/>
    <tile gid="324"/>
    <tile gid="258"/>
    <tile gid="1"/>
    <tile gid="1"/>
    <tile gid="1"/>
    <tile gid="1"/>
    <tile gid="1"/>
    <tile gid="257"/>
    <tile gid="34"/>
    <tile gid="101"/>
    <tile gid="34"/>
    <tile gid="101"/>
    <tile gid="101"/>
    <tile gid="34"/>
    <tile gid="101"/>
    <tile gid="324"/>
    <tile gid="258"/>
    <tile gid="1"/>
    <tile gid="1"/>
    <tile gid="1"/>
    <tile gid="1"/>
    <tile gid="1"/>
    <tile gid="1"/>
    <tile gid="1"/>
    <tile gid="1"/>
    <tile gid="1"/>
    <tile gid="1"/>
    <tile gid="1"/>
    <tile gid="1"/>
    <tile gid="1"/>
    <tile gid="1"/>
    <tile gid="1"/>
    <tile gid="1"/>
    <tile gid="1"/>
    <tile gid="257"/>
    <tile gid="1"/>
    <tile gid="1"/>
    <tile gid="1"/>
    <tile gid="1"/>
    <tile gid="1"/>
    <tile gid="1"/>
    <tile gid="1"/>
    <tile gid="1"/>
    <tile gid="1"/>
    <tile gid="1"/>
    <tile gid="1"/>
    <tile gid="1"/>
    <tile gid="1"/>
    <tile gid="1"/>
    <tile gid="1"/>
    <tile gid="1"/>
    <tile gid="258"/>
    <tile gid="1"/>
    <tile gid="1"/>
    <tile gid="1"/>
    <tile gid="1"/>
    <tile gid="1"/>
    <tile gid="257"/>
    <tile gid="1"/>
    <tile gid="133"/>
    <tile gid="1"/>
    <tile gid="133"/>
    <tile gid="133"/>
    <tile gid="1"/>
    <tile gid="133"/>
    <tile gid="1"/>
    <tile gid="258"/>
    <tile gid="1"/>
    <tile gid="1"/>
    <tile gid="1"/>
    <tile gid="1"/>
    <tile gid="1"/>
    <tile gid="1"/>
    <tile gid="1"/>
    <tile gid="1"/>
    <tile gid="1"/>
    <tile gid="1"/>
    <tile gid="1"/>
    <tile gid="1"/>
    <tile gid="1"/>
    <tile gid="1"/>
    <tile gid="1"/>
    <tile gid="1"/>
    <tile gid="1"/>
    <tile gid="257"/>
    <tile gid="1"/>
    <tile gid="1"/>
    <tile gid="1"/>
    <tile gid="1"/>
    <tile gid="1"/>
    <tile gid="1"/>
    <tile gid="1"/>
    <tile gid="1"/>
    <tile gid="1"/>
    <tile gid="1"/>
    <tile gid="1"/>
    <tile gid="1"/>
    <tile gid="1"/>
    <tile gid="1"/>
    <tile gid="1"/>
    <tile gid="1"/>
    <tile gid="258"/>
    <tile gid="1"/>
    <tile gid="1"/>
    <tile gid="1"/>
    <tile gid="1"/>
    <tile gid="1"/>
    <tile gid="257"/>
    <tile gid="1"/>
    <tile gid="1"/>
    <tile gid="1"/>
    <tile gid="1"/>
    <tile gid="1"/>
    <tile gid="1"/>
    <tile gid="1"/>
    <tile gid="1"/>
    <tile gid="258"/>
    <tile gid="1"/>
    <tile gid="1"/>
    <tile gid="1"/>
    <tile gid="1"/>
    <tile gid="1"/>
    <tile gid="1"/>
    <tile gid="1"/>
    <tile gid="1"/>
    <tile gid="1"/>
    <tile gid="1"/>
    <tile gid="1"/>
    <tile gid="1"/>
    <tile gid="1"/>
    <tile gid="1"/>
    <tile gid="1"/>
    <tile gid="1"/>
    <tile gid="1"/>
    <tile gid="257"/>
    <tile gid="1"/>
    <tile gid="1"/>
    <tile gid="1"/>
    <tile gid="1"/>
    <tile gid="1"/>
    <tile gid="1"/>
    <tile gid="1"/>
    <tile gid="198"/>
    <tile gid="1"/>
    <tile gid="1"/>
    <tile gid="1"/>
    <tile gid="1"/>
    <tile gid="1"/>
    <tile gid="1"/>
    <tile gid="1"/>
    <tile gid="1"/>
    <tile gid="258"/>
    <tile gid="1"/>
    <tile gid="1"/>
    <tile gid="1"/>
    <tile gid="1"/>
    <tile gid="1"/>
    <tile gid="257"/>
    <tile gid="1"/>
    <tile gid="1"/>
    <tile gid="1"/>
    <tile gid="1"/>
    <tile gid="1"/>
    <tile gid="1"/>
    <tile gid="1"/>
    <tile gid="1"/>
    <tile gid="258"/>
    <tile gid="1"/>
    <tile gid="1"/>
    <tile gid="1"/>
    <tile gid="1"/>
    <tile gid="1"/>
    <tile gid="1"/>
    <tile gid="1"/>
    <tile gid="1"/>
    <tile gid="1"/>
    <tile gid="225"/>
    <tile gid="227"/>
    <tile gid="2"/>
    <tile gid="2"/>
    <tile gid="2"/>
    <tile gid="2"/>
    <tile gid="2"/>
    <tile gid="2"/>
    <tile gid="261"/>
    <tile gid="1"/>
    <tile gid="1"/>
    <tile gid="1"/>
    <tile gid="1"/>
    <tile gid="1"/>
    <tile gid="1"/>
    <tile gid="1"/>
    <tile gid="230"/>
    <tile gid="1"/>
    <tile gid="1"/>
    <tile gid="1"/>
    <tile gid="1"/>
    <tile gid="1"/>
    <tile gid="1"/>
    <tile gid="1"/>
    <tile gid="1"/>
    <tile gid="258"/>
    <tile gid="1"/>
    <tile gid="1"/>
    <tile gid="1"/>
    <tile gid="1"/>
    <tile gid="1"/>
    <tile gid="257"/>
    <tile gid="1"/>
    <tile gid="1"/>
    <tile gid="1"/>
    <tile gid="1"/>
    <tile gid="1"/>
    <tile gid="1"/>
    <tile gid="1"/>
    <tile gid="1"/>
    <tile gid="258"/>
    <tile gid="1"/>
    <tile gid="1"/>
    <tile gid="1"/>
    <tile gid="1"/>
    <tile gid="1"/>
    <tile gid="1"/>
    <tile gid="1"/>
    <tile gid="1"/>
    <tile gid="1"/>
    <tile gid="257"/>
    <tile gid="323"/>
    <tile gid="34"/>
    <tile gid="34"/>
    <tile gid="34"/>
    <tile gid="98"/>
    <tile gid="34"/>
    <tile gid="34"/>
    <tile gid="34"/>
    <tile gid="1"/>
    <tile gid="1"/>
    <tile gid="1"/>
    <tile gid="1"/>
    <tile gid="1"/>
    <tile gid="1"/>
    <tile gid="1"/>
    <tile gid="1"/>
    <tile gid="1"/>
    <tile gid="1"/>
    <tile gid="1"/>
    <tile gid="1"/>
    <tile gid="1"/>
    <tile gid="1"/>
    <tile gid="1"/>
    <tile gid="1"/>
    <tile gid="258"/>
    <tile gid="1"/>
    <tile gid="1"/>
    <tile gid="1"/>
    <tile gid="1"/>
    <tile gid="1"/>
    <tile gid="289"/>
    <tile gid="1"/>
    <tile gid="1"/>
    <tile gid="1"/>
    <tile gid="1"/>
    <tile gid="1"/>
    <tile gid="1"/>
    <tile gid="1"/>
    <tile gid="1"/>
    <tile gid="290"/>
    <tile gid="1"/>
    <tile gid="1"/>
    <tile gid="1"/>
    <tile gid="1"/>
    <tile gid="1"/>
    <tile gid="1"/>
    <tile gid="1"/>
    <tile gid="1"/>
    <tile gid="1"/>
    <tile gid="257"/>
    <tile gid="1"/>
    <tile gid="1"/>
    <tile gid="1"/>
    <tile gid="1"/>
    <tile gid="1"/>
    <tile gid="1"/>
    <tile gid="1"/>
    <tile gid="1"/>
    <tile gid="1"/>
    <tile gid="1"/>
    <tile gid="198"/>
    <tile gid="1"/>
    <tile gid="1"/>
    <tile gid="1"/>
    <tile gid="1"/>
    <tile gid="1"/>
    <tile gid="1"/>
    <tile gid="1"/>
    <tile gid="1"/>
    <tile gid="1"/>
    <tile gid="1"/>
    <tile gid="1"/>
    <tile gid="1"/>
    <tile gid="1"/>
    <tile gid="258"/>
    <tile gid="1"/>
    <tile gid="1"/>
    <tile gid="1"/>
    <tile gid="1"/>
    <tile gid="1"/>
    <tile gid="1"/>
    <tile gid="1"/>
    <tile gid="1"/>
    <tile gid="257"/>
    <tile gid="1"/>
    <tile gid="1"/>
    <tile gid="258"/>
    <tile gid="1"/>
    <tile gid="1"/>
    <tile gid="1"/>
    <tile gid="1"/>
    <tile gid="1"/>
    <tile gid="1"/>
    <tile gid="1"/>
    <tile gid="225"/>
    <tile gid="227"/>
    <tile gid="227"/>
    <tile gid="2"/>
    <tile gid="2"/>
    <tile gid="261"/>
    <tile gid="1"/>
    <tile gid="1"/>
    <tile gid="1"/>
    <tile gid="1"/>
    <tile gid="1"/>
    <tile gid="1"/>
    <tile gid="1"/>
    <tile gid="1"/>
    <tile gid="1"/>
    <tile gid="1"/>
    <tile gid="230"/>
    <tile gid="1"/>
    <tile gid="1"/>
    <tile gid="1"/>
    <tile gid="1"/>
    <tile gid="1"/>
    <tile gid="1"/>
    <tile gid="198"/>
    <tile gid="1"/>
    <tile gid="1"/>
    <tile gid="1"/>
    <tile gid="1"/>
    <tile gid="1"/>
    <tile gid="1"/>
    <tile gid="258"/>
    <tile gid="1"/>
    <tile gid="1"/>
    <tile gid="1"/>
    <tile gid="1"/>
    <tile gid="1"/>
    <tile gid="1"/>
    <tile gid="1"/>
    <tile gid="1"/>
    <tile gid="257"/>
    <tile gid="1"/>
    <tile gid="1"/>
    <tile gid="258"/>
    <tile gid="1"/>
    <tile gid="1"/>
    <tile gid="1"/>
    <tile gid="1"/>
    <tile gid="1"/>
    <tile gid="1"/>
    <tile gid="1"/>
    <tile gid="257"/>
    <tile gid="323"/>
    <tile gid="98"/>
    <tile gid="34"/>
    <tile gid="165"/>
    <tile gid="34"/>
    <tile gid="1"/>
    <tile gid="1"/>
    <tile gid="1"/>
    <tile gid="1"/>
    <tile gid="1"/>
    <tile gid="1"/>
    <tile gid="1"/>
    <tile gid="1"/>
    <tile gid="1"/>
    <tile gid="1"/>
    <tile gid="1"/>
    <tile gid="1"/>
    <tile gid="1"/>
    <tile gid="1"/>
    <tile gid="1"/>
    <tile gid="1"/>
    <tile gid="1"/>
    <tile gid="230"/>
    <tile gid="1"/>
    <tile gid="1"/>
    <tile gid="1"/>
    <tile gid="198"/>
    <tile gid="1"/>
    <tile gid="1"/>
    <tile gid="262"/>
    <tile gid="2"/>
    <tile gid="2"/>
    <tile gid="2"/>
    <tile gid="2"/>
    <tile gid="2"/>
    <tile gid="2"/>
    <tile gid="2"/>
    <tile gid="2"/>
    <tile gid="292"/>
    <tile gid="1"/>
    <tile gid="1"/>
    <tile gid="262"/>
    <tile gid="226"/>
    <tile gid="1"/>
    <tile gid="1"/>
    <tile gid="1"/>
    <tile gid="1"/>
    <tile gid="1"/>
    <tile gid="1"/>
    <tile gid="257"/>
    <tile gid="1"/>
    <tile gid="1"/>
    <tile gid="1"/>
    <tile gid="197"/>
    <tile gid="1"/>
    <tile gid="1"/>
    <tile gid="1"/>
    <tile gid="1"/>
    <tile gid="1"/>
    <tile gid="1"/>
    <tile gid="1"/>
    <tile gid="1"/>
    <tile gid="1"/>
    <tile gid="1"/>
    <tile gid="1"/>
    <tile gid="1"/>
    <tile gid="1"/>
    <tile gid="1"/>
    <tile gid="1"/>
    <tile gid="1"/>
    <tile gid="1"/>
    <tile gid="1"/>
    <tile gid="1"/>
    <tile gid="1"/>
    <tile gid="1"/>
    <tile gid="1"/>
    <tile gid="230"/>
    <tile gid="1"/>
    <tile gid="1"/>
    <tile gid="66"/>
    <tile gid="34"/>
    <tile gid="34"/>
    <tile gid="66"/>
    <tile gid="34"/>
    <tile gid="67"/>
    <tile gid="34"/>
    <tile gid="34"/>
    <tile gid="67"/>
    <tile gid="34"/>
    <tile gid="1"/>
    <tile gid="1"/>
    <tile gid="34"/>
    <tile gid="258"/>
    <tile gid="1"/>
    <tile gid="1"/>
    <tile gid="1"/>
    <tile gid="1"/>
    <tile gid="1"/>
    <tile gid="1"/>
    <tile gid="257"/>
    <tile gid="1"/>
    <tile gid="1"/>
    <tile gid="1"/>
    <tile gid="1"/>
    <tile gid="1"/>
    <tile gid="1"/>
    <tile gid="1"/>
    <tile gid="1"/>
    <tile gid="1"/>
    <tile gid="1"/>
    <tile gid="1"/>
    <tile gid="1"/>
    <tile gid="1"/>
    <tile gid="1"/>
    <tile gid="1"/>
    <tile gid="1"/>
    <tile gid="1"/>
    <tile gid="1"/>
    <tile gid="1"/>
    <tile gid="1"/>
    <tile gid="1"/>
    <tile gid="1"/>
    <tile gid="1"/>
    <tile gid="1"/>
    <tile gid="1"/>
    <tile gid="1"/>
    <tile gid="1"/>
    <tile gid="1"/>
    <tile gid="1"/>
    <tile gid="1"/>
    <tile gid="1"/>
    <tile gid="1"/>
    <tile gid="1"/>
    <tile gid="1"/>
    <tile gid="1"/>
    <tile gid="1"/>
    <tile gid="1"/>
    <tile gid="1"/>
    <tile gid="1"/>
    <tile gid="1"/>
    <tile gid="1"/>
    <tile gid="1"/>
    <tile gid="258"/>
    <tile gid="1"/>
    <tile gid="1"/>
    <tile gid="1"/>
    <tile gid="1"/>
    <tile gid="1"/>
    <tile gid="1"/>
    <tile gid="257"/>
    <tile gid="1"/>
    <tile gid="1"/>
    <tile gid="1"/>
    <tile gid="1"/>
    <tile gid="1"/>
    <tile gid="1"/>
    <tile gid="1"/>
    <tile gid="1"/>
    <tile gid="1"/>
    <tile gid="1"/>
    <tile gid="258"/>
    <tile gid="1"/>
    <tile gid="257"/>
    <tile gid="1"/>
    <tile gid="1"/>
    <tile gid="1"/>
    <tile gid="1"/>
    <tile gid="1"/>
    <tile gid="1"/>
    <tile gid="198"/>
    <tile gid="1"/>
    <tile gid="1"/>
    <tile gid="1"/>
    <tile gid="1"/>
    <tile gid="1"/>
    <tile gid="1"/>
    <tile gid="1"/>
    <tile gid="1"/>
    <tile gid="1"/>
    <tile gid="1"/>
    <tile gid="1"/>
    <tile gid="1"/>
    <tile gid="1"/>
    <tile gid="1"/>
    <tile gid="1"/>
    <tile gid="1"/>
    <tile gid="1"/>
    <tile gid="1"/>
    <tile gid="1"/>
    <tile gid="1"/>
    <tile gid="1"/>
    <tile gid="1"/>
    <tile gid="258"/>
    <tile gid="1"/>
    <tile gid="1"/>
    <tile gid="1"/>
    <tile gid="1"/>
    <tile gid="1"/>
    <tile gid="1"/>
    <tile gid="257"/>
    <tile gid="1"/>
    <tile gid="1"/>
    <tile gid="1"/>
    <tile gid="1"/>
    <tile gid="1"/>
    <tile gid="1"/>
    <tile gid="1"/>
    <tile gid="1"/>
    <tile gid="1"/>
    <tile gid="1"/>
    <tile gid="258"/>
    <tile gid="1"/>
    <tile gid="257"/>
    <tile gid="1"/>
    <tile gid="1"/>
    <tile gid="1"/>
    <tile gid="1"/>
    <tile gid="1"/>
    <tile gid="1"/>
    <tile gid="230"/>
    <tile gid="1"/>
    <tile gid="1"/>
    <tile gid="1"/>
    <tile gid="1"/>
    <tile gid="1"/>
    <tile gid="1"/>
    <tile gid="1"/>
    <tile gid="1"/>
    <tile gid="1"/>
    <tile gid="1"/>
    <tile gid="1"/>
    <tile gid="1"/>
    <tile gid="1"/>
    <tile gid="1"/>
    <tile gid="1"/>
    <tile gid="1"/>
    <tile gid="1"/>
    <tile gid="1"/>
    <tile gid="1"/>
    <tile gid="1"/>
    <tile gid="1"/>
    <tile gid="1"/>
    <tile gid="258"/>
    <tile gid="1"/>
    <tile gid="1"/>
    <tile gid="1"/>
    <tile gid="1"/>
    <tile gid="1"/>
    <tile gid="1"/>
    <tile gid="257"/>
    <tile gid="1"/>
    <tile gid="1"/>
    <tile gid="1"/>
    <tile gid="1"/>
    <tile gid="1"/>
    <tile gid="1"/>
    <tile gid="1"/>
    <tile gid="1"/>
    <tile gid="1"/>
    <tile gid="1"/>
    <tile gid="258"/>
    <tile gid="1"/>
    <tile gid="257"/>
    <tile gid="1"/>
    <tile gid="1"/>
    <tile gid="1"/>
    <tile gid="1"/>
    <tile gid="1"/>
    <tile gid="1"/>
    <tile gid="1"/>
    <tile gid="1"/>
    <tile gid="1"/>
    <tile gid="1"/>
    <tile gid="1"/>
    <tile gid="1"/>
    <tile gid="1"/>
    <tile gid="1"/>
    <tile gid="1"/>
    <tile gid="1"/>
    <tile gid="1"/>
    <tile gid="1"/>
    <tile gid="1"/>
    <tile gid="1"/>
    <tile gid="1"/>
    <tile gid="1"/>
    <tile gid="1"/>
    <tile gid="1"/>
    <tile gid="1"/>
    <tile gid="1"/>
    <tile gid="1"/>
    <tile gid="1"/>
    <tile gid="1"/>
    <tile gid="258"/>
    <tile gid="1"/>
    <tile gid="1"/>
    <tile gid="1"/>
    <tile gid="1"/>
    <tile gid="1"/>
    <tile gid="1"/>
    <tile gid="289"/>
    <tile gid="1"/>
    <tile gid="1"/>
    <tile gid="1"/>
    <tile gid="1"/>
    <tile gid="1"/>
    <tile gid="1"/>
    <tile gid="1"/>
    <tile gid="1"/>
    <tile gid="1"/>
    <tile gid="1"/>
    <tile gid="258"/>
    <tile gid="1"/>
    <tile gid="289"/>
    <tile gid="1"/>
    <tile gid="1"/>
    <tile gid="1"/>
    <tile gid="1"/>
    <tile gid="1"/>
    <tile gid="1"/>
    <tile gid="1"/>
    <tile gid="1"/>
    <tile gid="1"/>
    <tile gid="1"/>
    <tile gid="1"/>
    <tile gid="1"/>
    <tile gid="1"/>
    <tile gid="1"/>
    <tile gid="1"/>
    <tile gid="1"/>
    <tile gid="290"/>
    <tile gid="1"/>
    <tile gid="1"/>
    <tile gid="1"/>
    <tile gid="1"/>
    <tile gid="1"/>
    <tile gid="1"/>
    <tile gid="1"/>
    <tile gid="257"/>
    <tile gid="1"/>
    <tile gid="1"/>
    <tile gid="1"/>
    <tile gid="1"/>
    <tile gid="258"/>
    <tile gid="1"/>
    <tile gid="1"/>
    <tile gid="1"/>
    <tile gid="1"/>
    <tile gid="1"/>
    <tile gid="1"/>
    <tile gid="1"/>
    <tile gid="1"/>
    <tile gid="1"/>
    <tile gid="1"/>
    <tile gid="1"/>
    <tile gid="257"/>
    <tile gid="1"/>
    <tile gid="1"/>
    <tile gid="1"/>
    <tile gid="1"/>
    <tile gid="1"/>
    <tile gid="258"/>
    <tile gid="1"/>
    <tile gid="1"/>
    <tile gid="1"/>
    <tile gid="1"/>
    <tile gid="1"/>
    <tile gid="1"/>
    <tile gid="1"/>
    <tile gid="1"/>
    <tile gid="1"/>
    <tile gid="1"/>
    <tile gid="1"/>
    <tile gid="1"/>
    <tile gid="1"/>
    <tile gid="1"/>
    <tile gid="1"/>
    <tile gid="1"/>
    <tile gid="1"/>
    <tile gid="1"/>
    <tile gid="1"/>
    <tile gid="1"/>
    <tile gid="1"/>
    <tile gid="1"/>
    <tile gid="1"/>
    <tile gid="1"/>
    <tile gid="1"/>
    <tile gid="1"/>
    <tile gid="257"/>
    <tile gid="1"/>
    <tile gid="1"/>
    <tile gid="1"/>
    <tile gid="1"/>
    <tile gid="258"/>
    <tile gid="1"/>
    <tile gid="1"/>
    <tile gid="1"/>
    <tile gid="1"/>
    <tile gid="1"/>
    <tile gid="1"/>
    <tile gid="1"/>
    <tile gid="1"/>
    <tile gid="1"/>
    <tile gid="1"/>
    <tile gid="1"/>
    <tile gid="257"/>
    <tile gid="1"/>
    <tile gid="1"/>
    <tile gid="1"/>
    <tile gid="1"/>
    <tile gid="1"/>
    <tile gid="258"/>
    <tile gid="1"/>
    <tile gid="1"/>
    <tile gid="1"/>
    <tile gid="1"/>
    <tile gid="1"/>
    <tile gid="1"/>
    <tile gid="1"/>
    <tile gid="1"/>
    <tile gid="1"/>
    <tile gid="1"/>
    <tile gid="1"/>
    <tile gid="1"/>
    <tile gid="1"/>
    <tile gid="1"/>
    <tile gid="225"/>
    <tile gid="227"/>
    <tile gid="2"/>
    <tile gid="2"/>
    <tile gid="2"/>
    <tile gid="2"/>
    <tile gid="2"/>
    <tile gid="228"/>
    <tile gid="226"/>
    <tile gid="1"/>
    <tile gid="1"/>
    <tile gid="1"/>
    <tile gid="257"/>
    <tile gid="1"/>
    <tile gid="1"/>
    <tile gid="1"/>
    <tile gid="1"/>
    <tile gid="258"/>
    <tile gid="1"/>
    <tile gid="1"/>
    <tile gid="1"/>
    <tile gid="1"/>
    <tile gid="1"/>
    <tile gid="1"/>
    <tile gid="1"/>
    <tile gid="1"/>
    <tile gid="1"/>
    <tile gid="1"/>
    <tile gid="1"/>
    <tile gid="257"/>
    <tile gid="1"/>
    <tile gid="1"/>
    <tile gid="1"/>
    <tile gid="1"/>
    <tile gid="1"/>
    <tile gid="258"/>
    <tile gid="1"/>
    <tile gid="1"/>
    <tile gid="1"/>
    <tile gid="1"/>
    <tile gid="1"/>
    <tile gid="1"/>
    <tile gid="1"/>
    <tile gid="1"/>
    <tile gid="1"/>
    <tile gid="1"/>
    <tile gid="1"/>
    <tile gid="1"/>
    <tile gid="1"/>
    <tile gid="1"/>
    <tile gid="257"/>
    <tile gid="34"/>
    <tile gid="34"/>
    <tile gid="165"/>
    <tile gid="34"/>
    <tile gid="165"/>
    <tile gid="34"/>
    <tile gid="324"/>
    <tile gid="262"/>
    <tile gid="2"/>
    <tile gid="2"/>
    <tile gid="2"/>
    <tile gid="261"/>
    <tile gid="1"/>
    <tile gid="1"/>
    <tile gid="1"/>
    <tile gid="1"/>
    <tile gid="258"/>
    <tile gid="1"/>
    <tile gid="1"/>
    <tile gid="1"/>
    <tile gid="1"/>
    <tile gid="1"/>
    <tile gid="225"/>
    <tile gid="227"/>
    <tile gid="2"/>
    <tile gid="2"/>
    <tile gid="2"/>
    <tile gid="2"/>
    <tile gid="2"/>
    <tile gid="1"/>
    <tile gid="1"/>
    <tile gid="1"/>
    <tile gid="1"/>
    <tile gid="1"/>
    <tile gid="258"/>
    <tile gid="2"/>
    <tile gid="2"/>
    <tile gid="2"/>
    <tile gid="2"/>
    <tile gid="228"/>
    <tile gid="226"/>
    <tile gid="1"/>
    <tile gid="1"/>
    <tile gid="1"/>
    <tile gid="1"/>
    <tile gid="1"/>
    <tile gid="1"/>
    <tile gid="1"/>
    <tile gid="1"/>
    <tile gid="257"/>
    <tile gid="1"/>
    <tile gid="1"/>
    <tile gid="197"/>
    <tile gid="1"/>
    <tile gid="197"/>
    <tile gid="1"/>
    <tile gid="1"/>
    <tile gid="34"/>
    <tile gid="34"/>
    <tile gid="34"/>
    <tile gid="165"/>
    <tile gid="34"/>
    <tile gid="1"/>
    <tile gid="1"/>
    <tile gid="1"/>
    <tile gid="1"/>
    <tile gid="258"/>
    <tile gid="1"/>
    <tile gid="1"/>
    <tile gid="1"/>
    <tile gid="1"/>
    <tile gid="1"/>
    <tile gid="257"/>
    <tile gid="323"/>
    <tile gid="165"/>
    <tile gid="34"/>
    <tile gid="34"/>
    <tile gid="34"/>
    <tile gid="165"/>
    <tile gid="1"/>
    <tile gid="1"/>
    <tile gid="1"/>
    <tile gid="1"/>
    <tile gid="1"/>
    <tile gid="165"/>
    <tile gid="34"/>
    <tile gid="34"/>
    <tile gid="34"/>
    <tile gid="165"/>
    <tile gid="324"/>
    <tile gid="258"/>
    <tile gid="1"/>
    <tile gid="1"/>
    <tile gid="1"/>
    <tile gid="1"/>
    <tile gid="1"/>
    <tile gid="1"/>
    <tile gid="1"/>
    <tile gid="1"/>
    <tile gid="257"/>
    <tile gid="1"/>
    <tile gid="1"/>
    <tile gid="1"/>
    <tile gid="1"/>
    <tile gid="1"/>
    <tile gid="1"/>
    <tile gid="1"/>
    <tile gid="1"/>
    <tile gid="1"/>
    <tile gid="1"/>
    <tile gid="197"/>
    <tile gid="1"/>
    <tile gid="1"/>
    <tile gid="1"/>
    <tile gid="1"/>
    <tile gid="1"/>
    <tile gid="258"/>
    <tile gid="1"/>
    <tile gid="1"/>
    <tile gid="1"/>
    <tile gid="1"/>
    <tile gid="1"/>
    <tile gid="257"/>
    <tile gid="1"/>
    <tile gid="197"/>
    <tile gid="1"/>
    <tile gid="1"/>
    <tile gid="1"/>
    <tile gid="197"/>
    <tile gid="1"/>
    <tile gid="1"/>
    <tile gid="1"/>
    <tile gid="1"/>
    <tile gid="1"/>
    <tile gid="197"/>
    <tile gid="1"/>
    <tile gid="1"/>
    <tile gid="1"/>
    <tile gid="197"/>
    <tile gid="1"/>
    <tile gid="258"/>
    <tile gid="1"/>
    <tile gid="1"/>
    <tile gid="1"/>
    <tile gid="1"/>
    <tile gid="1"/>
    <tile gid="1"/>
    <tile gid="1"/>
    <tile gid="1"/>
    <tile gid="257"/>
    <tile gid="1"/>
    <tile gid="1"/>
    <tile gid="1"/>
    <tile gid="1"/>
    <tile gid="1"/>
    <tile gid="1"/>
    <tile gid="1"/>
    <tile gid="1"/>
    <tile gid="1"/>
    <tile gid="1"/>
    <tile gid="1"/>
    <tile gid="1"/>
    <tile gid="1"/>
    <tile gid="1"/>
    <tile gid="1"/>
    <tile gid="1"/>
    <tile gid="258"/>
    <tile gid="1"/>
    <tile gid="1"/>
    <tile gid="1"/>
    <tile gid="1"/>
    <tile gid="1"/>
    <tile gid="257"/>
    <tile gid="1"/>
    <tile gid="1"/>
    <tile gid="1"/>
    <tile gid="1"/>
    <tile gid="1"/>
    <tile gid="1"/>
    <tile gid="1"/>
    <tile gid="1"/>
    <tile gid="1"/>
    <tile gid="1"/>
    <tile gid="1"/>
    <tile gid="1"/>
    <tile gid="1"/>
    <tile gid="1"/>
    <tile gid="1"/>
    <tile gid="1"/>
    <tile gid="1"/>
    <tile gid="258"/>
    <tile gid="1"/>
    <tile gid="1"/>
    <tile gid="1"/>
    <tile gid="1"/>
    <tile gid="1"/>
    <tile gid="1"/>
    <tile gid="1"/>
    <tile gid="1"/>
    <tile gid="257"/>
    <tile gid="1"/>
    <tile gid="1"/>
    <tile gid="1"/>
    <tile gid="1"/>
    <tile gid="1"/>
    <tile gid="1"/>
    <tile gid="1"/>
    <tile gid="1"/>
    <tile gid="1"/>
    <tile gid="1"/>
    <tile gid="1"/>
    <tile gid="1"/>
    <tile gid="1"/>
    <tile gid="1"/>
    <tile gid="1"/>
    <tile gid="1"/>
    <tile gid="258"/>
    <tile gid="1"/>
    <tile gid="1"/>
    <tile gid="1"/>
    <tile gid="1"/>
    <tile gid="1"/>
    <tile gid="257"/>
    <tile gid="1"/>
    <tile gid="1"/>
    <tile gid="1"/>
    <tile gid="1"/>
    <tile gid="198"/>
    <tile gid="1"/>
    <tile gid="1"/>
    <tile gid="1"/>
    <tile gid="1"/>
    <tile gid="1"/>
    <tile gid="1"/>
    <tile gid="1"/>
    <tile gid="198"/>
    <tile gid="1"/>
    <tile gid="1"/>
    <tile gid="1"/>
    <tile gid="1"/>
    <tile gid="258"/>
    <tile gid="1"/>
    <tile gid="1"/>
    <tile gid="1"/>
    <tile gid="1"/>
    <tile gid="1"/>
    <tile gid="1"/>
    <tile gid="1"/>
    <tile gid="1"/>
    <tile gid="257"/>
    <tile gid="1"/>
    <tile gid="1"/>
    <tile gid="1"/>
    <tile gid="1"/>
    <tile gid="1"/>
    <tile gid="1"/>
    <tile gid="1"/>
    <tile gid="258"/>
    <tile gid="1"/>
    <tile gid="1"/>
    <tile gid="1"/>
    <tile gid="257"/>
    <tile gid="1"/>
    <tile gid="1"/>
    <tile gid="1"/>
    <tile gid="1"/>
    <tile gid="258"/>
    <tile gid="1"/>
    <tile gid="1"/>
    <tile gid="1"/>
    <tile gid="1"/>
    <tile gid="1"/>
    <tile gid="257"/>
    <tile gid="1"/>
    <tile gid="1"/>
    <tile gid="1"/>
    <tile gid="1"/>
    <tile gid="230"/>
    <tile gid="1"/>
    <tile gid="1"/>
    <tile gid="1"/>
    <tile gid="1"/>
    <tile gid="1"/>
    <tile gid="1"/>
    <tile gid="1"/>
    <tile gid="230"/>
    <tile gid="1"/>
    <tile gid="1"/>
    <tile gid="1"/>
    <tile gid="1"/>
    <tile gid="258"/>
    <tile gid="1"/>
    <tile gid="1"/>
    <tile gid="1"/>
    <tile gid="1"/>
    <tile gid="1"/>
    <tile gid="1"/>
    <tile gid="1"/>
    <tile gid="1"/>
    <tile gid="289"/>
    <tile gid="1"/>
    <tile gid="1"/>
    <tile gid="1"/>
    <tile gid="1"/>
    <tile gid="1"/>
    <tile gid="1"/>
    <tile gid="1"/>
    <tile gid="290"/>
    <tile gid="1"/>
    <tile gid="1"/>
    <tile gid="1"/>
    <tile gid="257"/>
    <tile gid="1"/>
    <tile gid="1"/>
    <tile gid="1"/>
    <tile gid="1"/>
    <tile gid="258"/>
    <tile gid="1"/>
    <tile gid="1"/>
    <tile gid="1"/>
    <tile gid="1"/>
    <tile gid="1"/>
    <tile gid="257"/>
    <tile gid="1"/>
    <tile gid="1"/>
    <tile gid="1"/>
    <tile gid="1"/>
    <tile gid="1"/>
    <tile gid="1"/>
    <tile gid="1"/>
    <tile gid="1"/>
    <tile gid="1"/>
    <tile gid="1"/>
    <tile gid="1"/>
    <tile gid="1"/>
    <tile gid="1"/>
    <tile gid="1"/>
    <tile gid="1"/>
    <tile gid="1"/>
    <tile gid="1"/>
    <tile gid="258"/>
    <tile gid="1"/>
    <tile gid="1"/>
    <tile gid="1"/>
    <tile gid="1"/>
    <tile gid="1"/>
    <tile gid="1"/>
    <tile gid="1"/>
    <tile gid="1"/>
    <tile gid="225"/>
    <tile gid="227"/>
    <tile gid="2"/>
    <tile gid="2"/>
    <tile gid="2"/>
    <tile gid="2"/>
    <tile gid="2"/>
    <tile gid="228"/>
    <tile gid="1"/>
    <tile gid="1"/>
    <tile gid="1"/>
    <tile gid="1"/>
    <tile gid="257"/>
    <tile gid="1"/>
    <tile gid="1"/>
    <tile gid="1"/>
    <tile gid="1"/>
    <tile gid="258"/>
    <tile gid="1"/>
    <tile gid="1"/>
    <tile gid="1"/>
    <tile gid="1"/>
    <tile gid="1"/>
    <tile gid="257"/>
    <tile gid="1"/>
    <tile gid="1"/>
    <tile gid="1"/>
    <tile gid="1"/>
    <tile gid="1"/>
    <tile gid="1"/>
    <tile gid="1"/>
    <tile gid="1"/>
    <tile gid="1"/>
    <tile gid="1"/>
    <tile gid="1"/>
    <tile gid="1"/>
    <tile gid="1"/>
    <tile gid="1"/>
    <tile gid="1"/>
    <tile gid="1"/>
    <tile gid="1"/>
    <tile gid="258"/>
    <tile gid="1"/>
    <tile gid="1"/>
    <tile gid="1"/>
    <tile gid="1"/>
    <tile gid="1"/>
    <tile gid="1"/>
    <tile gid="1"/>
    <tile gid="1"/>
    <tile gid="257"/>
    <tile gid="323"/>
    <tile gid="34"/>
    <tile gid="34"/>
    <tile gid="34"/>
    <tile gid="34"/>
    <tile gid="34"/>
    <tile gid="260"/>
    <tile gid="2"/>
    <tile gid="2"/>
    <tile gid="2"/>
    <tile gid="2"/>
    <tile gid="261"/>
    <tile gid="1"/>
    <tile gid="1"/>
    <tile gid="1"/>
    <tile gid="1"/>
    <tile gid="258"/>
    <tile gid="1"/>
    <tile gid="1"/>
    <tile gid="1"/>
    <tile gid="1"/>
    <tile gid="1"/>
    <tile gid="257"/>
    <tile gid="1"/>
    <tile gid="1"/>
    <tile gid="1"/>
    <tile gid="1"/>
    <tile gid="1"/>
    <tile gid="1"/>
    <tile gid="1"/>
    <tile gid="198"/>
    <tile gid="1"/>
    <tile gid="1"/>
    <tile gid="1"/>
    <tile gid="1"/>
    <tile gid="1"/>
    <tile gid="1"/>
    <tile gid="1"/>
    <tile gid="1"/>
    <tile gid="1"/>
    <tile gid="258"/>
    <tile gid="1"/>
    <tile gid="1"/>
    <tile gid="1"/>
    <tile gid="1"/>
    <tile gid="1"/>
    <tile gid="1"/>
    <tile gid="1"/>
    <tile gid="1"/>
    <tile gid="257"/>
    <tile gid="1"/>
    <tile gid="1"/>
    <tile gid="1"/>
    <tile gid="1"/>
    <tile gid="1"/>
    <tile gid="1"/>
    <tile gid="289"/>
    <tile gid="98"/>
    <tile gid="34"/>
    <tile gid="98"/>
    <tile gid="34"/>
    <tile gid="98"/>
    <tile gid="1"/>
    <tile gid="1"/>
    <tile gid="1"/>
    <tile gid="1"/>
    <tile gid="258"/>
    <tile gid="1"/>
    <tile gid="1"/>
    <tile gid="1"/>
    <tile gid="1"/>
    <tile gid="1"/>
    <tile gid="257"/>
    <tile gid="1"/>
    <tile gid="1"/>
    <tile gid="1"/>
    <tile gid="1"/>
    <tile gid="1"/>
    <tile gid="1"/>
    <tile gid="1"/>
    <tile gid="230"/>
    <tile gid="1"/>
    <tile gid="1"/>
    <tile gid="1"/>
    <tile gid="1"/>
    <tile gid="1"/>
    <tile gid="1"/>
    <tile gid="1"/>
    <tile gid="1"/>
    <tile gid="1"/>
    <tile gid="258"/>
    <tile gid="1"/>
    <tile gid="1"/>
    <tile gid="1"/>
    <tile gid="1"/>
    <tile gid="1"/>
    <tile gid="1"/>
    <tile gid="1"/>
    <tile gid="1"/>
    <tile gid="257"/>
    <tile gid="1"/>
    <tile gid="1"/>
    <tile gid="1"/>
    <tile gid="1"/>
    <tile gid="1"/>
    <tile gid="1"/>
    <tile gid="1"/>
    <tile gid="1"/>
    <tile gid="1"/>
    <tile gid="1"/>
    <tile gid="1"/>
    <tile gid="1"/>
    <tile gid="1"/>
    <tile gid="1"/>
    <tile gid="1"/>
    <tile gid="1"/>
    <tile gid="258"/>
    <tile gid="1"/>
    <tile gid="1"/>
    <tile gid="1"/>
    <tile gid="1"/>
    <tile gid="1"/>
    <tile gid="257"/>
    <tile gid="1"/>
    <tile gid="1"/>
    <tile gid="1"/>
    <tile gid="1"/>
    <tile gid="1"/>
    <tile gid="1"/>
    <tile gid="1"/>
    <tile gid="1"/>
    <tile gid="1"/>
    <tile gid="1"/>
    <tile gid="1"/>
    <tile gid="1"/>
    <tile gid="1"/>
    <tile gid="1"/>
    <tile gid="1"/>
    <tile gid="1"/>
    <tile gid="1"/>
    <tile gid="258"/>
    <tile gid="1"/>
    <tile gid="1"/>
    <tile gid="1"/>
    <tile gid="1"/>
    <tile gid="1"/>
    <tile gid="1"/>
    <tile gid="1"/>
    <tile gid="1"/>
    <tile gid="257"/>
    <tile gid="1"/>
    <tile gid="1"/>
    <tile gid="1"/>
    <tile gid="1"/>
    <tile gid="1"/>
    <tile gid="1"/>
    <tile gid="1"/>
    <tile gid="1"/>
    <tile gid="1"/>
    <tile gid="1"/>
    <tile gid="1"/>
    <tile gid="1"/>
    <tile gid="1"/>
    <tile gid="1"/>
    <tile gid="1"/>
    <tile gid="1"/>
    <tile gid="258"/>
    <tile gid="1"/>
    <tile gid="1"/>
    <tile gid="1"/>
    <tile gid="1"/>
    <tile gid="1"/>
    <tile gid="257"/>
    <tile gid="1"/>
    <tile gid="1"/>
    <tile gid="1"/>
    <tile gid="1"/>
    <tile gid="1"/>
    <tile gid="1"/>
    <tile gid="1"/>
    <tile gid="1"/>
    <tile gid="1"/>
    <tile gid="1"/>
    <tile gid="1"/>
    <tile gid="1"/>
    <tile gid="1"/>
    <tile gid="1"/>
    <tile gid="1"/>
    <tile gid="1"/>
    <tile gid="1"/>
    <tile gid="258"/>
    <tile gid="1"/>
    <tile gid="1"/>
    <tile gid="1"/>
    <tile gid="1"/>
    <tile gid="1"/>
    <tile gid="1"/>
    <tile gid="1"/>
    <tile gid="1"/>
    <tile gid="257"/>
    <tile gid="1"/>
    <tile gid="1"/>
    <tile gid="1"/>
    <tile gid="1"/>
    <tile gid="1"/>
    <tile gid="1"/>
    <tile gid="1"/>
    <tile gid="1"/>
    <tile gid="1"/>
    <tile gid="1"/>
    <tile gid="1"/>
    <tile gid="1"/>
    <tile gid="1"/>
    <tile gid="1"/>
    <tile gid="1"/>
    <tile gid="1"/>
    <tile gid="290"/>
    <tile gid="1"/>
    <tile gid="1"/>
    <tile gid="1"/>
    <tile gid="1"/>
    <tile gid="1"/>
    <tile gid="289"/>
    <tile gid="1"/>
    <tile gid="1"/>
    <tile gid="1"/>
    <tile gid="1"/>
    <tile gid="1"/>
    <tile gid="1"/>
    <tile gid="1"/>
    <tile gid="1"/>
    <tile gid="1"/>
    <tile gid="1"/>
    <tile gid="1"/>
    <tile gid="1"/>
    <tile gid="1"/>
    <tile gid="1"/>
    <tile gid="1"/>
    <tile gid="1"/>
    <tile gid="1"/>
    <tile gid="290"/>
    <tile gid="1"/>
    <tile gid="1"/>
    <tile gid="1"/>
    <tile gid="1"/>
    <tile gid="1"/>
    <tile gid="1"/>
    <tile gid="1"/>
    <tile gid="1"/>
    <tile gid="257"/>
    <tile gid="1"/>
    <tile gid="1"/>
    <tile gid="1"/>
    <tile gid="1"/>
    <tile gid="1"/>
    <tile gid="1"/>
    <tile gid="1"/>
    <tile gid="290"/>
    <tile gid="1"/>
    <tile gid="1"/>
    <tile gid="1"/>
    <tile gid="1"/>
    <tile gid="1"/>
    <tile gid="1"/>
    <tile gid="1"/>
    <tile gid="1"/>
    <tile gid="1"/>
    <tile gid="1"/>
    <tile gid="1"/>
    <tile gid="1"/>
    <tile gid="1"/>
    <tile gid="1"/>
    <tile gid="1"/>
    <tile gid="1"/>
    <tile gid="1"/>
    <tile gid="1"/>
    <tile gid="1"/>
    <tile gid="1"/>
    <tile gid="1"/>
    <tile gid="1"/>
    <tile gid="1"/>
    <tile gid="1"/>
    <tile gid="1"/>
    <tile gid="1"/>
    <tile gid="1"/>
    <tile gid="1"/>
    <tile gid="1"/>
    <tile gid="1"/>
    <tile gid="1"/>
    <tile gid="1"/>
    <tile gid="1"/>
    <tile gid="1"/>
    <tile gid="1"/>
    <tile gid="1"/>
    <tile gid="1"/>
    <tile gid="1"/>
    <tile gid="1"/>
    <tile gid="1"/>
    <tile gid="1"/>
    <tile gid="257"/>
    <tile gid="1"/>
    <tile gid="1"/>
    <tile gid="1"/>
    <tile gid="1"/>
    <tile gid="1"/>
    <tile gid="258"/>
    <tile gid="1"/>
    <tile gid="1"/>
    <tile gid="1"/>
    <tile gid="1"/>
    <tile gid="1"/>
    <tile gid="1"/>
    <tile gid="1"/>
    <tile gid="1"/>
    <tile gid="1"/>
    <tile gid="1"/>
    <tile gid="1"/>
    <tile gid="1"/>
    <tile gid="1"/>
    <tile gid="1"/>
    <tile gid="1"/>
    <tile gid="1"/>
    <tile gid="1"/>
    <tile gid="1"/>
    <tile gid="1"/>
    <tile gid="1"/>
    <tile gid="1"/>
    <tile gid="1"/>
    <tile gid="1"/>
    <tile gid="1"/>
    <tile gid="1"/>
    <tile gid="1"/>
    <tile gid="1"/>
    <tile gid="1"/>
    <tile gid="1"/>
    <tile gid="1"/>
    <tile gid="1"/>
    <tile gid="1"/>
    <tile gid="1"/>
    <tile gid="1"/>
    <tile gid="1"/>
    <tile gid="1"/>
    <tile gid="1"/>
    <tile gid="1"/>
    <tile gid="1"/>
    <tile gid="1"/>
    <tile gid="1"/>
    <tile gid="1"/>
    <tile gid="1"/>
    <tile gid="289"/>
    <tile gid="1"/>
    <tile gid="1"/>
    <tile gid="1"/>
    <tile gid="1"/>
    <tile gid="1"/>
    <tile gid="290"/>
    <tile gid="1"/>
    <tile gid="1"/>
    <tile gid="1"/>
    <tile gid="1"/>
    <tile gid="1"/>
    <tile gid="1"/>
    <tile gid="1"/>
    <tile gid="1"/>
    <tile gid="1"/>
    <tile gid="1"/>
    <tile gid="1"/>
    <tile gid="1"/>
    <tile gid="1"/>
    <tile gid="1"/>
   </data>
  </layer>
  <layer id="72" name="upper_walls" width="50" height="50">
   <data>
    <tile gid="1"/>
    <tile gid="1"/>
    <tile gid="1"/>
    <tile gid="1"/>
    <tile gid="1"/>
    <tile gid="1"/>
    <tile gid="1"/>
    <tile gid="1"/>
    <tile gid="1"/>
    <tile gid="1"/>
    <tile gid="1"/>
    <tile gid="1"/>
    <tile gid="1"/>
    <tile gid="1"/>
    <tile gid="1"/>
    <tile gid="1"/>
    <tile gid="1"/>
    <tile gid="1"/>
    <tile gid="1"/>
    <tile gid="1"/>
    <tile gid="1"/>
    <tile gid="1"/>
    <tile gid="1"/>
    <tile gid="1"/>
    <tile gid="1"/>
    <tile gid="1"/>
    <tile gid="1"/>
    <tile gid="1"/>
    <tile gid="1"/>
    <tile gid="1"/>
    <tile gid="1"/>
    <tile gid="1"/>
    <tile gid="1"/>
    <tile gid="1"/>
    <tile gid="1"/>
    <tile gid="1"/>
    <tile gid="1"/>
    <tile gid="1"/>
    <tile gid="1"/>
    <tile gid="1"/>
    <tile gid="1"/>
    <tile gid="1"/>
    <tile gid="1"/>
    <tile gid="1"/>
    <tile gid="1"/>
    <tile gid="1"/>
    <tile gid="1"/>
    <tile gid="1"/>
    <tile gid="1"/>
    <tile gid="1"/>
    <tile gid="1"/>
    <tile gid="1"/>
    <tile gid="1"/>
    <tile gid="1"/>
    <tile gid="1"/>
    <tile gid="1"/>
    <tile gid="1"/>
    <tile gid="1"/>
    <tile gid="1"/>
    <tile gid="1"/>
    <tile gid="1"/>
    <tile gid="1"/>
    <tile gid="1"/>
    <tile gid="1"/>
    <tile gid="1"/>
    <tile gid="1"/>
    <tile gid="1"/>
    <tile gid="1"/>
    <tile gid="1"/>
    <tile gid="1"/>
    <tile gid="1"/>
    <tile gid="1"/>
    <tile gid="1"/>
    <tile gid="1"/>
    <tile gid="1"/>
    <tile gid="1"/>
    <tile gid="1"/>
    <tile gid="1"/>
    <tile gid="1"/>
    <tile gid="1"/>
    <tile gid="1"/>
    <tile gid="1"/>
    <tile gid="1"/>
    <tile gid="1"/>
    <tile gid="1"/>
    <tile gid="1"/>
    <tile gid="1"/>
    <tile gid="1"/>
    <tile gid="1"/>
    <tile gid="1"/>
    <tile gid="1"/>
    <tile gid="1"/>
    <tile gid="1"/>
    <tile gid="1"/>
    <tile gid="1"/>
    <tile gid="1"/>
    <tile gid="1"/>
    <tile gid="1"/>
    <tile gid="1"/>
    <tile gid="1"/>
    <tile gid="1"/>
    <tile gid="1"/>
    <tile gid="1"/>
    <tile gid="1"/>
    <tile gid="1"/>
    <tile gid="1"/>
    <tile gid="1"/>
    <tile gid="1"/>
    <tile gid="1"/>
    <tile gid="1"/>
    <tile gid="1"/>
    <tile gid="1"/>
    <tile gid="1"/>
    <tile gid="1"/>
    <tile gid="1"/>
    <tile gid="1"/>
    <tile gid="1"/>
    <tile gid="1"/>
    <tile gid="1"/>
    <tile gid="1"/>
    <tile gid="1"/>
    <tile gid="1"/>
    <tile gid="1"/>
    <tile gid="1"/>
    <tile gid="1"/>
    <tile gid="1"/>
    <tile gid="1"/>
    <tile gid="1"/>
    <tile gid="1"/>
    <tile gid="1"/>
    <tile gid="1"/>
    <tile gid="1"/>
    <tile gid="1"/>
    <tile gid="1"/>
    <tile gid="1"/>
    <tile gid="1"/>
    <tile gid="1"/>
    <tile gid="1"/>
    <tile gid="1"/>
    <tile gid="1"/>
    <tile gid="1"/>
    <tile gid="1"/>
    <tile gid="1"/>
    <tile gid="1"/>
    <tile gid="1"/>
    <tile gid="1"/>
    <tile gid="1"/>
    <tile gid="1"/>
    <tile gid="1"/>
    <tile gid="1"/>
    <tile gid="1"/>
    <tile gid="1"/>
    <tile gid="1"/>
    <tile gid="1"/>
    <tile gid="1"/>
    <tile gid="1"/>
    <tile gid="1"/>
    <tile gid="1"/>
    <tile gid="1"/>
    <tile gid="1"/>
    <tile gid="1"/>
    <tile gid="1"/>
    <tile gid="1"/>
    <tile gid="1"/>
    <tile gid="1"/>
    <tile gid="1"/>
    <tile gid="1"/>
    <tile gid="1"/>
    <tile gid="1"/>
    <tile gid="1"/>
    <tile gid="1"/>
    <tile gid="1"/>
    <tile gid="1"/>
    <tile gid="1"/>
    <tile gid="1"/>
    <tile gid="1"/>
    <tile gid="1"/>
    <tile gid="1"/>
    <tile gid="1"/>
    <tile gid="1"/>
    <tile gid="1"/>
    <tile gid="1"/>
    <tile gid="1"/>
    <tile gid="1"/>
    <tile gid="1"/>
    <tile gid="1"/>
    <tile gid="1"/>
    <tile gid="1"/>
    <tile gid="1"/>
    <tile gid="1"/>
    <tile gid="1"/>
    <tile gid="1"/>
    <tile gid="1"/>
    <tile gid="1"/>
    <tile gid="1"/>
    <tile gid="1"/>
    <tile gid="1"/>
    <tile gid="1"/>
    <tile gid="1"/>
    <tile gid="1"/>
    <tile gid="1"/>
    <tile gid="1"/>
    <tile gid="1"/>
    <tile gid="1"/>
    <tile gid="1"/>
    <tile gid="1"/>
    <tile gid="1"/>
    <tile gid="1"/>
    <tile gid="1"/>
    <tile gid="1"/>
    <tile gid="1"/>
    <tile gid="1"/>
    <tile gid="1"/>
    <tile gid="1"/>
    <tile gid="1"/>
    <tile gid="1"/>
    <tile gid="1"/>
    <tile gid="1"/>
    <tile gid="1"/>
    <tile gid="1"/>
    <tile gid="1"/>
    <tile gid="1"/>
    <tile gid="1"/>
    <tile gid="1"/>
    <tile gid="1"/>
    <tile gid="1"/>
    <tile gid="1"/>
    <tile gid="1"/>
    <tile gid="1"/>
    <tile gid="1"/>
    <tile gid="1"/>
    <tile gid="1"/>
    <tile gid="1"/>
    <tile gid="1"/>
    <tile gid="1"/>
    <tile gid="1"/>
    <tile gid="1"/>
    <tile gid="1"/>
    <tile gid="1"/>
    <tile gid="1"/>
    <tile gid="1"/>
    <tile gid="1"/>
    <tile gid="1"/>
    <tile gid="1"/>
    <tile gid="1"/>
    <tile gid="1"/>
    <tile gid="1"/>
    <tile gid="1"/>
    <tile gid="1"/>
    <tile gid="1"/>
    <tile gid="1"/>
    <tile gid="1"/>
    <tile gid="1"/>
    <tile gid="1"/>
    <tile gid="1"/>
    <tile gid="1"/>
    <tile gid="1"/>
    <tile gid="1"/>
    <tile gid="1"/>
    <tile gid="1"/>
    <tile gid="1"/>
    <tile gid="1"/>
    <tile gid="1"/>
    <tile gid="1"/>
    <tile gid="1"/>
    <tile gid="1"/>
    <tile gid="1"/>
    <tile gid="1"/>
    <tile gid="1"/>
    <tile gid="1"/>
    <tile gid="1"/>
    <tile gid="1"/>
    <tile gid="1"/>
    <tile gid="1"/>
    <tile gid="1"/>
    <tile gid="1"/>
    <tile gid="1"/>
    <tile gid="1"/>
    <tile gid="1"/>
    <tile gid="1"/>
    <tile gid="1"/>
    <tile gid="1"/>
    <tile gid="1"/>
    <tile gid="1"/>
    <tile gid="1"/>
    <tile gid="1"/>
    <tile gid="1"/>
    <tile gid="1"/>
    <tile gid="1"/>
    <tile gid="1"/>
    <tile gid="1"/>
    <tile gid="1"/>
    <tile gid="1"/>
    <tile gid="1"/>
    <tile gid="1"/>
    <tile gid="1"/>
    <tile gid="1"/>
    <tile gid="1"/>
    <tile gid="1"/>
    <tile gid="1"/>
    <tile gid="1"/>
    <tile gid="1"/>
    <tile gid="1"/>
    <tile gid="1"/>
    <tile gid="1"/>
    <tile gid="1"/>
    <tile gid="1"/>
    <tile gid="1"/>
    <tile gid="1"/>
    <tile gid="1"/>
    <tile gid="1"/>
    <tile gid="1"/>
    <tile gid="1"/>
    <tile gid="1"/>
    <tile gid="1"/>
    <tile gid="1"/>
    <tile gid="1"/>
    <tile gid="1"/>
    <tile gid="1"/>
    <tile gid="1"/>
    <tile gid="1"/>
    <tile gid="1"/>
    <tile gid="1"/>
    <tile gid="1"/>
    <tile gid="1"/>
    <tile gid="1"/>
    <tile gid="1"/>
    <tile gid="1"/>
    <tile gid="1"/>
    <tile gid="1"/>
    <tile gid="1"/>
    <tile gid="1"/>
    <tile gid="1"/>
    <tile gid="1"/>
    <tile gid="1"/>
    <tile gid="1"/>
    <tile gid="1"/>
    <tile gid="1"/>
    <tile gid="1"/>
    <tile gid="1"/>
    <tile gid="1"/>
    <tile gid="1"/>
    <tile gid="1"/>
    <tile gid="1"/>
    <tile gid="1"/>
    <tile gid="1"/>
    <tile gid="1"/>
    <tile gid="1"/>
    <tile gid="1"/>
    <tile gid="1"/>
    <tile gid="1"/>
    <tile gid="1"/>
    <tile gid="1"/>
    <tile gid="1"/>
    <tile gid="1"/>
    <tile gid="1"/>
    <tile gid="1"/>
    <tile gid="1"/>
    <tile gid="1"/>
    <tile gid="1"/>
    <tile gid="1"/>
    <tile gid="1"/>
    <tile gid="1"/>
    <tile gid="1"/>
    <tile gid="1"/>
    <tile gid="1"/>
    <tile gid="1"/>
    <tile gid="1"/>
    <tile gid="1"/>
    <tile gid="1"/>
    <tile gid="1"/>
    <tile gid="1"/>
    <tile gid="1"/>
    <tile gid="1"/>
    <tile gid="1"/>
    <tile gid="1"/>
    <tile gid="1"/>
    <tile gid="1"/>
    <tile gid="1"/>
    <tile gid="1"/>
    <tile gid="1"/>
    <tile gid="1"/>
    <tile gid="1"/>
    <tile gid="1"/>
    <tile gid="1"/>
    <tile gid="1"/>
    <tile gid="1"/>
    <tile gid="1"/>
    <tile gid="1"/>
    <tile gid="1"/>
    <tile gid="1"/>
    <tile gid="1"/>
    <tile gid="1"/>
    <tile gid="1"/>
    <tile gid="1"/>
    <tile gid="1"/>
    <tile gid="1"/>
    <tile gid="1"/>
    <tile gid="1"/>
    <tile gid="1"/>
    <tile gid="1"/>
    <tile gid="1"/>
    <tile gid="1"/>
    <tile gid="1"/>
    <tile gid="1"/>
    <tile gid="1"/>
    <tile gid="1"/>
    <tile gid="1"/>
    <tile gid="1"/>
    <tile gid="1"/>
    <tile gid="1"/>
    <tile gid="1"/>
    <tile gid="1"/>
    <tile gid="1"/>
    <tile gid="1"/>
    <tile gid="1"/>
    <tile gid="1"/>
    <tile gid="1"/>
    <tile gid="1"/>
    <tile gid="1"/>
    <tile gid="4"/>
    <tile gid="2"/>
    <tile gid="2"/>
    <tile gid="228"/>
    <tile gid="1"/>
    <tile gid="1"/>
    <tile gid="227"/>
    <tile gid="2"/>
    <tile gid="2"/>
    <tile gid="4"/>
    <tile gid="1"/>
    <tile gid="1"/>
    <tile gid="1"/>
    <tile gid="1"/>
    <tile gid="1"/>
    <tile gid="1"/>
    <tile gid="1"/>
    <tile gid="1"/>
    <tile gid="1"/>
    <tile gid="1"/>
    <tile gid="1"/>
    <tile gid="1"/>
    <tile gid="1"/>
    <tile gid="1"/>
    <tile gid="1"/>
    <tile gid="1"/>
    <tile gid="1"/>
    <tile gid="1"/>
    <tile gid="1"/>
    <tile gid="1"/>
    <tile gid="1"/>
    <tile gid="1"/>
    <tile gid="1"/>
    <tile gid="1"/>
    <tile gid="1"/>
    <tile gid="1"/>
    <tile gid="1"/>
    <tile gid="1"/>
    <tile gid="1"/>
    <tile gid="1"/>
    <tile gid="1"/>
    <tile gid="1"/>
    <tile gid="1"/>
    <tile gid="1"/>
    <tile gid="1"/>
    <tile gid="1"/>
    <tile gid="1"/>
    <tile gid="1"/>
    <tile gid="1"/>
    <tile gid="1"/>
    <tile gid="34"/>
    <tile gid="165"/>
    <tile gid="34"/>
    <tile gid="260"/>
    <tile gid="1"/>
    <tile gid="1"/>
    <tile gid="259"/>
    <tile gid="34"/>
    <tile gid="165"/>
    <tile gid="324"/>
    <tile gid="1"/>
    <tile gid="1"/>
    <tile gid="1"/>
    <tile gid="1"/>
    <tile gid="1"/>
    <tile gid="1"/>
    <tile gid="1"/>
    <tile gid="1"/>
    <tile gid="1"/>
    <tile gid="1"/>
    <tile gid="1"/>
    <tile gid="1"/>
    <tile gid="1"/>
    <tile gid="1"/>
    <tile gid="1"/>
    <tile gid="1"/>
    <tile gid="1"/>
    <tile gid="1"/>
    <tile gid="1"/>
    <tile gid="1"/>
    <tile gid="1"/>
    <tile gid="1"/>
    <tile gid="1"/>
    <tile gid="1"/>
    <tile gid="1"/>
    <tile gid="1"/>
    <tile gid="1"/>
    <tile gid="1"/>
    <tile gid="1"/>
    <tile gid="1"/>
    <tile gid="1"/>
    <tile gid="1"/>
    <tile gid="1"/>
    <tile gid="1"/>
    <tile gid="1"/>
    <tile gid="1"/>
    <tile gid="1"/>
    <tile gid="1"/>
    <tile gid="1"/>
    <tile gid="1"/>
    <tile gid="1"/>
    <tile gid="1"/>
    <tile gid="1"/>
    <tile gid="1"/>
    <tile gid="1"/>
    <tile gid="1"/>
    <tile gid="1"/>
    <tile gid="1"/>
    <tile gid="1"/>
    <tile gid="1"/>
    <tile gid="1"/>
    <tile gid="1"/>
    <tile gid="1"/>
    <tile gid="1"/>
    <tile gid="1"/>
    <tile gid="1"/>
    <tile gid="1"/>
    <tile gid="1"/>
    <tile gid="1"/>
    <tile gid="1"/>
    <tile gid="1"/>
    <tile gid="1"/>
    <tile gid="1"/>
    <tile gid="1"/>
    <tile gid="1"/>
    <tile gid="1"/>
    <tile gid="1"/>
    <tile gid="1"/>
    <tile gid="1"/>
    <tile gid="1"/>
    <tile gid="1"/>
    <tile gid="1"/>
    <tile gid="1"/>
    <tile gid="1"/>
    <tile gid="1"/>
    <tile gid="1"/>
    <tile gid="1"/>
    <tile gid="1"/>
    <tile gid="1"/>
    <tile gid="1"/>
    <tile gid="1"/>
    <tile gid="1"/>
    <tile gid="1"/>
    <tile gid="1"/>
    <tile gid="1"/>
    <tile gid="1"/>
    <tile gid="1"/>
    <tile gid="1"/>
    <tile gid="1"/>
    <tile gid="1"/>
    <tile gid="1"/>
    <tile gid="1"/>
    <tile gid="1"/>
    <tile gid="1"/>
    <tile gid="1"/>
    <tile gid="1"/>
    <tile gid="1"/>
    <tile gid="1"/>
    <tile gid="1"/>
    <tile gid="1"/>
    <tile gid="1"/>
    <tile gid="1"/>
    <tile gid="1"/>
    <tile gid="1"/>
    <tile gid="1"/>
    <tile gid="1"/>
    <tile gid="1"/>
    <tile gid="1"/>
    <tile gid="1"/>
    <tile gid="1"/>
    <tile gid="1"/>
    <tile gid="1"/>
    <tile gid="1"/>
    <tile gid="1"/>
    <tile gid="1"/>
    <tile gid="1"/>
    <tile gid="1"/>
    <tile gid="1"/>
    <tile gid="1"/>
    <tile gid="1"/>
    <tile gid="1"/>
    <tile gid="1"/>
    <tile gid="1"/>
    <tile gid="1"/>
    <tile gid="1"/>
    <tile gid="1"/>
    <tile gid="1"/>
    <tile gid="1"/>
    <tile gid="1"/>
    <tile gid="1"/>
    <tile gid="1"/>
    <tile gid="1"/>
    <tile gid="1"/>
    <tile gid="1"/>
    <tile gid="1"/>
    <tile gid="1"/>
    <tile gid="1"/>
    <tile gid="1"/>
    <tile gid="1"/>
    <tile gid="1"/>
    <tile gid="1"/>
    <tile gid="1"/>
    <tile gid="1"/>
    <tile gid="1"/>
    <tile gid="1"/>
    <tile gid="1"/>
    <tile gid="1"/>
    <tile gid="1"/>
    <tile gid="1"/>
    <tile gid="1"/>
    <tile gid="1"/>
    <tile gid="1"/>
    <tile gid="1"/>
    <tile gid="1"/>
    <tile gid="1"/>
    <tile gid="1"/>
    <tile gid="1"/>
    <tile gid="1"/>
    <tile gid="1"/>
    <tile gid="1"/>
    <tile gid="1"/>
    <tile gid="1"/>
    <tile gid="1"/>
    <tile gid="1"/>
    <tile gid="1"/>
    <tile gid="1"/>
    <tile gid="1"/>
    <tile gid="1"/>
    <tile gid="1"/>
    <tile gid="1"/>
    <tile gid="1"/>
    <tile gid="1"/>
    <tile gid="1"/>
    <tile gid="1"/>
    <tile gid="1"/>
    <tile gid="1"/>
    <tile gid="1"/>
    <tile gid="1"/>
    <tile gid="1"/>
    <tile gid="1"/>
    <tile gid="1"/>
    <tile gid="1"/>
    <tile gid="1"/>
    <tile gid="1"/>
    <tile gid="1"/>
    <tile gid="1"/>
    <tile gid="1"/>
    <tile gid="1"/>
    <tile gid="1"/>
    <tile gid="1"/>
    <tile gid="1"/>
    <tile gid="1"/>
    <tile gid="1"/>
    <tile gid="1"/>
    <tile gid="1"/>
    <tile gid="1"/>
    <tile gid="1"/>
    <tile gid="1"/>
    <tile gid="1"/>
    <tile gid="1"/>
    <tile gid="1"/>
    <tile gid="1"/>
    <tile gid="1"/>
    <tile gid="1"/>
    <tile gid="1"/>
    <tile gid="1"/>
    <tile gid="1"/>
    <tile gid="1"/>
    <tile gid="1"/>
    <tile gid="1"/>
    <tile gid="1"/>
    <tile gid="1"/>
    <tile gid="1"/>
    <tile gid="1"/>
    <tile gid="1"/>
    <tile gid="1"/>
    <tile gid="1"/>
    <tile gid="1"/>
    <tile gid="1"/>
    <tile gid="1"/>
    <tile gid="1"/>
    <tile gid="1"/>
    <tile gid="1"/>
    <tile gid="1"/>
    <tile gid="1"/>
    <tile gid="1"/>
    <tile gid="1"/>
    <tile gid="1"/>
    <tile gid="1"/>
    <tile gid="1"/>
    <tile gid="1"/>
    <tile gid="1"/>
    <tile gid="1"/>
    <tile gid="1"/>
    <tile gid="1"/>
    <tile gid="1"/>
    <tile gid="1"/>
    <tile gid="1"/>
    <tile gid="1"/>
    <tile gid="1"/>
    <tile gid="1"/>
    <tile gid="1"/>
    <tile gid="1"/>
    <tile gid="1"/>
    <tile gid="1"/>
    <tile gid="1"/>
    <tile gid="1"/>
    <tile gid="1"/>
    <tile gid="1"/>
    <tile gid="1"/>
    <tile gid="1"/>
    <tile gid="1"/>
    <tile gid="1"/>
    <tile gid="1"/>
    <tile gid="1"/>
    <tile gid="1"/>
    <tile gid="1"/>
    <tile gid="1"/>
    <tile gid="1"/>
    <tile gid="1"/>
    <tile gid="1"/>
    <tile gid="1"/>
    <tile gid="1"/>
    <tile gid="1"/>
    <tile gid="1"/>
    <tile gid="1"/>
    <tile gid="1"/>
    <tile gid="1"/>
    <tile gid="1"/>
    <tile gid="1"/>
    <tile gid="1"/>
    <tile gid="1"/>
    <tile gid="1"/>
    <tile gid="1"/>
    <tile gid="1"/>
    <tile gid="1"/>
    <tile gid="1"/>
    <tile gid="1"/>
    <tile gid="1"/>
    <tile gid="1"/>
    <tile gid="1"/>
    <tile gid="1"/>
    <tile gid="1"/>
    <tile gid="1"/>
    <tile gid="1"/>
    <tile gid="1"/>
    <tile gid="1"/>
    <tile gid="1"/>
    <tile gid="1"/>
    <tile gid="1"/>
    <tile gid="1"/>
    <tile gid="1"/>
    <tile gid="1"/>
    <tile gid="1"/>
    <tile gid="1"/>
    <tile gid="1"/>
    <tile gid="1"/>
    <tile gid="1"/>
    <tile gid="1"/>
    <tile gid="1"/>
    <tile gid="1"/>
    <tile gid="1"/>
    <tile gid="1"/>
    <tile gid="1"/>
    <tile gid="1"/>
    <tile gid="1"/>
    <tile gid="1"/>
    <tile gid="1"/>
    <tile gid="1"/>
    <tile gid="1"/>
    <tile gid="1"/>
    <tile gid="1"/>
    <tile gid="1"/>
    <tile gid="1"/>
    <tile gid="1"/>
    <tile gid="1"/>
    <tile gid="1"/>
    <tile gid="1"/>
    <tile gid="1"/>
    <tile gid="1"/>
    <tile gid="1"/>
    <tile gid="1"/>
    <tile gid="1"/>
    <tile gid="1"/>
    <tile gid="1"/>
    <tile gid="1"/>
    <tile gid="1"/>
    <tile gid="1"/>
    <tile gid="1"/>
    <tile gid="1"/>
    <tile gid="1"/>
    <tile gid="1"/>
    <tile gid="1"/>
    <tile gid="1"/>
    <tile gid="1"/>
    <tile gid="1"/>
    <tile gid="1"/>
    <tile gid="1"/>
    <tile gid="1"/>
    <tile gid="1"/>
    <tile gid="1"/>
    <tile gid="1"/>
    <tile gid="1"/>
    <tile gid="1"/>
    <tile gid="1"/>
    <tile gid="1"/>
    <tile gid="1"/>
    <tile gid="1"/>
    <tile gid="1"/>
    <tile gid="1"/>
    <tile gid="1"/>
    <tile gid="1"/>
    <tile gid="1"/>
    <tile gid="1"/>
    <tile gid="1"/>
    <tile gid="1"/>
    <tile gid="1"/>
    <tile gid="1"/>
    <tile gid="1"/>
    <tile gid="1"/>
    <tile gid="1"/>
    <tile gid="1"/>
    <tile gid="1"/>
    <tile gid="1"/>
    <tile gid="1"/>
    <tile gid="1"/>
    <tile gid="1"/>
    <tile gid="1"/>
    <tile gid="1"/>
    <tile gid="1"/>
    <tile gid="1"/>
    <tile gid="1"/>
    <tile gid="1"/>
    <tile gid="1"/>
    <tile gid="1"/>
    <tile gid="1"/>
    <tile gid="1"/>
    <tile gid="1"/>
    <tile gid="1"/>
    <tile gid="1"/>
    <tile gid="1"/>
    <tile gid="1"/>
    <tile gid="1"/>
    <tile gid="1"/>
    <tile gid="1"/>
    <tile gid="1"/>
    <tile gid="1"/>
    <tile gid="1"/>
    <tile gid="1"/>
    <tile gid="1"/>
    <tile gid="1"/>
    <tile gid="1"/>
    <tile gid="1"/>
    <tile gid="1"/>
    <tile gid="1"/>
    <tile gid="1"/>
    <tile gid="1"/>
    <tile gid="1"/>
    <tile gid="1"/>
    <tile gid="1"/>
    <tile gid="1"/>
    <tile gid="1"/>
    <tile gid="1"/>
    <tile gid="1"/>
    <tile gid="1"/>
    <tile gid="1"/>
    <tile gid="1"/>
    <tile gid="1"/>
    <tile gid="1"/>
    <tile gid="1"/>
    <tile gid="1"/>
    <tile gid="1"/>
    <tile gid="1"/>
    <tile gid="1"/>
    <tile gid="1"/>
    <tile gid="1"/>
    <tile gid="1"/>
    <tile gid="1"/>
    <tile gid="1"/>
    <tile gid="1"/>
    <tile gid="1"/>
    <tile gid="1"/>
    <tile gid="1"/>
    <tile gid="1"/>
    <tile gid="1"/>
    <tile gid="1"/>
    <tile gid="1"/>
    <tile gid="1"/>
    <tile gid="1"/>
    <tile gid="1"/>
    <tile gid="1"/>
    <tile gid="1"/>
    <tile gid="1"/>
    <tile gid="1"/>
    <tile gid="1"/>
    <tile gid="1"/>
    <tile gid="1"/>
    <tile gid="1"/>
    <tile gid="1"/>
    <tile gid="1"/>
    <tile gid="1"/>
    <tile gid="1"/>
    <tile gid="1"/>
    <tile gid="1"/>
    <tile gid="1"/>
    <tile gid="1"/>
    <tile gid="1"/>
    <tile gid="1"/>
    <tile gid="1"/>
    <tile gid="1"/>
    <tile gid="1"/>
    <tile gid="1"/>
    <tile gid="1"/>
    <tile gid="1"/>
    <tile gid="1"/>
    <tile gid="1"/>
    <tile gid="1"/>
    <tile gid="1"/>
    <tile gid="1"/>
    <tile gid="1"/>
    <tile gid="1"/>
    <tile gid="1"/>
    <tile gid="1"/>
    <tile gid="1"/>
    <tile gid="1"/>
    <tile gid="1"/>
    <tile gid="1"/>
    <tile gid="1"/>
    <tile gid="1"/>
    <tile gid="1"/>
    <tile gid="1"/>
    <tile gid="1"/>
    <tile gid="1"/>
    <tile gid="1"/>
    <tile gid="1"/>
    <tile gid="1"/>
    <tile gid="1"/>
    <tile gid="1"/>
    <tile gid="1"/>
    <tile gid="1"/>
    <tile gid="1"/>
    <tile gid="1"/>
    <tile gid="1"/>
    <tile gid="1"/>
    <tile gid="1"/>
    <tile gid="1"/>
    <tile gid="1"/>
    <tile gid="1"/>
    <tile gid="1"/>
    <tile gid="1"/>
    <tile gid="1"/>
    <tile gid="1"/>
    <tile gid="1"/>
    <tile gid="1"/>
    <tile gid="166"/>
    <tile gid="1"/>
    <tile gid="1"/>
    <tile gid="1"/>
    <tile gid="1"/>
    <tile gid="1"/>
    <tile gid="1"/>
    <tile gid="1"/>
    <tile gid="1"/>
    <tile gid="1"/>
    <tile gid="1"/>
    <tile gid="1"/>
    <tile gid="1"/>
    <tile gid="1"/>
    <tile gid="1"/>
    <tile gid="1"/>
    <tile gid="1"/>
    <tile gid="1"/>
    <tile gid="1"/>
    <tile gid="1"/>
    <tile gid="1"/>
    <tile gid="1"/>
    <tile gid="1"/>
    <tile gid="1"/>
    <tile gid="1"/>
    <tile gid="1"/>
    <tile gid="1"/>
    <tile gid="1"/>
    <tile gid="1"/>
    <tile gid="1"/>
    <tile gid="1"/>
    <tile gid="1"/>
    <tile gid="1"/>
    <tile gid="1"/>
    <tile gid="1"/>
    <tile gid="1"/>
    <tile gid="1"/>
    <tile gid="1"/>
    <tile gid="1"/>
    <tile gid="1"/>
    <tile gid="1"/>
    <tile gid="1"/>
    <tile gid="1"/>
    <tile gid="1"/>
    <tile gid="1"/>
    <tile gid="1"/>
    <tile gid="1"/>
    <tile gid="1"/>
    <tile gid="1"/>
    <tile gid="1"/>
    <tile gid="1"/>
    <tile gid="1"/>
    <tile gid="1"/>
    <tile gid="1"/>
    <tile gid="1"/>
    <tile gid="1"/>
    <tile gid="1"/>
    <tile gid="1"/>
    <tile gid="1"/>
    <tile gid="1"/>
    <tile gid="1"/>
    <tile gid="1"/>
    <tile gid="1"/>
    <tile gid="1"/>
    <tile gid="1"/>
    <tile gid="1"/>
    <tile gid="1"/>
    <tile gid="1"/>
    <tile gid="1"/>
    <tile gid="1"/>
    <tile gid="1"/>
    <tile gid="1"/>
    <tile gid="1"/>
    <tile gid="1"/>
    <tile gid="1"/>
    <tile gid="1"/>
    <tile gid="1"/>
    <tile gid="1"/>
    <tile gid="1"/>
    <tile gid="1"/>
    <tile gid="1"/>
    <tile gid="1"/>
    <tile gid="1"/>
    <tile gid="1"/>
    <tile gid="1"/>
    <tile gid="1"/>
    <tile gid="1"/>
    <tile gid="1"/>
    <tile gid="1"/>
    <tile gid="1"/>
    <tile gid="1"/>
    <tile gid="1"/>
    <tile gid="1"/>
    <tile gid="1"/>
    <tile gid="1"/>
    <tile gid="1"/>
    <tile gid="1"/>
    <tile gid="1"/>
    <tile gid="1"/>
    <tile gid="1"/>
    <tile gid="1"/>
    <tile gid="1"/>
    <tile gid="1"/>
    <tile gid="1"/>
    <tile gid="1"/>
    <tile gid="1"/>
    <tile gid="1"/>
    <tile gid="1"/>
    <tile gid="1"/>
    <tile gid="1"/>
    <tile gid="1"/>
    <tile gid="1"/>
    <tile gid="1"/>
    <tile gid="1"/>
    <tile gid="1"/>
    <tile gid="1"/>
    <tile gid="2"/>
    <tile gid="2"/>
    <tile gid="228"/>
    <tile gid="1"/>
    <tile gid="1"/>
    <tile gid="227"/>
    <tile gid="2"/>
    <tile gid="3"/>
    <tile gid="1"/>
    <tile gid="1"/>
    <tile gid="1"/>
    <tile gid="1"/>
    <tile gid="1"/>
    <tile gid="1"/>
    <tile gid="1"/>
    <tile gid="1"/>
    <tile gid="1"/>
    <tile gid="1"/>
    <tile gid="1"/>
    <tile gid="1"/>
    <tile gid="1"/>
    <tile gid="1"/>
    <tile gid="1"/>
    <tile gid="1"/>
    <tile gid="1"/>
    <tile gid="1"/>
    <tile gid="1"/>
    <tile gid="1"/>
    <tile gid="1"/>
    <tile gid="166"/>
    <tile gid="1"/>
    <tile gid="1"/>
    <tile gid="1"/>
    <tile gid="1"/>
    <tile gid="1"/>
    <tile gid="1"/>
    <tile gid="1"/>
    <tile gid="1"/>
    <tile gid="1"/>
    <tile gid="1"/>
    <tile gid="1"/>
    <tile gid="1"/>
    <tile gid="1"/>
    <tile gid="1"/>
    <tile gid="1"/>
    <tile gid="1"/>
    <tile gid="1"/>
    <tile gid="1"/>
    <tile gid="1"/>
    <tile gid="1"/>
    <tile gid="34"/>
    <tile gid="165"/>
    <tile gid="260"/>
    <tile gid="1"/>
    <tile gid="1"/>
    <tile gid="259"/>
    <tile gid="165"/>
    <tile gid="324"/>
    <tile gid="1"/>
    <tile gid="1"/>
    <tile gid="1"/>
    <tile gid="1"/>
    <tile gid="1"/>
    <tile gid="1"/>
    <tile gid="1"/>
    <tile gid="1"/>
    <tile gid="1"/>
    <tile gid="1"/>
    <tile gid="1"/>
    <tile gid="1"/>
    <tile gid="1"/>
    <tile gid="1"/>
    <tile gid="1"/>
    <tile gid="1"/>
    <tile gid="1"/>
    <tile gid="1"/>
    <tile gid="1"/>
    <tile gid="1"/>
    <tile gid="1"/>
    <tile gid="1"/>
    <tile gid="1"/>
    <tile gid="1"/>
    <tile gid="1"/>
    <tile gid="1"/>
    <tile gid="1"/>
    <tile gid="1"/>
    <tile gid="166"/>
    <tile gid="1"/>
    <tile gid="1"/>
    <tile gid="1"/>
    <tile gid="1"/>
    <tile gid="1"/>
    <tile gid="1"/>
    <tile gid="1"/>
    <tile gid="1"/>
    <tile gid="1"/>
    <tile gid="1"/>
    <tile gid="1"/>
    <tile gid="1"/>
    <tile gid="1"/>
    <tile gid="1"/>
    <tile gid="1"/>
    <tile gid="1"/>
    <tile gid="1"/>
    <tile gid="1"/>
    <tile gid="1"/>
    <tile gid="1"/>
    <tile gid="1"/>
    <tile gid="1"/>
    <tile gid="1"/>
    <tile gid="1"/>
    <tile gid="1"/>
    <tile gid="1"/>
    <tile gid="1"/>
    <tile gid="1"/>
    <tile gid="1"/>
    <tile gid="1"/>
    <tile gid="1"/>
    <tile gid="1"/>
    <tile gid="1"/>
    <tile gid="1"/>
    <tile gid="1"/>
    <tile gid="1"/>
    <tile gid="1"/>
    <tile gid="1"/>
    <tile gid="1"/>
    <tile gid="1"/>
    <tile gid="1"/>
    <tile gid="1"/>
    <tile gid="1"/>
    <tile gid="1"/>
    <tile gid="1"/>
    <tile gid="1"/>
    <tile gid="1"/>
    <tile gid="1"/>
    <tile gid="1"/>
    <tile gid="1"/>
    <tile gid="1"/>
    <tile gid="1"/>
    <tile gid="1"/>
    <tile gid="166"/>
    <tile gid="1"/>
    <tile gid="1"/>
    <tile gid="1"/>
    <tile gid="1"/>
    <tile gid="1"/>
    <tile gid="1"/>
    <tile gid="1"/>
    <tile gid="1"/>
    <tile gid="1"/>
    <tile gid="1"/>
    <tile gid="1"/>
    <tile gid="1"/>
    <tile gid="1"/>
    <tile gid="1"/>
    <tile gid="1"/>
    <tile gid="1"/>
    <tile gid="1"/>
    <tile gid="1"/>
    <tile gid="1"/>
    <tile gid="1"/>
    <tile gid="1"/>
    <tile gid="1"/>
    <tile gid="1"/>
    <tile gid="1"/>
    <tile gid="1"/>
    <tile gid="1"/>
    <tile gid="1"/>
    <tile gid="1"/>
    <tile gid="1"/>
    <tile gid="1"/>
    <tile gid="1"/>
    <tile gid="1"/>
    <tile gid="1"/>
    <tile gid="1"/>
    <tile gid="1"/>
    <tile gid="1"/>
    <tile gid="1"/>
    <tile gid="1"/>
    <tile gid="1"/>
    <tile gid="1"/>
    <tile gid="1"/>
    <tile gid="1"/>
    <tile gid="1"/>
    <tile gid="1"/>
    <tile gid="1"/>
    <tile gid="1"/>
    <tile gid="1"/>
    <tile gid="1"/>
    <tile gid="1"/>
    <tile gid="1"/>
    <tile gid="1"/>
    <tile gid="1"/>
    <tile gid="1"/>
    <tile gid="1"/>
    <tile gid="1"/>
    <tile gid="1"/>
    <tile gid="1"/>
    <tile gid="1"/>
    <tile gid="1"/>
    <tile gid="1"/>
    <tile gid="1"/>
    <tile gid="1"/>
    <tile gid="1"/>
    <tile gid="1"/>
    <tile gid="1"/>
    <tile gid="1"/>
    <tile gid="1"/>
    <tile gid="1"/>
    <tile gid="1"/>
    <tile gid="1"/>
    <tile gid="1"/>
    <tile gid="1"/>
    <tile gid="1"/>
    <tile gid="1"/>
    <tile gid="1"/>
    <tile gid="1"/>
    <tile gid="1"/>
    <tile gid="1"/>
    <tile gid="1"/>
    <tile gid="1"/>
    <tile gid="1"/>
    <tile gid="1"/>
    <tile gid="1"/>
    <tile gid="227"/>
    <tile gid="2"/>
    <tile gid="228"/>
    <tile gid="1"/>
    <tile gid="1"/>
    <tile gid="1"/>
    <tile gid="1"/>
    <tile gid="1"/>
    <tile gid="1"/>
    <tile gid="1"/>
    <tile gid="1"/>
    <tile gid="1"/>
    <tile gid="1"/>
    <tile gid="1"/>
    <tile gid="1"/>
    <tile gid="1"/>
    <tile gid="1"/>
    <tile gid="1"/>
    <tile gid="1"/>
    <tile gid="1"/>
    <tile gid="1"/>
    <tile gid="1"/>
    <tile gid="1"/>
    <tile gid="1"/>
    <tile gid="1"/>
    <tile gid="1"/>
    <tile gid="1"/>
    <tile gid="1"/>
    <tile gid="1"/>
    <tile gid="1"/>
    <tile gid="1"/>
    <tile gid="1"/>
    <tile gid="1"/>
    <tile gid="1"/>
    <tile gid="1"/>
    <tile gid="1"/>
    <tile gid="1"/>
    <tile gid="1"/>
    <tile gid="1"/>
    <tile gid="1"/>
    <tile gid="1"/>
    <tile gid="1"/>
    <tile gid="1"/>
    <tile gid="1"/>
    <tile gid="1"/>
    <tile gid="1"/>
    <tile gid="1"/>
    <tile gid="1"/>
    <tile gid="1"/>
    <tile gid="1"/>
    <tile gid="259"/>
    <tile gid="165"/>
    <tile gid="260"/>
    <tile gid="1"/>
    <tile gid="1"/>
    <tile gid="1"/>
    <tile gid="1"/>
    <tile gid="1"/>
    <tile gid="1"/>
    <tile gid="166"/>
    <tile gid="1"/>
    <tile gid="1"/>
    <tile gid="1"/>
    <tile gid="1"/>
    <tile gid="1"/>
    <tile gid="1"/>
    <tile gid="1"/>
    <tile gid="1"/>
    <tile gid="1"/>
    <tile gid="1"/>
    <tile gid="1"/>
    <tile gid="1"/>
    <tile gid="1"/>
    <tile gid="1"/>
    <tile gid="1"/>
    <tile gid="1"/>
    <tile gid="1"/>
    <tile gid="1"/>
    <tile gid="1"/>
    <tile gid="1"/>
    <tile gid="1"/>
    <tile gid="1"/>
    <tile gid="1"/>
    <tile gid="1"/>
    <tile gid="1"/>
    <tile gid="1"/>
    <tile gid="1"/>
    <tile gid="1"/>
    <tile gid="1"/>
    <tile gid="1"/>
    <tile gid="1"/>
    <tile gid="1"/>
    <tile gid="1"/>
    <tile gid="1"/>
    <tile gid="1"/>
    <tile gid="1"/>
    <tile gid="1"/>
    <tile gid="1"/>
    <tile gid="1"/>
    <tile gid="1"/>
    <tile gid="1"/>
    <tile gid="1"/>
    <tile gid="1"/>
    <tile gid="1"/>
    <tile gid="1"/>
    <tile gid="1"/>
    <tile gid="1"/>
    <tile gid="1"/>
    <tile gid="1"/>
    <tile gid="1"/>
    <tile gid="1"/>
    <tile gid="1"/>
    <tile gid="1"/>
    <tile gid="1"/>
    <tile gid="1"/>
    <tile gid="1"/>
    <tile gid="1"/>
    <tile gid="1"/>
    <tile gid="1"/>
    <tile gid="1"/>
    <tile gid="1"/>
    <tile gid="1"/>
    <tile gid="1"/>
    <tile gid="1"/>
    <tile gid="1"/>
    <tile gid="1"/>
    <tile gid="1"/>
    <tile gid="1"/>
    <tile gid="1"/>
    <tile gid="1"/>
    <tile gid="1"/>
    <tile gid="1"/>
    <tile gid="1"/>
    <tile gid="1"/>
    <tile gid="1"/>
    <tile gid="1"/>
    <tile gid="1"/>
    <tile gid="1"/>
    <tile gid="1"/>
    <tile gid="1"/>
    <tile gid="1"/>
    <tile gid="1"/>
    <tile gid="1"/>
    <tile gid="1"/>
    <tile gid="1"/>
    <tile gid="1"/>
    <tile gid="1"/>
    <tile gid="1"/>
    <tile gid="1"/>
    <tile gid="1"/>
    <tile gid="1"/>
    <tile gid="1"/>
    <tile gid="1"/>
    <tile gid="1"/>
    <tile gid="1"/>
    <tile gid="1"/>
    <tile gid="1"/>
    <tile gid="1"/>
    <tile gid="1"/>
    <tile gid="1"/>
    <tile gid="1"/>
    <tile gid="1"/>
    <tile gid="1"/>
    <tile gid="1"/>
    <tile gid="1"/>
    <tile gid="1"/>
    <tile gid="1"/>
    <tile gid="1"/>
    <tile gid="1"/>
    <tile gid="227"/>
    <tile gid="2"/>
    <tile gid="2"/>
    <tile gid="2"/>
    <tile gid="2"/>
    <tile gid="2"/>
    <tile gid="2"/>
    <tile gid="2"/>
    <tile gid="228"/>
    <tile gid="1"/>
    <tile gid="1"/>
    <tile gid="1"/>
    <tile gid="1"/>
    <tile gid="1"/>
    <tile gid="1"/>
    <tile gid="1"/>
    <tile gid="1"/>
    <tile gid="1"/>
    <tile gid="1"/>
    <tile gid="1"/>
    <tile gid="1"/>
    <tile gid="2"/>
    <tile gid="2"/>
    <tile gid="2"/>
    <tile gid="2"/>
    <tile gid="228"/>
    <tile gid="1"/>
    <tile gid="1"/>
    <tile gid="1"/>
    <tile gid="1"/>
    <tile gid="1"/>
    <tile gid="1"/>
    <tile gid="1"/>
    <tile gid="1"/>
    <tile gid="3"/>
    <tile gid="3"/>
    <tile gid="3"/>
    <tile gid="3"/>
    <tile gid="3"/>
    <tile gid="3"/>
    <tile gid="3"/>
    <tile gid="3"/>
    <tile gid="3"/>
    <tile gid="3"/>
    <tile gid="3"/>
    <tile gid="3"/>
    <tile gid="3"/>
    <tile gid="3"/>
    <tile gid="3"/>
    <tile gid="3"/>
    <tile gid="259"/>
    <tile gid="165"/>
    <tile gid="34"/>
    <tile gid="34"/>
    <tile gid="34"/>
    <tile gid="34"/>
    <tile gid="165"/>
    <tile gid="34"/>
    <tile gid="260"/>
    <tile gid="1"/>
    <tile gid="1"/>
    <tile gid="1"/>
    <tile gid="1"/>
    <tile gid="1"/>
    <tile gid="1"/>
    <tile gid="1"/>
    <tile gid="1"/>
    <tile gid="1"/>
    <tile gid="1"/>
    <tile gid="1"/>
    <tile gid="1"/>
    <tile gid="34"/>
    <tile gid="165"/>
    <tile gid="34"/>
    <tile gid="165"/>
    <tile gid="260"/>
    <tile gid="1"/>
    <tile gid="1"/>
    <tile gid="1"/>
    <tile gid="1"/>
    <tile gid="1"/>
    <tile gid="1"/>
    <tile gid="1"/>
    <tile gid="1"/>
    <tile gid="35"/>
    <tile gid="35"/>
    <tile gid="35"/>
    <tile gid="35"/>
    <tile gid="165"/>
    <tile gid="35"/>
    <tile gid="35"/>
    <tile gid="165"/>
    <tile gid="35"/>
    <tile gid="35"/>
    <tile gid="35"/>
    <tile gid="165"/>
    <tile gid="35"/>
    <tile gid="35"/>
    <tile gid="35"/>
    <tile gid="35"/>
    <tile gid="1"/>
    <tile gid="1"/>
    <tile gid="1"/>
    <tile gid="1"/>
    <tile gid="1"/>
    <tile gid="1"/>
    <tile gid="1"/>
    <tile gid="1"/>
    <tile gid="1"/>
    <tile gid="1"/>
    <tile gid="1"/>
    <tile gid="1"/>
    <tile gid="1"/>
    <tile gid="1"/>
    <tile gid="1"/>
    <tile gid="1"/>
    <tile gid="1"/>
    <tile gid="1"/>
    <tile gid="1"/>
    <tile gid="1"/>
    <tile gid="1"/>
    <tile gid="1"/>
    <tile gid="1"/>
    <tile gid="1"/>
    <tile gid="1"/>
    <tile gid="1"/>
    <tile gid="1"/>
    <tile gid="1"/>
    <tile gid="1"/>
    <tile gid="1"/>
    <tile gid="1"/>
    <tile gid="1"/>
    <tile gid="1"/>
    <tile gid="1"/>
    <tile gid="1"/>
    <tile gid="1"/>
    <tile gid="1"/>
    <tile gid="1"/>
    <tile gid="1"/>
    <tile gid="1"/>
    <tile gid="1"/>
    <tile gid="1"/>
    <tile gid="1"/>
    <tile gid="1"/>
    <tile gid="1"/>
    <tile gid="1"/>
    <tile gid="1"/>
    <tile gid="1"/>
    <tile gid="1"/>
    <tile gid="1"/>
    <tile gid="1"/>
    <tile gid="1"/>
    <tile gid="1"/>
    <tile gid="1"/>
    <tile gid="1"/>
    <tile gid="1"/>
    <tile gid="1"/>
    <tile gid="1"/>
    <tile gid="1"/>
    <tile gid="1"/>
    <tile gid="1"/>
    <tile gid="1"/>
    <tile gid="1"/>
    <tile gid="1"/>
    <tile gid="1"/>
    <tile gid="1"/>
    <tile gid="1"/>
    <tile gid="1"/>
    <tile gid="1"/>
    <tile gid="1"/>
    <tile gid="1"/>
    <tile gid="1"/>
    <tile gid="1"/>
    <tile gid="1"/>
    <tile gid="1"/>
    <tile gid="1"/>
    <tile gid="1"/>
    <tile gid="1"/>
    <tile gid="1"/>
    <tile gid="1"/>
    <tile gid="1"/>
    <tile gid="1"/>
    <tile gid="1"/>
    <tile gid="1"/>
    <tile gid="1"/>
    <tile gid="1"/>
    <tile gid="1"/>
    <tile gid="1"/>
    <tile gid="1"/>
    <tile gid="1"/>
    <tile gid="1"/>
    <tile gid="1"/>
    <tile gid="1"/>
    <tile gid="1"/>
    <tile gid="1"/>
    <tile gid="1"/>
    <tile gid="1"/>
    <tile gid="1"/>
    <tile gid="1"/>
    <tile gid="1"/>
    <tile gid="1"/>
    <tile gid="1"/>
    <tile gid="1"/>
    <tile gid="1"/>
    <tile gid="1"/>
    <tile gid="1"/>
    <tile gid="1"/>
    <tile gid="1"/>
    <tile gid="1"/>
    <tile gid="1"/>
    <tile gid="1"/>
    <tile gid="1"/>
    <tile gid="1"/>
    <tile gid="1"/>
    <tile gid="1"/>
    <tile gid="1"/>
    <tile gid="1"/>
    <tile gid="1"/>
    <tile gid="1"/>
    <tile gid="1"/>
    <tile gid="1"/>
    <tile gid="1"/>
    <tile gid="1"/>
    <tile gid="1"/>
    <tile gid="1"/>
    <tile gid="1"/>
    <tile gid="1"/>
    <tile gid="1"/>
    <tile gid="1"/>
    <tile gid="1"/>
    <tile gid="1"/>
    <tile gid="1"/>
    <tile gid="1"/>
    <tile gid="1"/>
    <tile gid="1"/>
    <tile gid="1"/>
    <tile gid="1"/>
    <tile gid="1"/>
    <tile gid="1"/>
    <tile gid="1"/>
    <tile gid="1"/>
    <tile gid="1"/>
    <tile gid="1"/>
    <tile gid="1"/>
    <tile gid="1"/>
    <tile gid="1"/>
    <tile gid="1"/>
    <tile gid="1"/>
    <tile gid="1"/>
    <tile gid="1"/>
    <tile gid="1"/>
    <tile gid="1"/>
    <tile gid="1"/>
    <tile gid="1"/>
    <tile gid="1"/>
    <tile gid="1"/>
    <tile gid="1"/>
    <tile gid="1"/>
    <tile gid="1"/>
    <tile gid="1"/>
    <tile gid="1"/>
    <tile gid="1"/>
    <tile gid="1"/>
    <tile gid="1"/>
    <tile gid="1"/>
    <tile gid="1"/>
    <tile gid="1"/>
    <tile gid="1"/>
    <tile gid="1"/>
    <tile gid="1"/>
    <tile gid="1"/>
    <tile gid="1"/>
    <tile gid="1"/>
    <tile gid="1"/>
    <tile gid="1"/>
    <tile gid="292"/>
    <tile gid="1"/>
    <tile gid="1"/>
    <tile gid="1"/>
    <tile gid="1"/>
    <tile gid="1"/>
    <tile gid="291"/>
    <tile gid="1"/>
    <tile gid="1"/>
    <tile gid="1"/>
    <tile gid="1"/>
    <tile gid="1"/>
    <tile gid="1"/>
    <tile gid="1"/>
    <tile gid="1"/>
    <tile gid="1"/>
    <tile gid="1"/>
    <tile gid="1"/>
    <tile gid="1"/>
    <tile gid="1"/>
    <tile gid="1"/>
    <tile gid="1"/>
    <tile gid="1"/>
    <tile gid="1"/>
    <tile gid="1"/>
    <tile gid="1"/>
    <tile gid="1"/>
    <tile gid="1"/>
    <tile gid="1"/>
    <tile gid="1"/>
    <tile gid="1"/>
    <tile gid="1"/>
    <tile gid="1"/>
    <tile gid="1"/>
    <tile gid="1"/>
    <tile gid="1"/>
    <tile gid="1"/>
    <tile gid="1"/>
    <tile gid="1"/>
    <tile gid="1"/>
    <tile gid="1"/>
    <tile gid="1"/>
    <tile gid="1"/>
    <tile gid="1"/>
    <tile gid="1"/>
    <tile gid="1"/>
    <tile gid="1"/>
    <tile gid="1"/>
    <tile gid="1"/>
    <tile gid="1"/>
    <tile gid="324"/>
    <tile gid="1"/>
    <tile gid="1"/>
    <tile gid="1"/>
    <tile gid="1"/>
    <tile gid="1"/>
    <tile gid="323"/>
    <tile gid="1"/>
    <tile gid="1"/>
    <tile gid="1"/>
    <tile gid="1"/>
    <tile gid="1"/>
    <tile gid="1"/>
    <tile gid="1"/>
    <tile gid="1"/>
    <tile gid="1"/>
    <tile gid="1"/>
    <tile gid="1"/>
    <tile gid="1"/>
    <tile gid="1"/>
    <tile gid="1"/>
    <tile gid="1"/>
    <tile gid="1"/>
    <tile gid="1"/>
    <tile gid="1"/>
    <tile gid="1"/>
    <tile gid="1"/>
    <tile gid="1"/>
    <tile gid="1"/>
    <tile gid="1"/>
    <tile gid="1"/>
    <tile gid="1"/>
    <tile gid="1"/>
    <tile gid="1"/>
    <tile gid="1"/>
    <tile gid="1"/>
    <tile gid="1"/>
    <tile gid="1"/>
    <tile gid="1"/>
    <tile gid="1"/>
    <tile gid="1"/>
    <tile gid="1"/>
    <tile gid="1"/>
    <tile gid="1"/>
    <tile gid="1"/>
    <tile gid="1"/>
    <tile gid="1"/>
    <tile gid="1"/>
    <tile gid="1"/>
    <tile gid="1"/>
    <tile gid="1"/>
    <tile gid="1"/>
    <tile gid="1"/>
    <tile gid="1"/>
    <tile gid="1"/>
    <tile gid="1"/>
    <tile gid="1"/>
    <tile gid="1"/>
    <tile gid="1"/>
    <tile gid="1"/>
    <tile gid="1"/>
    <tile gid="1"/>
    <tile gid="1"/>
    <tile gid="1"/>
    <tile gid="1"/>
    <tile gid="1"/>
    <tile gid="1"/>
    <tile gid="1"/>
    <tile gid="1"/>
    <tile gid="1"/>
    <tile gid="1"/>
    <tile gid="1"/>
    <tile gid="1"/>
    <tile gid="1"/>
    <tile gid="1"/>
    <tile gid="1"/>
    <tile gid="1"/>
    <tile gid="1"/>
    <tile gid="1"/>
    <tile gid="227"/>
    <tile gid="2"/>
    <tile gid="2"/>
    <tile gid="2"/>
    <tile gid="228"/>
    <tile gid="1"/>
    <tile gid="1"/>
    <tile gid="1"/>
    <tile gid="1"/>
    <tile gid="1"/>
    <tile gid="1"/>
    <tile gid="1"/>
    <tile gid="1"/>
    <tile gid="1"/>
    <tile gid="1"/>
    <tile gid="1"/>
    <tile gid="1"/>
    <tile gid="1"/>
    <tile gid="1"/>
    <tile gid="1"/>
    <tile gid="166"/>
    <tile gid="1"/>
    <tile gid="1"/>
    <tile gid="1"/>
    <tile gid="1"/>
    <tile gid="1"/>
    <tile gid="1"/>
    <tile gid="1"/>
    <tile gid="166"/>
    <tile gid="1"/>
    <tile gid="1"/>
    <tile gid="1"/>
    <tile gid="1"/>
    <tile gid="1"/>
    <tile gid="1"/>
    <tile gid="1"/>
    <tile gid="1"/>
    <tile gid="1"/>
    <tile gid="1"/>
    <tile gid="1"/>
    <tile gid="1"/>
    <tile gid="1"/>
    <tile gid="1"/>
    <tile gid="1"/>
    <tile gid="1"/>
    <tile gid="1"/>
    <tile gid="1"/>
    <tile gid="1"/>
    <tile gid="1"/>
    <tile gid="1"/>
    <tile gid="259"/>
    <tile gid="165"/>
    <tile gid="34"/>
    <tile gid="34"/>
    <tile gid="260"/>
    <tile gid="1"/>
    <tile gid="1"/>
    <tile gid="1"/>
    <tile gid="1"/>
    <tile gid="1"/>
    <tile gid="1"/>
    <tile gid="1"/>
    <tile gid="1"/>
    <tile gid="1"/>
    <tile gid="1"/>
    <tile gid="1"/>
    <tile gid="1"/>
    <tile gid="1"/>
    <tile gid="1"/>
    <tile gid="1"/>
    <tile gid="1"/>
    <tile gid="1"/>
    <tile gid="1"/>
    <tile gid="1"/>
    <tile gid="1"/>
    <tile gid="1"/>
    <tile gid="1"/>
    <tile gid="1"/>
    <tile gid="1"/>
    <tile gid="1"/>
    <tile gid="1"/>
    <tile gid="1"/>
    <tile gid="1"/>
    <tile gid="1"/>
    <tile gid="1"/>
    <tile gid="1"/>
    <tile gid="1"/>
    <tile gid="1"/>
    <tile gid="1"/>
    <tile gid="1"/>
    <tile gid="1"/>
    <tile gid="1"/>
    <tile gid="1"/>
    <tile gid="2"/>
    <tile gid="2"/>
    <tile gid="2"/>
    <tile gid="2"/>
    <tile gid="2"/>
    <tile gid="2"/>
    <tile gid="2"/>
    <tile gid="1"/>
    <tile gid="1"/>
    <tile gid="1"/>
    <tile gid="1"/>
    <tile gid="1"/>
    <tile gid="1"/>
    <tile gid="1"/>
    <tile gid="1"/>
    <tile gid="1"/>
    <tile gid="1"/>
    <tile gid="1"/>
    <tile gid="1"/>
    <tile gid="1"/>
    <tile gid="1"/>
    <tile gid="1"/>
    <tile gid="1"/>
    <tile gid="1"/>
    <tile gid="1"/>
    <tile gid="1"/>
    <tile gid="1"/>
    <tile gid="1"/>
    <tile gid="1"/>
    <tile gid="1"/>
    <tile gid="1"/>
    <tile gid="1"/>
    <tile gid="1"/>
    <tile gid="1"/>
    <tile gid="1"/>
    <tile gid="1"/>
    <tile gid="1"/>
    <tile gid="1"/>
    <tile gid="1"/>
    <tile gid="1"/>
    <tile gid="1"/>
    <tile gid="1"/>
    <tile gid="1"/>
    <tile gid="1"/>
    <tile gid="1"/>
    <tile gid="1"/>
    <tile gid="1"/>
    <tile gid="1"/>
    <tile gid="1"/>
    <tile gid="1"/>
    <tile gid="165"/>
    <tile gid="34"/>
    <tile gid="34"/>
    <tile gid="165"/>
    <tile gid="34"/>
    <tile gid="34"/>
    <tile gid="165"/>
    <tile gid="1"/>
    <tile gid="1"/>
    <tile gid="1"/>
    <tile gid="1"/>
    <tile gid="1"/>
    <tile gid="1"/>
    <tile gid="1"/>
    <tile gid="1"/>
    <tile gid="1"/>
    <tile gid="1"/>
    <tile gid="1"/>
    <tile gid="1"/>
    <tile gid="1"/>
    <tile gid="1"/>
    <tile gid="1"/>
    <tile gid="1"/>
    <tile gid="1"/>
    <tile gid="1"/>
    <tile gid="1"/>
    <tile gid="1"/>
    <tile gid="1"/>
    <tile gid="1"/>
    <tile gid="1"/>
    <tile gid="1"/>
    <tile gid="1"/>
    <tile gid="1"/>
    <tile gid="1"/>
    <tile gid="1"/>
    <tile gid="1"/>
    <tile gid="1"/>
    <tile gid="1"/>
    <tile gid="1"/>
    <tile gid="1"/>
    <tile gid="1"/>
    <tile gid="1"/>
    <tile gid="1"/>
    <tile gid="1"/>
    <tile gid="1"/>
    <tile gid="1"/>
    <tile gid="1"/>
    <tile gid="1"/>
    <tile gid="1"/>
    <tile gid="1"/>
    <tile gid="1"/>
    <tile gid="1"/>
    <tile gid="1"/>
    <tile gid="1"/>
    <tile gid="1"/>
    <tile gid="1"/>
    <tile gid="1"/>
    <tile gid="1"/>
    <tile gid="1"/>
    <tile gid="1"/>
    <tile gid="1"/>
    <tile gid="1"/>
    <tile gid="1"/>
    <tile gid="1"/>
    <tile gid="1"/>
    <tile gid="1"/>
    <tile gid="1"/>
    <tile gid="1"/>
    <tile gid="1"/>
    <tile gid="1"/>
    <tile gid="1"/>
    <tile gid="1"/>
    <tile gid="1"/>
    <tile gid="1"/>
    <tile gid="1"/>
    <tile gid="1"/>
    <tile gid="1"/>
    <tile gid="1"/>
    <tile gid="1"/>
    <tile gid="1"/>
    <tile gid="166"/>
    <tile gid="1"/>
    <tile gid="1"/>
    <tile gid="1"/>
    <tile gid="1"/>
    <tile gid="1"/>
    <tile gid="1"/>
    <tile gid="1"/>
    <tile gid="1"/>
    <tile gid="1"/>
    <tile gid="1"/>
    <tile gid="1"/>
    <tile gid="1"/>
    <tile gid="1"/>
    <tile gid="1"/>
    <tile gid="1"/>
    <tile gid="1"/>
    <tile gid="1"/>
    <tile gid="1"/>
    <tile gid="1"/>
    <tile gid="1"/>
    <tile gid="1"/>
    <tile gid="1"/>
    <tile gid="1"/>
    <tile gid="1"/>
    <tile gid="1"/>
    <tile gid="1"/>
    <tile gid="1"/>
    <tile gid="1"/>
    <tile gid="1"/>
    <tile gid="1"/>
    <tile gid="1"/>
    <tile gid="1"/>
    <tile gid="1"/>
    <tile gid="1"/>
    <tile gid="1"/>
    <tile gid="1"/>
    <tile gid="1"/>
    <tile gid="1"/>
    <tile gid="1"/>
    <tile gid="1"/>
    <tile gid="1"/>
    <tile gid="1"/>
    <tile gid="1"/>
    <tile gid="1"/>
    <tile gid="1"/>
    <tile gid="1"/>
    <tile gid="1"/>
    <tile gid="1"/>
    <tile gid="1"/>
    <tile gid="1"/>
    <tile gid="1"/>
    <tile gid="1"/>
    <tile gid="1"/>
    <tile gid="1"/>
    <tile gid="1"/>
    <tile gid="1"/>
    <tile gid="1"/>
    <tile gid="1"/>
    <tile gid="1"/>
    <tile gid="1"/>
    <tile gid="1"/>
    <tile gid="1"/>
    <tile gid="1"/>
    <tile gid="1"/>
    <tile gid="1"/>
    <tile gid="1"/>
    <tile gid="1"/>
    <tile gid="1"/>
    <tile gid="1"/>
    <tile gid="1"/>
    <tile gid="1"/>
    <tile gid="1"/>
    <tile gid="1"/>
    <tile gid="1"/>
    <tile gid="1"/>
    <tile gid="1"/>
    <tile gid="1"/>
    <tile gid="1"/>
    <tile gid="1"/>
    <tile gid="1"/>
    <tile gid="1"/>
    <tile gid="1"/>
    <tile gid="1"/>
    <tile gid="1"/>
    <tile gid="1"/>
    <tile gid="1"/>
    <tile gid="1"/>
    <tile gid="1"/>
    <tile gid="1"/>
    <tile gid="1"/>
    <tile gid="1"/>
    <tile gid="1"/>
    <tile gid="1"/>
    <tile gid="1"/>
    <tile gid="1"/>
    <tile gid="1"/>
    <tile gid="1"/>
    <tile gid="1"/>
    <tile gid="1"/>
    <tile gid="1"/>
    <tile gid="1"/>
    <tile gid="1"/>
    <tile gid="1"/>
    <tile gid="1"/>
    <tile gid="1"/>
    <tile gid="1"/>
    <tile gid="1"/>
    <tile gid="1"/>
    <tile gid="1"/>
    <tile gid="1"/>
    <tile gid="1"/>
    <tile gid="1"/>
    <tile gid="1"/>
    <tile gid="1"/>
    <tile gid="1"/>
    <tile gid="1"/>
    <tile gid="1"/>
    <tile gid="1"/>
    <tile gid="1"/>
    <tile gid="1"/>
    <tile gid="1"/>
    <tile gid="1"/>
    <tile gid="1"/>
    <tile gid="1"/>
    <tile gid="1"/>
    <tile gid="1"/>
    <tile gid="1"/>
    <tile gid="1"/>
    <tile gid="1"/>
    <tile gid="1"/>
    <tile gid="1"/>
    <tile gid="1"/>
    <tile gid="1"/>
    <tile gid="1"/>
    <tile gid="1"/>
    <tile gid="1"/>
    <tile gid="1"/>
    <tile gid="1"/>
    <tile gid="1"/>
    <tile gid="1"/>
    <tile gid="1"/>
    <tile gid="1"/>
    <tile gid="1"/>
    <tile gid="1"/>
    <tile gid="1"/>
    <tile gid="1"/>
    <tile gid="1"/>
    <tile gid="1"/>
    <tile gid="1"/>
    <tile gid="1"/>
    <tile gid="1"/>
    <tile gid="1"/>
    <tile gid="1"/>
    <tile gid="1"/>
    <tile gid="1"/>
    <tile gid="1"/>
    <tile gid="1"/>
    <tile gid="1"/>
    <tile gid="1"/>
    <tile gid="1"/>
    <tile gid="1"/>
    <tile gid="1"/>
    <tile gid="1"/>
    <tile gid="1"/>
    <tile gid="1"/>
    <tile gid="1"/>
    <tile gid="1"/>
    <tile gid="1"/>
    <tile gid="1"/>
    <tile gid="1"/>
    <tile gid="1"/>
    <tile gid="1"/>
    <tile gid="1"/>
    <tile gid="1"/>
    <tile gid="1"/>
    <tile gid="1"/>
    <tile gid="227"/>
    <tile gid="2"/>
    <tile gid="2"/>
    <tile gid="2"/>
    <tile gid="2"/>
    <tile gid="2"/>
    <tile gid="2"/>
    <tile gid="2"/>
    <tile gid="2"/>
    <tile gid="1"/>
    <tile gid="1"/>
    <tile gid="1"/>
    <tile gid="1"/>
    <tile gid="1"/>
    <tile gid="1"/>
    <tile gid="1"/>
    <tile gid="2"/>
    <tile gid="2"/>
    <tile gid="2"/>
    <tile gid="2"/>
    <tile gid="2"/>
    <tile gid="2"/>
    <tile gid="2"/>
    <tile gid="2"/>
    <tile gid="2"/>
    <tile gid="2"/>
    <tile gid="2"/>
    <tile gid="2"/>
    <tile gid="2"/>
    <tile gid="2"/>
    <tile gid="2"/>
    <tile gid="2"/>
    <tile gid="4"/>
    <tile gid="1"/>
    <tile gid="1"/>
    <tile gid="1"/>
    <tile gid="1"/>
    <tile gid="1"/>
    <tile gid="1"/>
    <tile gid="1"/>
    <tile gid="1"/>
    <tile gid="1"/>
    <tile gid="1"/>
    <tile gid="1"/>
    <tile gid="1"/>
    <tile gid="1"/>
    <tile gid="1"/>
    <tile gid="1"/>
    <tile gid="227"/>
    <tile gid="2"/>
    <tile gid="259"/>
    <tile gid="34"/>
    <tile gid="34"/>
    <tile gid="34"/>
    <tile gid="165"/>
    <tile gid="34"/>
    <tile gid="34"/>
    <tile gid="34"/>
    <tile gid="165"/>
    <tile gid="1"/>
    <tile gid="1"/>
    <tile gid="1"/>
    <tile gid="1"/>
    <tile gid="1"/>
    <tile gid="1"/>
    <tile gid="1"/>
    <tile gid="34"/>
    <tile gid="165"/>
    <tile gid="34"/>
    <tile gid="34"/>
    <tile gid="34"/>
    <tile gid="34"/>
    <tile gid="34"/>
    <tile gid="34"/>
    <tile gid="34"/>
    <tile gid="165"/>
    <tile gid="34"/>
    <tile gid="34"/>
    <tile gid="34"/>
    <tile gid="34"/>
    <tile gid="165"/>
    <tile gid="34"/>
    <tile gid="324"/>
    <tile gid="1"/>
    <tile gid="1"/>
    <tile gid="1"/>
    <tile gid="1"/>
    <tile gid="1"/>
    <tile gid="1"/>
    <tile gid="1"/>
    <tile gid="1"/>
    <tile gid="1"/>
    <tile gid="1"/>
    <tile gid="1"/>
    <tile gid="1"/>
    <tile gid="1"/>
    <tile gid="1"/>
    <tile gid="1"/>
    <tile gid="259"/>
    <tile gid="34"/>
    <tile gid="1"/>
    <tile gid="1"/>
    <tile gid="1"/>
    <tile gid="1"/>
    <tile gid="1"/>
    <tile gid="1"/>
    <tile gid="1"/>
    <tile gid="1"/>
    <tile gid="1"/>
    <tile gid="1"/>
    <tile gid="1"/>
    <tile gid="1"/>
    <tile gid="1"/>
    <tile gid="1"/>
    <tile gid="1"/>
    <tile gid="1"/>
    <tile gid="1"/>
    <tile gid="1"/>
    <tile gid="1"/>
    <tile gid="1"/>
    <tile gid="1"/>
    <tile gid="1"/>
    <tile gid="1"/>
    <tile gid="1"/>
    <tile gid="1"/>
    <tile gid="1"/>
    <tile gid="1"/>
    <tile gid="1"/>
    <tile gid="1"/>
    <tile gid="1"/>
    <tile gid="1"/>
    <tile gid="1"/>
    <tile gid="1"/>
    <tile gid="1"/>
    <tile gid="1"/>
    <tile gid="1"/>
    <tile gid="1"/>
    <tile gid="1"/>
    <tile gid="1"/>
    <tile gid="1"/>
    <tile gid="1"/>
    <tile gid="1"/>
    <tile gid="1"/>
    <tile gid="2"/>
    <tile gid="2"/>
    <tile gid="2"/>
    <tile gid="2"/>
    <tile gid="2"/>
    <tile gid="1"/>
    <tile gid="1"/>
    <tile gid="1"/>
    <tile gid="1"/>
    <tile gid="1"/>
    <tile gid="1"/>
    <tile gid="1"/>
    <tile gid="1"/>
    <tile gid="1"/>
    <tile gid="1"/>
    <tile gid="1"/>
    <tile gid="1"/>
    <tile gid="1"/>
    <tile gid="1"/>
    <tile gid="1"/>
    <tile gid="1"/>
    <tile gid="1"/>
    <tile gid="1"/>
    <tile gid="1"/>
    <tile gid="1"/>
    <tile gid="1"/>
    <tile gid="1"/>
    <tile gid="1"/>
    <tile gid="1"/>
    <tile gid="1"/>
    <tile gid="1"/>
    <tile gid="1"/>
    <tile gid="1"/>
    <tile gid="1"/>
    <tile gid="1"/>
    <tile gid="1"/>
    <tile gid="1"/>
    <tile gid="1"/>
    <tile gid="1"/>
    <tile gid="1"/>
    <tile gid="1"/>
    <tile gid="1"/>
    <tile gid="1"/>
    <tile gid="1"/>
    <tile gid="1"/>
    <tile gid="1"/>
    <tile gid="1"/>
    <tile gid="1"/>
    <tile gid="1"/>
    <tile gid="1"/>
    <tile gid="34"/>
    <tile gid="34"/>
    <tile gid="165"/>
    <tile gid="34"/>
    <tile gid="34"/>
    <tile gid="1"/>
    <tile gid="1"/>
    <tile gid="1"/>
    <tile gid="1"/>
    <tile gid="1"/>
    <tile gid="1"/>
    <tile gid="1"/>
    <tile gid="1"/>
    <tile gid="1"/>
    <tile gid="1"/>
    <tile gid="1"/>
    <tile gid="1"/>
    <tile gid="1"/>
    <tile gid="1"/>
    <tile gid="1"/>
   </data>
  </layer>
 </group>
 <group id="70" name="collData" visible="0">
  <layer id="53" name="wall_coll" width="50" height="50">
   <data>
    <tile gid="1"/>
    <tile gid="1"/>
    <tile gid="1"/>
    <tile gid="1"/>
    <tile gid="1"/>
    <tile gid="1"/>
    <tile gid="1"/>
    <tile gid="1"/>
    <tile gid="1"/>
    <tile gid="1"/>
    <tile gid="1"/>
    <tile gid="1"/>
    <tile gid="1"/>
    <tile gid="1"/>
    <tile gid="1"/>
    <tile gid="1"/>
    <tile gid="1"/>
    <tile gid="1"/>
    <tile gid="1"/>
    <tile gid="1"/>
    <tile gid="1"/>
    <tile gid="1"/>
    <tile gid="1"/>
    <tile gid="1"/>
    <tile gid="1"/>
    <tile gid="1"/>
    <tile gid="1"/>
    <tile gid="1"/>
    <tile gid="1"/>
    <tile gid="1"/>
    <tile gid="1"/>
    <tile gid="1"/>
    <tile gid="1"/>
    <tile gid="1"/>
    <tile gid="1"/>
    <tile gid="1"/>
    <tile gid="1"/>
    <tile gid="1"/>
    <tile gid="1"/>
    <tile gid="1"/>
    <tile gid="1"/>
    <tile gid="1"/>
    <tile gid="1"/>
    <tile gid="1"/>
    <tile gid="1"/>
    <tile gid="1"/>
    <tile gid="1"/>
    <tile gid="1"/>
    <tile gid="1"/>
    <tile gid="1"/>
    <tile gid="1"/>
    <tile gid="1"/>
    <tile gid="1"/>
    <tile gid="1"/>
    <tile gid="1"/>
    <tile gid="1"/>
    <tile gid="1"/>
    <tile gid="1"/>
    <tile gid="1"/>
    <tile gid="1"/>
    <tile gid="1"/>
    <tile gid="1"/>
    <tile gid="1"/>
    <tile gid="1"/>
    <tile gid="1"/>
    <tile gid="1"/>
    <tile gid="1"/>
    <tile gid="1"/>
    <tile gid="1"/>
    <tile gid="387"/>
    <tile gid="387"/>
    <tile gid="387"/>
    <tile gid="387"/>
    <tile gid="387"/>
    <tile gid="387"/>
    <tile gid="387"/>
    <tile gid="387"/>
    <tile gid="387"/>
    <tile gid="387"/>
    <tile gid="387"/>
    <tile gid="387"/>
    <tile gid="1"/>
    <tile gid="1"/>
    <tile gid="1"/>
    <tile gid="1"/>
    <tile gid="1"/>
    <tile gid="1"/>
    <tile gid="1"/>
    <tile gid="1"/>
    <tile gid="1"/>
    <tile gid="1"/>
    <tile gid="1"/>
    <tile gid="1"/>
    <tile gid="1"/>
    <tile gid="1"/>
    <tile gid="1"/>
    <tile gid="1"/>
    <tile gid="1"/>
    <tile gid="1"/>
    <tile gid="1"/>
    <tile gid="1"/>
    <tile gid="1"/>
    <tile gid="1"/>
    <tile gid="1"/>
    <tile gid="1"/>
    <tile gid="1"/>
    <tile gid="1"/>
    <tile gid="1"/>
    <tile gid="1"/>
    <tile gid="1"/>
    <tile gid="1"/>
    <tile gid="1"/>
    <tile gid="1"/>
    <tile gid="1"/>
    <tile gid="1"/>
    <tile gid="1"/>
    <tile gid="1"/>
    <tile gid="1"/>
    <tile gid="1"/>
    <tile gid="387"/>
    <tile gid="1"/>
    <tile gid="1"/>
    <tile gid="1"/>
    <tile gid="1"/>
    <tile gid="1"/>
    <tile gid="1"/>
    <tile gid="1"/>
    <tile gid="1"/>
    <tile gid="1"/>
    <tile gid="1"/>
    <tile gid="387"/>
    <tile gid="1"/>
    <tile gid="1"/>
    <tile gid="1"/>
    <tile gid="1"/>
    <tile gid="1"/>
    <tile gid="1"/>
    <tile gid="1"/>
    <tile gid="1"/>
    <tile gid="1"/>
    <tile gid="1"/>
    <tile gid="1"/>
    <tile gid="1"/>
    <tile gid="1"/>
    <tile gid="1"/>
    <tile gid="1"/>
    <tile gid="1"/>
    <tile gid="1"/>
    <tile gid="1"/>
    <tile gid="1"/>
    <tile gid="1"/>
    <tile gid="1"/>
    <tile gid="1"/>
    <tile gid="1"/>
    <tile gid="1"/>
    <tile gid="1"/>
    <tile gid="1"/>
    <tile gid="1"/>
    <tile gid="1"/>
    <tile gid="1"/>
    <tile gid="1"/>
    <tile gid="1"/>
    <tile gid="1"/>
    <tile gid="1"/>
    <tile gid="1"/>
    <tile gid="1"/>
    <tile gid="1"/>
    <tile gid="1"/>
    <tile gid="1"/>
    <tile gid="387"/>
    <tile gid="1"/>
    <tile gid="1"/>
    <tile gid="1"/>
    <tile gid="1"/>
    <tile gid="1"/>
    <tile gid="1"/>
    <tile gid="1"/>
    <tile gid="1"/>
    <tile gid="1"/>
    <tile gid="1"/>
    <tile gid="387"/>
    <tile gid="1"/>
    <tile gid="1"/>
    <tile gid="1"/>
    <tile gid="1"/>
    <tile gid="1"/>
    <tile gid="1"/>
    <tile gid="1"/>
    <tile gid="1"/>
    <tile gid="1"/>
    <tile gid="1"/>
    <tile gid="1"/>
    <tile gid="1"/>
    <tile gid="1"/>
    <tile gid="1"/>
    <tile gid="1"/>
    <tile gid="1"/>
    <tile gid="1"/>
    <tile gid="1"/>
    <tile gid="1"/>
    <tile gid="1"/>
    <tile gid="1"/>
    <tile gid="1"/>
    <tile gid="1"/>
    <tile gid="1"/>
    <tile gid="1"/>
    <tile gid="1"/>
    <tile gid="1"/>
    <tile gid="1"/>
    <tile gid="1"/>
    <tile gid="1"/>
    <tile gid="1"/>
    <tile gid="1"/>
    <tile gid="1"/>
    <tile gid="1"/>
    <tile gid="1"/>
    <tile gid="1"/>
    <tile gid="1"/>
    <tile gid="1"/>
    <tile gid="387"/>
    <tile gid="1"/>
    <tile gid="1"/>
    <tile gid="1"/>
    <tile gid="1"/>
    <tile gid="1"/>
    <tile gid="1"/>
    <tile gid="1"/>
    <tile gid="1"/>
    <tile gid="1"/>
    <tile gid="1"/>
    <tile gid="387"/>
    <tile gid="1"/>
    <tile gid="1"/>
    <tile gid="1"/>
    <tile gid="1"/>
    <tile gid="1"/>
    <tile gid="1"/>
    <tile gid="1"/>
    <tile gid="1"/>
    <tile gid="1"/>
    <tile gid="1"/>
    <tile gid="1"/>
    <tile gid="1"/>
    <tile gid="1"/>
    <tile gid="1"/>
    <tile gid="1"/>
    <tile gid="1"/>
    <tile gid="1"/>
    <tile gid="1"/>
    <tile gid="1"/>
    <tile gid="1"/>
    <tile gid="1"/>
    <tile gid="1"/>
    <tile gid="1"/>
    <tile gid="1"/>
    <tile gid="1"/>
    <tile gid="1"/>
    <tile gid="1"/>
    <tile gid="1"/>
    <tile gid="1"/>
    <tile gid="1"/>
    <tile gid="1"/>
    <tile gid="1"/>
    <tile gid="1"/>
    <tile gid="1"/>
    <tile gid="1"/>
    <tile gid="1"/>
    <tile gid="1"/>
    <tile gid="1"/>
    <tile gid="387"/>
    <tile gid="1"/>
    <tile gid="1"/>
    <tile gid="1"/>
    <tile gid="1"/>
    <tile gid="1"/>
    <tile gid="1"/>
    <tile gid="1"/>
    <tile gid="1"/>
    <tile gid="1"/>
    <tile gid="1"/>
    <tile gid="387"/>
    <tile gid="1"/>
    <tile gid="1"/>
    <tile gid="1"/>
    <tile gid="1"/>
    <tile gid="1"/>
    <tile gid="1"/>
    <tile gid="1"/>
    <tile gid="1"/>
    <tile gid="1"/>
    <tile gid="1"/>
    <tile gid="1"/>
    <tile gid="1"/>
    <tile gid="1"/>
    <tile gid="1"/>
    <tile gid="1"/>
    <tile gid="1"/>
    <tile gid="1"/>
    <tile gid="1"/>
    <tile gid="1"/>
    <tile gid="1"/>
    <tile gid="1"/>
    <tile gid="1"/>
    <tile gid="1"/>
    <tile gid="1"/>
    <tile gid="1"/>
    <tile gid="1"/>
    <tile gid="1"/>
    <tile gid="1"/>
    <tile gid="1"/>
    <tile gid="1"/>
    <tile gid="1"/>
    <tile gid="1"/>
    <tile gid="1"/>
    <tile gid="1"/>
    <tile gid="1"/>
    <tile gid="1"/>
    <tile gid="1"/>
    <tile gid="1"/>
    <tile gid="387"/>
    <tile gid="1"/>
    <tile gid="1"/>
    <tile gid="1"/>
    <tile gid="1"/>
    <tile gid="1"/>
    <tile gid="1"/>
    <tile gid="1"/>
    <tile gid="1"/>
    <tile gid="1"/>
    <tile gid="1"/>
    <tile gid="387"/>
    <tile gid="1"/>
    <tile gid="1"/>
    <tile gid="1"/>
    <tile gid="1"/>
    <tile gid="1"/>
    <tile gid="1"/>
    <tile gid="1"/>
    <tile gid="1"/>
    <tile gid="1"/>
    <tile gid="1"/>
    <tile gid="1"/>
    <tile gid="1"/>
    <tile gid="1"/>
    <tile gid="1"/>
    <tile gid="1"/>
    <tile gid="1"/>
    <tile gid="1"/>
    <tile gid="1"/>
    <tile gid="1"/>
    <tile gid="1"/>
    <tile gid="1"/>
    <tile gid="1"/>
    <tile gid="1"/>
    <tile gid="1"/>
    <tile gid="1"/>
    <tile gid="1"/>
    <tile gid="1"/>
    <tile gid="1"/>
    <tile gid="1"/>
    <tile gid="1"/>
    <tile gid="1"/>
    <tile gid="1"/>
    <tile gid="1"/>
    <tile gid="1"/>
    <tile gid="1"/>
    <tile gid="1"/>
    <tile gid="1"/>
    <tile gid="1"/>
    <tile gid="387"/>
    <tile gid="1"/>
    <tile gid="1"/>
    <tile gid="1"/>
    <tile gid="1"/>
    <tile gid="1"/>
    <tile gid="1"/>
    <tile gid="1"/>
    <tile gid="1"/>
    <tile gid="1"/>
    <tile gid="1"/>
    <tile gid="387"/>
    <tile gid="1"/>
    <tile gid="1"/>
    <tile gid="1"/>
    <tile gid="1"/>
    <tile gid="1"/>
    <tile gid="1"/>
    <tile gid="1"/>
    <tile gid="1"/>
    <tile gid="1"/>
    <tile gid="1"/>
    <tile gid="1"/>
    <tile gid="1"/>
    <tile gid="1"/>
    <tile gid="1"/>
    <tile gid="1"/>
    <tile gid="1"/>
    <tile gid="1"/>
    <tile gid="1"/>
    <tile gid="1"/>
    <tile gid="1"/>
    <tile gid="1"/>
    <tile gid="1"/>
    <tile gid="1"/>
    <tile gid="1"/>
    <tile gid="1"/>
    <tile gid="1"/>
    <tile gid="1"/>
    <tile gid="1"/>
    <tile gid="1"/>
    <tile gid="1"/>
    <tile gid="1"/>
    <tile gid="1"/>
    <tile gid="1"/>
    <tile gid="1"/>
    <tile gid="1"/>
    <tile gid="1"/>
    <tile gid="1"/>
    <tile gid="1"/>
    <tile gid="387"/>
    <tile gid="1"/>
    <tile gid="1"/>
    <tile gid="1"/>
    <tile gid="1"/>
    <tile gid="1"/>
    <tile gid="1"/>
    <tile gid="1"/>
    <tile gid="1"/>
    <tile gid="1"/>
    <tile gid="1"/>
    <tile gid="387"/>
    <tile gid="1"/>
    <tile gid="1"/>
    <tile gid="1"/>
    <tile gid="1"/>
    <tile gid="1"/>
    <tile gid="1"/>
    <tile gid="1"/>
    <tile gid="1"/>
    <tile gid="1"/>
    <tile gid="1"/>
    <tile gid="1"/>
    <tile gid="1"/>
    <tile gid="1"/>
    <tile gid="1"/>
    <tile gid="1"/>
    <tile gid="1"/>
    <tile gid="1"/>
    <tile gid="1"/>
    <tile gid="1"/>
    <tile gid="1"/>
    <tile gid="1"/>
    <tile gid="1"/>
    <tile gid="1"/>
    <tile gid="1"/>
    <tile gid="1"/>
    <tile gid="1"/>
    <tile gid="1"/>
    <tile gid="1"/>
    <tile gid="1"/>
    <tile gid="1"/>
    <tile gid="1"/>
    <tile gid="1"/>
    <tile gid="1"/>
    <tile gid="1"/>
    <tile gid="1"/>
    <tile gid="1"/>
    <tile gid="1"/>
    <tile gid="1"/>
    <tile gid="387"/>
    <tile gid="387"/>
    <tile gid="387"/>
    <tile gid="387"/>
    <tile gid="387"/>
    <tile gid="1"/>
    <tile gid="1"/>
    <tile gid="387"/>
    <tile gid="387"/>
    <tile gid="387"/>
    <tile gid="387"/>
    <tile gid="387"/>
    <tile gid="1"/>
    <tile gid="1"/>
    <tile gid="1"/>
    <tile gid="1"/>
    <tile gid="1"/>
    <tile gid="1"/>
    <tile gid="1"/>
    <tile gid="1"/>
    <tile gid="1"/>
    <tile gid="1"/>
    <tile gid="1"/>
    <tile gid="1"/>
    <tile gid="1"/>
    <tile gid="1"/>
    <tile gid="1"/>
    <tile gid="1"/>
    <tile gid="1"/>
    <tile gid="1"/>
    <tile gid="1"/>
    <tile gid="1"/>
    <tile gid="1"/>
    <tile gid="1"/>
    <tile gid="1"/>
    <tile gid="1"/>
    <tile gid="1"/>
    <tile gid="1"/>
    <tile gid="1"/>
    <tile gid="1"/>
    <tile gid="1"/>
    <tile gid="1"/>
    <tile gid="1"/>
    <tile gid="1"/>
    <tile gid="1"/>
    <tile gid="1"/>
    <tile gid="1"/>
    <tile gid="1"/>
    <tile gid="1"/>
    <tile gid="1"/>
    <tile gid="1"/>
    <tile gid="1"/>
    <tile gid="1"/>
    <tile gid="1"/>
    <tile gid="387"/>
    <tile gid="1"/>
    <tile gid="1"/>
    <tile gid="387"/>
    <tile gid="1"/>
    <tile gid="1"/>
    <tile gid="1"/>
    <tile gid="1"/>
    <tile gid="1"/>
    <tile gid="1"/>
    <tile gid="1"/>
    <tile gid="1"/>
    <tile gid="1"/>
    <tile gid="1"/>
    <tile gid="1"/>
    <tile gid="1"/>
    <tile gid="1"/>
    <tile gid="1"/>
    <tile gid="1"/>
    <tile gid="1"/>
    <tile gid="1"/>
    <tile gid="1"/>
    <tile gid="1"/>
    <tile gid="1"/>
    <tile gid="1"/>
    <tile gid="1"/>
    <tile gid="1"/>
    <tile gid="1"/>
    <tile gid="1"/>
    <tile gid="1"/>
    <tile gid="1"/>
    <tile gid="1"/>
    <tile gid="1"/>
    <tile gid="1"/>
    <tile gid="1"/>
    <tile gid="1"/>
    <tile gid="1"/>
    <tile gid="1"/>
    <tile gid="1"/>
    <tile gid="1"/>
    <tile gid="1"/>
    <tile gid="1"/>
    <tile gid="1"/>
    <tile gid="1"/>
    <tile gid="1"/>
    <tile gid="1"/>
    <tile gid="1"/>
    <tile gid="1"/>
    <tile gid="1"/>
    <tile gid="1"/>
    <tile gid="387"/>
    <tile gid="1"/>
    <tile gid="1"/>
    <tile gid="387"/>
    <tile gid="1"/>
    <tile gid="1"/>
    <tile gid="1"/>
    <tile gid="1"/>
    <tile gid="1"/>
    <tile gid="1"/>
    <tile gid="1"/>
    <tile gid="1"/>
    <tile gid="1"/>
    <tile gid="1"/>
    <tile gid="1"/>
    <tile gid="1"/>
    <tile gid="1"/>
    <tile gid="1"/>
    <tile gid="1"/>
    <tile gid="1"/>
    <tile gid="1"/>
    <tile gid="1"/>
    <tile gid="1"/>
    <tile gid="1"/>
    <tile gid="1"/>
    <tile gid="1"/>
    <tile gid="1"/>
    <tile gid="1"/>
    <tile gid="1"/>
    <tile gid="1"/>
    <tile gid="1"/>
    <tile gid="1"/>
    <tile gid="1"/>
    <tile gid="1"/>
    <tile gid="1"/>
    <tile gid="1"/>
    <tile gid="1"/>
    <tile gid="1"/>
    <tile gid="1"/>
    <tile gid="1"/>
    <tile gid="1"/>
    <tile gid="1"/>
    <tile gid="1"/>
    <tile gid="1"/>
    <tile gid="1"/>
    <tile gid="1"/>
    <tile gid="1"/>
    <tile gid="1"/>
    <tile gid="1"/>
    <tile gid="1"/>
    <tile gid="387"/>
    <tile gid="1"/>
    <tile gid="1"/>
    <tile gid="387"/>
    <tile gid="1"/>
    <tile gid="1"/>
    <tile gid="1"/>
    <tile gid="1"/>
    <tile gid="1"/>
    <tile gid="1"/>
    <tile gid="1"/>
    <tile gid="1"/>
    <tile gid="1"/>
    <tile gid="1"/>
    <tile gid="1"/>
    <tile gid="1"/>
    <tile gid="1"/>
    <tile gid="1"/>
    <tile gid="1"/>
    <tile gid="1"/>
    <tile gid="1"/>
    <tile gid="1"/>
    <tile gid="1"/>
    <tile gid="1"/>
    <tile gid="1"/>
    <tile gid="1"/>
    <tile gid="1"/>
    <tile gid="1"/>
    <tile gid="1"/>
    <tile gid="1"/>
    <tile gid="1"/>
    <tile gid="1"/>
    <tile gid="1"/>
    <tile gid="1"/>
    <tile gid="1"/>
    <tile gid="1"/>
    <tile gid="1"/>
    <tile gid="1"/>
    <tile gid="1"/>
    <tile gid="1"/>
    <tile gid="1"/>
    <tile gid="1"/>
    <tile gid="1"/>
    <tile gid="1"/>
    <tile gid="1"/>
    <tile gid="1"/>
    <tile gid="1"/>
    <tile gid="1"/>
    <tile gid="1"/>
    <tile gid="387"/>
    <tile gid="387"/>
    <tile gid="1"/>
    <tile gid="1"/>
    <tile gid="387"/>
    <tile gid="387"/>
    <tile gid="1"/>
    <tile gid="1"/>
    <tile gid="1"/>
    <tile gid="1"/>
    <tile gid="1"/>
    <tile gid="1"/>
    <tile gid="1"/>
    <tile gid="1"/>
    <tile gid="1"/>
    <tile gid="1"/>
    <tile gid="1"/>
    <tile gid="1"/>
    <tile gid="1"/>
    <tile gid="1"/>
    <tile gid="1"/>
    <tile gid="1"/>
    <tile gid="1"/>
    <tile gid="1"/>
    <tile gid="1"/>
    <tile gid="1"/>
    <tile gid="1"/>
    <tile gid="1"/>
    <tile gid="1"/>
    <tile gid="1"/>
    <tile gid="1"/>
    <tile gid="1"/>
    <tile gid="1"/>
    <tile gid="1"/>
    <tile gid="1"/>
    <tile gid="1"/>
    <tile gid="1"/>
    <tile gid="1"/>
    <tile gid="1"/>
    <tile gid="1"/>
    <tile gid="1"/>
    <tile gid="1"/>
    <tile gid="1"/>
    <tile gid="1"/>
    <tile gid="1"/>
    <tile gid="1"/>
    <tile gid="1"/>
    <tile gid="1"/>
    <tile gid="1"/>
    <tile gid="387"/>
    <tile gid="387"/>
    <tile gid="1"/>
    <tile gid="1"/>
    <tile gid="1"/>
    <tile gid="1"/>
    <tile gid="387"/>
    <tile gid="387"/>
    <tile gid="1"/>
    <tile gid="1"/>
    <tile gid="1"/>
    <tile gid="1"/>
    <tile gid="1"/>
    <tile gid="1"/>
    <tile gid="1"/>
    <tile gid="1"/>
    <tile gid="1"/>
    <tile gid="1"/>
    <tile gid="1"/>
    <tile gid="1"/>
    <tile gid="1"/>
    <tile gid="1"/>
    <tile gid="1"/>
    <tile gid="1"/>
    <tile gid="1"/>
    <tile gid="1"/>
    <tile gid="1"/>
    <tile gid="1"/>
    <tile gid="1"/>
    <tile gid="1"/>
    <tile gid="1"/>
    <tile gid="1"/>
    <tile gid="1"/>
    <tile gid="1"/>
    <tile gid="1"/>
    <tile gid="1"/>
    <tile gid="1"/>
    <tile gid="1"/>
    <tile gid="1"/>
    <tile gid="1"/>
    <tile gid="1"/>
    <tile gid="1"/>
    <tile gid="1"/>
    <tile gid="1"/>
    <tile gid="1"/>
    <tile gid="1"/>
    <tile gid="1"/>
    <tile gid="1"/>
    <tile gid="1"/>
    <tile gid="387"/>
    <tile gid="387"/>
    <tile gid="1"/>
    <tile gid="1"/>
    <tile gid="1"/>
    <tile gid="1"/>
    <tile gid="1"/>
    <tile gid="1"/>
    <tile gid="387"/>
    <tile gid="387"/>
    <tile gid="1"/>
    <tile gid="1"/>
    <tile gid="1"/>
    <tile gid="1"/>
    <tile gid="1"/>
    <tile gid="1"/>
    <tile gid="1"/>
    <tile gid="1"/>
    <tile gid="1"/>
    <tile gid="1"/>
    <tile gid="1"/>
    <tile gid="1"/>
    <tile gid="1"/>
    <tile gid="1"/>
    <tile gid="1"/>
    <tile gid="1"/>
    <tile gid="1"/>
    <tile gid="1"/>
    <tile gid="1"/>
    <tile gid="1"/>
    <tile gid="1"/>
    <tile gid="1"/>
    <tile gid="1"/>
    <tile gid="1"/>
    <tile gid="1"/>
    <tile gid="1"/>
    <tile gid="1"/>
    <tile gid="1"/>
    <tile gid="1"/>
    <tile gid="1"/>
    <tile gid="1"/>
    <tile gid="1"/>
    <tile gid="1"/>
    <tile gid="1"/>
    <tile gid="1"/>
    <tile gid="1"/>
    <tile gid="1"/>
    <tile gid="1"/>
    <tile gid="1"/>
    <tile gid="387"/>
    <tile gid="387"/>
    <tile gid="1"/>
    <tile gid="1"/>
    <tile gid="1"/>
    <tile gid="1"/>
    <tile gid="1"/>
    <tile gid="1"/>
    <tile gid="1"/>
    <tile gid="1"/>
    <tile gid="387"/>
    <tile gid="387"/>
    <tile gid="1"/>
    <tile gid="1"/>
    <tile gid="1"/>
    <tile gid="1"/>
    <tile gid="1"/>
    <tile gid="1"/>
    <tile gid="1"/>
    <tile gid="1"/>
    <tile gid="1"/>
    <tile gid="1"/>
    <tile gid="1"/>
    <tile gid="1"/>
    <tile gid="1"/>
    <tile gid="1"/>
    <tile gid="1"/>
    <tile gid="1"/>
    <tile gid="1"/>
    <tile gid="1"/>
    <tile gid="1"/>
    <tile gid="1"/>
    <tile gid="1"/>
    <tile gid="1"/>
    <tile gid="1"/>
    <tile gid="1"/>
    <tile gid="1"/>
    <tile gid="1"/>
    <tile gid="1"/>
    <tile gid="1"/>
    <tile gid="1"/>
    <tile gid="1"/>
    <tile gid="1"/>
    <tile gid="1"/>
    <tile gid="1"/>
    <tile gid="1"/>
    <tile gid="1"/>
    <tile gid="387"/>
    <tile gid="387"/>
    <tile gid="387"/>
    <tile gid="387"/>
    <tile gid="1"/>
    <tile gid="1"/>
    <tile gid="1"/>
    <tile gid="1"/>
    <tile gid="1"/>
    <tile gid="1"/>
    <tile gid="1"/>
    <tile gid="1"/>
    <tile gid="1"/>
    <tile gid="1"/>
    <tile gid="387"/>
    <tile gid="387"/>
    <tile gid="387"/>
    <tile gid="387"/>
    <tile gid="1"/>
    <tile gid="1"/>
    <tile gid="1"/>
    <tile gid="1"/>
    <tile gid="1"/>
    <tile gid="387"/>
    <tile gid="387"/>
    <tile gid="387"/>
    <tile gid="387"/>
    <tile gid="387"/>
    <tile gid="387"/>
    <tile gid="387"/>
    <tile gid="387"/>
    <tile gid="387"/>
    <tile gid="387"/>
    <tile gid="1"/>
    <tile gid="1"/>
    <tile gid="1"/>
    <tile gid="1"/>
    <tile gid="1"/>
    <tile gid="1"/>
    <tile gid="1"/>
    <tile gid="1"/>
    <tile gid="1"/>
    <tile gid="1"/>
    <tile gid="1"/>
    <tile gid="1"/>
    <tile gid="1"/>
    <tile gid="1"/>
    <tile gid="1"/>
    <tile gid="1"/>
    <tile gid="1"/>
    <tile gid="387"/>
    <tile gid="1"/>
    <tile gid="1"/>
    <tile gid="1"/>
    <tile gid="1"/>
    <tile gid="1"/>
    <tile gid="1"/>
    <tile gid="1"/>
    <tile gid="1"/>
    <tile gid="1"/>
    <tile gid="1"/>
    <tile gid="1"/>
    <tile gid="1"/>
    <tile gid="1"/>
    <tile gid="1"/>
    <tile gid="1"/>
    <tile gid="1"/>
    <tile gid="387"/>
    <tile gid="1"/>
    <tile gid="1"/>
    <tile gid="1"/>
    <tile gid="1"/>
    <tile gid="1"/>
    <tile gid="387"/>
    <tile gid="1"/>
    <tile gid="1"/>
    <tile gid="1"/>
    <tile gid="1"/>
    <tile gid="1"/>
    <tile gid="1"/>
    <tile gid="1"/>
    <tile gid="1"/>
    <tile gid="387"/>
    <tile gid="1"/>
    <tile gid="1"/>
    <tile gid="1"/>
    <tile gid="1"/>
    <tile gid="1"/>
    <tile gid="1"/>
    <tile gid="1"/>
    <tile gid="1"/>
    <tile gid="1"/>
    <tile gid="1"/>
    <tile gid="1"/>
    <tile gid="1"/>
    <tile gid="1"/>
    <tile gid="1"/>
    <tile gid="1"/>
    <tile gid="1"/>
    <tile gid="1"/>
    <tile gid="387"/>
    <tile gid="1"/>
    <tile gid="1"/>
    <tile gid="1"/>
    <tile gid="1"/>
    <tile gid="1"/>
    <tile gid="1"/>
    <tile gid="1"/>
    <tile gid="1"/>
    <tile gid="1"/>
    <tile gid="1"/>
    <tile gid="1"/>
    <tile gid="1"/>
    <tile gid="1"/>
    <tile gid="1"/>
    <tile gid="1"/>
    <tile gid="1"/>
    <tile gid="387"/>
    <tile gid="1"/>
    <tile gid="1"/>
    <tile gid="1"/>
    <tile gid="1"/>
    <tile gid="1"/>
    <tile gid="387"/>
    <tile gid="1"/>
    <tile gid="1"/>
    <tile gid="1"/>
    <tile gid="1"/>
    <tile gid="1"/>
    <tile gid="1"/>
    <tile gid="1"/>
    <tile gid="1"/>
    <tile gid="387"/>
    <tile gid="1"/>
    <tile gid="1"/>
    <tile gid="1"/>
    <tile gid="1"/>
    <tile gid="1"/>
    <tile gid="1"/>
    <tile gid="1"/>
    <tile gid="1"/>
    <tile gid="1"/>
    <tile gid="1"/>
    <tile gid="1"/>
    <tile gid="1"/>
    <tile gid="1"/>
    <tile gid="1"/>
    <tile gid="1"/>
    <tile gid="1"/>
    <tile gid="1"/>
    <tile gid="387"/>
    <tile gid="1"/>
    <tile gid="1"/>
    <tile gid="1"/>
    <tile gid="1"/>
    <tile gid="1"/>
    <tile gid="1"/>
    <tile gid="1"/>
    <tile gid="1"/>
    <tile gid="1"/>
    <tile gid="1"/>
    <tile gid="1"/>
    <tile gid="1"/>
    <tile gid="1"/>
    <tile gid="1"/>
    <tile gid="1"/>
    <tile gid="1"/>
    <tile gid="387"/>
    <tile gid="1"/>
    <tile gid="1"/>
    <tile gid="1"/>
    <tile gid="1"/>
    <tile gid="1"/>
    <tile gid="387"/>
    <tile gid="1"/>
    <tile gid="1"/>
    <tile gid="1"/>
    <tile gid="1"/>
    <tile gid="1"/>
    <tile gid="1"/>
    <tile gid="1"/>
    <tile gid="1"/>
    <tile gid="387"/>
    <tile gid="1"/>
    <tile gid="1"/>
    <tile gid="1"/>
    <tile gid="1"/>
    <tile gid="1"/>
    <tile gid="1"/>
    <tile gid="1"/>
    <tile gid="1"/>
    <tile gid="1"/>
    <tile gid="1"/>
    <tile gid="1"/>
    <tile gid="1"/>
    <tile gid="1"/>
    <tile gid="1"/>
    <tile gid="1"/>
    <tile gid="1"/>
    <tile gid="1"/>
    <tile gid="387"/>
    <tile gid="1"/>
    <tile gid="1"/>
    <tile gid="1"/>
    <tile gid="1"/>
    <tile gid="1"/>
    <tile gid="1"/>
    <tile gid="1"/>
    <tile gid="1"/>
    <tile gid="1"/>
    <tile gid="1"/>
    <tile gid="1"/>
    <tile gid="1"/>
    <tile gid="1"/>
    <tile gid="1"/>
    <tile gid="1"/>
    <tile gid="1"/>
    <tile gid="387"/>
    <tile gid="1"/>
    <tile gid="1"/>
    <tile gid="1"/>
    <tile gid="1"/>
    <tile gid="1"/>
    <tile gid="387"/>
    <tile gid="1"/>
    <tile gid="1"/>
    <tile gid="1"/>
    <tile gid="1"/>
    <tile gid="1"/>
    <tile gid="1"/>
    <tile gid="1"/>
    <tile gid="1"/>
    <tile gid="387"/>
    <tile gid="1"/>
    <tile gid="1"/>
    <tile gid="1"/>
    <tile gid="1"/>
    <tile gid="1"/>
    <tile gid="1"/>
    <tile gid="1"/>
    <tile gid="1"/>
    <tile gid="1"/>
    <tile gid="387"/>
    <tile gid="387"/>
    <tile gid="387"/>
    <tile gid="387"/>
    <tile gid="387"/>
    <tile gid="387"/>
    <tile gid="387"/>
    <tile gid="387"/>
    <tile gid="387"/>
    <tile gid="1"/>
    <tile gid="1"/>
    <tile gid="1"/>
    <tile gid="1"/>
    <tile gid="1"/>
    <tile gid="1"/>
    <tile gid="1"/>
    <tile gid="1"/>
    <tile gid="1"/>
    <tile gid="1"/>
    <tile gid="1"/>
    <tile gid="1"/>
    <tile gid="1"/>
    <tile gid="1"/>
    <tile gid="1"/>
    <tile gid="1"/>
    <tile gid="387"/>
    <tile gid="1"/>
    <tile gid="1"/>
    <tile gid="1"/>
    <tile gid="1"/>
    <tile gid="1"/>
    <tile gid="387"/>
    <tile gid="387"/>
    <tile gid="387"/>
    <tile gid="387"/>
    <tile gid="1"/>
    <tile gid="1"/>
    <tile gid="387"/>
    <tile gid="387"/>
    <tile gid="387"/>
    <tile gid="387"/>
    <tile gid="1"/>
    <tile gid="1"/>
    <tile gid="1"/>
    <tile gid="1"/>
    <tile gid="1"/>
    <tile gid="1"/>
    <tile gid="1"/>
    <tile gid="1"/>
    <tile gid="1"/>
    <tile gid="387"/>
    <tile gid="1"/>
    <tile gid="1"/>
    <tile gid="1"/>
    <tile gid="1"/>
    <tile gid="1"/>
    <tile gid="1"/>
    <tile gid="1"/>
    <tile gid="1"/>
    <tile gid="1"/>
    <tile gid="1"/>
    <tile gid="1"/>
    <tile gid="1"/>
    <tile gid="1"/>
    <tile gid="1"/>
    <tile gid="1"/>
    <tile gid="1"/>
    <tile gid="1"/>
    <tile gid="1"/>
    <tile gid="1"/>
    <tile gid="1"/>
    <tile gid="1"/>
    <tile gid="1"/>
    <tile gid="1"/>
    <tile gid="1"/>
    <tile gid="387"/>
    <tile gid="1"/>
    <tile gid="1"/>
    <tile gid="1"/>
    <tile gid="1"/>
    <tile gid="1"/>
    <tile gid="1"/>
    <tile gid="1"/>
    <tile gid="1"/>
    <tile gid="387"/>
    <tile gid="1"/>
    <tile gid="1"/>
    <tile gid="387"/>
    <tile gid="1"/>
    <tile gid="1"/>
    <tile gid="1"/>
    <tile gid="1"/>
    <tile gid="1"/>
    <tile gid="1"/>
    <tile gid="1"/>
    <tile gid="1"/>
    <tile gid="1"/>
    <tile gid="1"/>
    <tile gid="1"/>
    <tile gid="1"/>
    <tile gid="387"/>
    <tile gid="1"/>
    <tile gid="1"/>
    <tile gid="1"/>
    <tile gid="1"/>
    <tile gid="1"/>
    <tile gid="1"/>
    <tile gid="1"/>
    <tile gid="1"/>
    <tile gid="1"/>
    <tile gid="1"/>
    <tile gid="1"/>
    <tile gid="1"/>
    <tile gid="1"/>
    <tile gid="1"/>
    <tile gid="1"/>
    <tile gid="1"/>
    <tile gid="1"/>
    <tile gid="1"/>
    <tile gid="1"/>
    <tile gid="1"/>
    <tile gid="1"/>
    <tile gid="1"/>
    <tile gid="1"/>
    <tile gid="1"/>
    <tile gid="387"/>
    <tile gid="1"/>
    <tile gid="1"/>
    <tile gid="1"/>
    <tile gid="1"/>
    <tile gid="1"/>
    <tile gid="1"/>
    <tile gid="1"/>
    <tile gid="1"/>
    <tile gid="387"/>
    <tile gid="1"/>
    <tile gid="1"/>
    <tile gid="387"/>
    <tile gid="1"/>
    <tile gid="1"/>
    <tile gid="1"/>
    <tile gid="1"/>
    <tile gid="1"/>
    <tile gid="1"/>
    <tile gid="1"/>
    <tile gid="387"/>
    <tile gid="387"/>
    <tile gid="387"/>
    <tile gid="387"/>
    <tile gid="387"/>
    <tile gid="387"/>
    <tile gid="1"/>
    <tile gid="1"/>
    <tile gid="1"/>
    <tile gid="1"/>
    <tile gid="1"/>
    <tile gid="1"/>
    <tile gid="1"/>
    <tile gid="1"/>
    <tile gid="1"/>
    <tile gid="1"/>
    <tile gid="1"/>
    <tile gid="1"/>
    <tile gid="1"/>
    <tile gid="1"/>
    <tile gid="1"/>
    <tile gid="1"/>
    <tile gid="1"/>
    <tile gid="1"/>
    <tile gid="1"/>
    <tile gid="1"/>
    <tile gid="1"/>
    <tile gid="1"/>
    <tile gid="1"/>
    <tile gid="1"/>
    <tile gid="387"/>
    <tile gid="1"/>
    <tile gid="1"/>
    <tile gid="1"/>
    <tile gid="1"/>
    <tile gid="1"/>
    <tile gid="1"/>
    <tile gid="1"/>
    <tile gid="1"/>
    <tile gid="387"/>
    <tile gid="1"/>
    <tile gid="1"/>
    <tile gid="387"/>
    <tile gid="1"/>
    <tile gid="1"/>
    <tile gid="1"/>
    <tile gid="1"/>
    <tile gid="1"/>
    <tile gid="1"/>
    <tile gid="1"/>
    <tile gid="387"/>
    <tile gid="1"/>
    <tile gid="1"/>
    <tile gid="1"/>
    <tile gid="1"/>
    <tile gid="1"/>
    <tile gid="1"/>
    <tile gid="1"/>
    <tile gid="1"/>
    <tile gid="1"/>
    <tile gid="1"/>
    <tile gid="1"/>
    <tile gid="1"/>
    <tile gid="1"/>
    <tile gid="1"/>
    <tile gid="1"/>
    <tile gid="1"/>
    <tile gid="1"/>
    <tile gid="1"/>
    <tile gid="1"/>
    <tile gid="1"/>
    <tile gid="1"/>
    <tile gid="1"/>
    <tile gid="1"/>
    <tile gid="1"/>
    <tile gid="1"/>
    <tile gid="1"/>
    <tile gid="1"/>
    <tile gid="1"/>
    <tile gid="1"/>
    <tile gid="387"/>
    <tile gid="387"/>
    <tile gid="387"/>
    <tile gid="387"/>
    <tile gid="387"/>
    <tile gid="387"/>
    <tile gid="387"/>
    <tile gid="387"/>
    <tile gid="387"/>
    <tile gid="387"/>
    <tile gid="1"/>
    <tile gid="1"/>
    <tile gid="387"/>
    <tile gid="387"/>
    <tile gid="1"/>
    <tile gid="1"/>
    <tile gid="1"/>
    <tile gid="1"/>
    <tile gid="1"/>
    <tile gid="1"/>
    <tile gid="387"/>
    <tile gid="1"/>
    <tile gid="1"/>
    <tile gid="1"/>
    <tile gid="1"/>
    <tile gid="1"/>
    <tile gid="1"/>
    <tile gid="1"/>
    <tile gid="1"/>
    <tile gid="1"/>
    <tile gid="1"/>
    <tile gid="387"/>
    <tile gid="387"/>
    <tile gid="387"/>
    <tile gid="1"/>
    <tile gid="1"/>
    <tile gid="1"/>
    <tile gid="1"/>
    <tile gid="1"/>
    <tile gid="1"/>
    <tile gid="1"/>
    <tile gid="1"/>
    <tile gid="1"/>
    <tile gid="1"/>
    <tile gid="1"/>
    <tile gid="1"/>
    <tile gid="1"/>
    <tile gid="1"/>
    <tile gid="1"/>
    <tile gid="1"/>
    <tile gid="1"/>
    <tile gid="1"/>
    <tile gid="1"/>
    <tile gid="1"/>
    <tile gid="1"/>
    <tile gid="1"/>
    <tile gid="1"/>
    <tile gid="1"/>
    <tile gid="1"/>
    <tile gid="1"/>
    <tile gid="1"/>
    <tile gid="1"/>
    <tile gid="1"/>
    <tile gid="387"/>
    <tile gid="1"/>
    <tile gid="1"/>
    <tile gid="1"/>
    <tile gid="1"/>
    <tile gid="1"/>
    <tile gid="1"/>
    <tile gid="387"/>
    <tile gid="1"/>
    <tile gid="1"/>
    <tile gid="1"/>
    <tile gid="1"/>
    <tile gid="1"/>
    <tile gid="1"/>
    <tile gid="1"/>
    <tile gid="1"/>
    <tile gid="1"/>
    <tile gid="1"/>
    <tile gid="387"/>
    <tile gid="1"/>
    <tile gid="387"/>
    <tile gid="1"/>
    <tile gid="1"/>
    <tile gid="1"/>
    <tile gid="1"/>
    <tile gid="1"/>
    <tile gid="1"/>
    <tile gid="1"/>
    <tile gid="1"/>
    <tile gid="1"/>
    <tile gid="1"/>
    <tile gid="1"/>
    <tile gid="1"/>
    <tile gid="1"/>
    <tile gid="1"/>
    <tile gid="1"/>
    <tile gid="1"/>
    <tile gid="1"/>
    <tile gid="1"/>
    <tile gid="1"/>
    <tile gid="1"/>
    <tile gid="1"/>
    <tile gid="1"/>
    <tile gid="1"/>
    <tile gid="1"/>
    <tile gid="1"/>
    <tile gid="1"/>
    <tile gid="1"/>
    <tile gid="1"/>
    <tile gid="1"/>
    <tile gid="387"/>
    <tile gid="1"/>
    <tile gid="1"/>
    <tile gid="1"/>
    <tile gid="1"/>
    <tile gid="1"/>
    <tile gid="1"/>
    <tile gid="387"/>
    <tile gid="1"/>
    <tile gid="1"/>
    <tile gid="1"/>
    <tile gid="1"/>
    <tile gid="1"/>
    <tile gid="1"/>
    <tile gid="1"/>
    <tile gid="1"/>
    <tile gid="1"/>
    <tile gid="1"/>
    <tile gid="387"/>
    <tile gid="1"/>
    <tile gid="387"/>
    <tile gid="1"/>
    <tile gid="1"/>
    <tile gid="1"/>
    <tile gid="1"/>
    <tile gid="1"/>
    <tile gid="1"/>
    <tile gid="1"/>
    <tile gid="1"/>
    <tile gid="1"/>
    <tile gid="1"/>
    <tile gid="1"/>
    <tile gid="1"/>
    <tile gid="1"/>
    <tile gid="1"/>
    <tile gid="1"/>
    <tile gid="1"/>
    <tile gid="1"/>
    <tile gid="1"/>
    <tile gid="1"/>
    <tile gid="1"/>
    <tile gid="1"/>
    <tile gid="1"/>
    <tile gid="1"/>
    <tile gid="1"/>
    <tile gid="1"/>
    <tile gid="1"/>
    <tile gid="1"/>
    <tile gid="1"/>
    <tile gid="1"/>
    <tile gid="387"/>
    <tile gid="1"/>
    <tile gid="1"/>
    <tile gid="1"/>
    <tile gid="1"/>
    <tile gid="1"/>
    <tile gid="1"/>
    <tile gid="387"/>
    <tile gid="1"/>
    <tile gid="1"/>
    <tile gid="1"/>
    <tile gid="1"/>
    <tile gid="1"/>
    <tile gid="1"/>
    <tile gid="1"/>
    <tile gid="1"/>
    <tile gid="1"/>
    <tile gid="1"/>
    <tile gid="387"/>
    <tile gid="1"/>
    <tile gid="387"/>
    <tile gid="1"/>
    <tile gid="1"/>
    <tile gid="1"/>
    <tile gid="1"/>
    <tile gid="1"/>
    <tile gid="1"/>
    <tile gid="1"/>
    <tile gid="1"/>
    <tile gid="1"/>
    <tile gid="1"/>
    <tile gid="1"/>
    <tile gid="1"/>
    <tile gid="1"/>
    <tile gid="1"/>
    <tile gid="1"/>
    <tile gid="1"/>
    <tile gid="387"/>
    <tile gid="387"/>
    <tile gid="387"/>
    <tile gid="387"/>
    <tile gid="387"/>
    <tile gid="387"/>
    <tile gid="387"/>
    <tile gid="387"/>
    <tile gid="387"/>
    <tile gid="1"/>
    <tile gid="1"/>
    <tile gid="1"/>
    <tile gid="1"/>
    <tile gid="387"/>
    <tile gid="1"/>
    <tile gid="1"/>
    <tile gid="1"/>
    <tile gid="1"/>
    <tile gid="1"/>
    <tile gid="1"/>
    <tile gid="387"/>
    <tile gid="387"/>
    <tile gid="387"/>
    <tile gid="387"/>
    <tile gid="387"/>
    <tile gid="387"/>
    <tile gid="1"/>
    <tile gid="1"/>
    <tile gid="1"/>
    <tile gid="1"/>
    <tile gid="1"/>
    <tile gid="387"/>
    <tile gid="1"/>
    <tile gid="387"/>
    <tile gid="387"/>
    <tile gid="387"/>
    <tile gid="387"/>
    <tile gid="387"/>
    <tile gid="387"/>
    <tile gid="387"/>
    <tile gid="387"/>
    <tile gid="387"/>
    <tile gid="387"/>
    <tile gid="387"/>
    <tile gid="387"/>
    <tile gid="387"/>
    <tile gid="387"/>
    <tile gid="387"/>
    <tile gid="387"/>
    <tile gid="387"/>
    <tile gid="387"/>
    <tile gid="1"/>
    <tile gid="1"/>
    <tile gid="1"/>
    <tile gid="1"/>
    <tile gid="1"/>
    <tile gid="1"/>
    <tile gid="1"/>
    <tile gid="387"/>
    <tile gid="1"/>
    <tile gid="1"/>
    <tile gid="1"/>
    <tile gid="1"/>
    <tile gid="387"/>
    <tile gid="1"/>
    <tile gid="1"/>
    <tile gid="1"/>
    <tile gid="1"/>
    <tile gid="1"/>
    <tile gid="1"/>
    <tile gid="1"/>
    <tile gid="1"/>
    <tile gid="1"/>
    <tile gid="1"/>
    <tile gid="1"/>
    <tile gid="387"/>
    <tile gid="1"/>
    <tile gid="1"/>
    <tile gid="1"/>
    <tile gid="1"/>
    <tile gid="1"/>
    <tile gid="387"/>
    <tile gid="1"/>
    <tile gid="1"/>
    <tile gid="1"/>
    <tile gid="1"/>
    <tile gid="1"/>
    <tile gid="1"/>
    <tile gid="1"/>
    <tile gid="1"/>
    <tile gid="1"/>
    <tile gid="1"/>
    <tile gid="1"/>
    <tile gid="1"/>
    <tile gid="1"/>
    <tile gid="1"/>
    <tile gid="1"/>
    <tile gid="1"/>
    <tile gid="1"/>
    <tile gid="1"/>
    <tile gid="1"/>
    <tile gid="1"/>
    <tile gid="1"/>
    <tile gid="1"/>
    <tile gid="1"/>
    <tile gid="1"/>
    <tile gid="1"/>
    <tile gid="1"/>
    <tile gid="387"/>
    <tile gid="1"/>
    <tile gid="1"/>
    <tile gid="1"/>
    <tile gid="1"/>
    <tile gid="387"/>
    <tile gid="1"/>
    <tile gid="1"/>
    <tile gid="1"/>
    <tile gid="1"/>
    <tile gid="1"/>
    <tile gid="1"/>
    <tile gid="1"/>
    <tile gid="1"/>
    <tile gid="1"/>
    <tile gid="1"/>
    <tile gid="1"/>
    <tile gid="387"/>
    <tile gid="1"/>
    <tile gid="1"/>
    <tile gid="1"/>
    <tile gid="1"/>
    <tile gid="1"/>
    <tile gid="387"/>
    <tile gid="1"/>
    <tile gid="1"/>
    <tile gid="1"/>
    <tile gid="1"/>
    <tile gid="1"/>
    <tile gid="1"/>
    <tile gid="1"/>
    <tile gid="1"/>
    <tile gid="1"/>
    <tile gid="1"/>
    <tile gid="1"/>
    <tile gid="1"/>
    <tile gid="1"/>
    <tile gid="1"/>
    <tile gid="1"/>
    <tile gid="1"/>
    <tile gid="1"/>
    <tile gid="1"/>
    <tile gid="1"/>
    <tile gid="1"/>
    <tile gid="1"/>
    <tile gid="1"/>
    <tile gid="1"/>
    <tile gid="1"/>
    <tile gid="1"/>
    <tile gid="1"/>
    <tile gid="387"/>
    <tile gid="1"/>
    <tile gid="1"/>
    <tile gid="1"/>
    <tile gid="1"/>
    <tile gid="387"/>
    <tile gid="1"/>
    <tile gid="1"/>
    <tile gid="1"/>
    <tile gid="1"/>
    <tile gid="1"/>
    <tile gid="1"/>
    <tile gid="1"/>
    <tile gid="1"/>
    <tile gid="1"/>
    <tile gid="1"/>
    <tile gid="1"/>
    <tile gid="387"/>
    <tile gid="1"/>
    <tile gid="1"/>
    <tile gid="1"/>
    <tile gid="1"/>
    <tile gid="1"/>
    <tile gid="387"/>
    <tile gid="1"/>
    <tile gid="1"/>
    <tile gid="1"/>
    <tile gid="1"/>
    <tile gid="1"/>
    <tile gid="1"/>
    <tile gid="1"/>
    <tile gid="1"/>
    <tile gid="1"/>
    <tile gid="1"/>
    <tile gid="1"/>
    <tile gid="1"/>
    <tile gid="1"/>
    <tile gid="1"/>
    <tile gid="387"/>
    <tile gid="387"/>
    <tile gid="387"/>
    <tile gid="387"/>
    <tile gid="387"/>
    <tile gid="387"/>
    <tile gid="387"/>
    <tile gid="387"/>
    <tile gid="387"/>
    <tile gid="1"/>
    <tile gid="1"/>
    <tile gid="1"/>
    <tile gid="387"/>
    <tile gid="1"/>
    <tile gid="1"/>
    <tile gid="1"/>
    <tile gid="1"/>
    <tile gid="387"/>
    <tile gid="1"/>
    <tile gid="1"/>
    <tile gid="1"/>
    <tile gid="1"/>
    <tile gid="1"/>
    <tile gid="1"/>
    <tile gid="1"/>
    <tile gid="1"/>
    <tile gid="1"/>
    <tile gid="1"/>
    <tile gid="1"/>
    <tile gid="387"/>
    <tile gid="1"/>
    <tile gid="1"/>
    <tile gid="1"/>
    <tile gid="1"/>
    <tile gid="1"/>
    <tile gid="387"/>
    <tile gid="1"/>
    <tile gid="1"/>
    <tile gid="1"/>
    <tile gid="1"/>
    <tile gid="1"/>
    <tile gid="1"/>
    <tile gid="1"/>
    <tile gid="1"/>
    <tile gid="1"/>
    <tile gid="1"/>
    <tile gid="1"/>
    <tile gid="1"/>
    <tile gid="1"/>
    <tile gid="1"/>
    <tile gid="387"/>
    <tile gid="1"/>
    <tile gid="1"/>
    <tile gid="1"/>
    <tile gid="1"/>
    <tile gid="1"/>
    <tile gid="1"/>
    <tile gid="1"/>
    <tile gid="387"/>
    <tile gid="387"/>
    <tile gid="387"/>
    <tile gid="387"/>
    <tile gid="387"/>
    <tile gid="1"/>
    <tile gid="1"/>
    <tile gid="1"/>
    <tile gid="1"/>
    <tile gid="387"/>
    <tile gid="1"/>
    <tile gid="1"/>
    <tile gid="1"/>
    <tile gid="1"/>
    <tile gid="1"/>
    <tile gid="387"/>
    <tile gid="387"/>
    <tile gid="387"/>
    <tile gid="387"/>
    <tile gid="387"/>
    <tile gid="387"/>
    <tile gid="387"/>
    <tile gid="1"/>
    <tile gid="1"/>
    <tile gid="1"/>
    <tile gid="1"/>
    <tile gid="1"/>
    <tile gid="387"/>
    <tile gid="387"/>
    <tile gid="387"/>
    <tile gid="387"/>
    <tile gid="387"/>
    <tile gid="387"/>
    <tile gid="387"/>
    <tile gid="1"/>
    <tile gid="1"/>
    <tile gid="1"/>
    <tile gid="1"/>
    <tile gid="1"/>
    <tile gid="1"/>
    <tile gid="1"/>
    <tile gid="1"/>
    <tile gid="387"/>
    <tile gid="1"/>
    <tile gid="1"/>
    <tile gid="1"/>
    <tile gid="1"/>
    <tile gid="1"/>
    <tile gid="1"/>
    <tile gid="1"/>
    <tile gid="1"/>
    <tile gid="1"/>
    <tile gid="1"/>
    <tile gid="1"/>
    <tile gid="1"/>
    <tile gid="1"/>
    <tile gid="1"/>
    <tile gid="1"/>
    <tile gid="1"/>
    <tile gid="387"/>
    <tile gid="1"/>
    <tile gid="1"/>
    <tile gid="1"/>
    <tile gid="1"/>
    <tile gid="1"/>
    <tile gid="387"/>
    <tile gid="1"/>
    <tile gid="1"/>
    <tile gid="1"/>
    <tile gid="1"/>
    <tile gid="1"/>
    <tile gid="1"/>
    <tile gid="1"/>
    <tile gid="1"/>
    <tile gid="1"/>
    <tile gid="1"/>
    <tile gid="1"/>
    <tile gid="1"/>
    <tile gid="1"/>
    <tile gid="1"/>
    <tile gid="1"/>
    <tile gid="1"/>
    <tile gid="1"/>
    <tile gid="387"/>
    <tile gid="1"/>
    <tile gid="1"/>
    <tile gid="1"/>
    <tile gid="1"/>
    <tile gid="1"/>
    <tile gid="1"/>
    <tile gid="1"/>
    <tile gid="1"/>
    <tile gid="387"/>
    <tile gid="1"/>
    <tile gid="1"/>
    <tile gid="1"/>
    <tile gid="1"/>
    <tile gid="1"/>
    <tile gid="1"/>
    <tile gid="1"/>
    <tile gid="1"/>
    <tile gid="1"/>
    <tile gid="1"/>
    <tile gid="1"/>
    <tile gid="1"/>
    <tile gid="1"/>
    <tile gid="1"/>
    <tile gid="1"/>
    <tile gid="1"/>
    <tile gid="387"/>
    <tile gid="1"/>
    <tile gid="1"/>
    <tile gid="1"/>
    <tile gid="1"/>
    <tile gid="1"/>
    <tile gid="387"/>
    <tile gid="1"/>
    <tile gid="1"/>
    <tile gid="1"/>
    <tile gid="1"/>
    <tile gid="1"/>
    <tile gid="1"/>
    <tile gid="1"/>
    <tile gid="1"/>
    <tile gid="1"/>
    <tile gid="1"/>
    <tile gid="1"/>
    <tile gid="1"/>
    <tile gid="1"/>
    <tile gid="1"/>
    <tile gid="1"/>
    <tile gid="1"/>
    <tile gid="1"/>
    <tile gid="387"/>
    <tile gid="1"/>
    <tile gid="1"/>
    <tile gid="1"/>
    <tile gid="1"/>
    <tile gid="1"/>
    <tile gid="1"/>
    <tile gid="1"/>
    <tile gid="1"/>
    <tile gid="387"/>
    <tile gid="1"/>
    <tile gid="1"/>
    <tile gid="1"/>
    <tile gid="1"/>
    <tile gid="1"/>
    <tile gid="1"/>
    <tile gid="1"/>
    <tile gid="387"/>
    <tile gid="387"/>
    <tile gid="387"/>
    <tile gid="387"/>
    <tile gid="387"/>
    <tile gid="1"/>
    <tile gid="1"/>
    <tile gid="1"/>
    <tile gid="1"/>
    <tile gid="387"/>
    <tile gid="1"/>
    <tile gid="1"/>
    <tile gid="1"/>
    <tile gid="1"/>
    <tile gid="1"/>
    <tile gid="387"/>
    <tile gid="1"/>
    <tile gid="1"/>
    <tile gid="1"/>
    <tile gid="1"/>
    <tile gid="1"/>
    <tile gid="1"/>
    <tile gid="1"/>
    <tile gid="1"/>
    <tile gid="1"/>
    <tile gid="1"/>
    <tile gid="1"/>
    <tile gid="1"/>
    <tile gid="1"/>
    <tile gid="1"/>
    <tile gid="1"/>
    <tile gid="1"/>
    <tile gid="1"/>
    <tile gid="387"/>
    <tile gid="1"/>
    <tile gid="1"/>
    <tile gid="1"/>
    <tile gid="1"/>
    <tile gid="1"/>
    <tile gid="1"/>
    <tile gid="1"/>
    <tile gid="1"/>
    <tile gid="387"/>
    <tile gid="1"/>
    <tile gid="1"/>
    <tile gid="1"/>
    <tile gid="1"/>
    <tile gid="1"/>
    <tile gid="1"/>
    <tile gid="1"/>
    <tile gid="387"/>
    <tile gid="1"/>
    <tile gid="1"/>
    <tile gid="1"/>
    <tile gid="387"/>
    <tile gid="1"/>
    <tile gid="1"/>
    <tile gid="1"/>
    <tile gid="1"/>
    <tile gid="387"/>
    <tile gid="1"/>
    <tile gid="1"/>
    <tile gid="1"/>
    <tile gid="1"/>
    <tile gid="1"/>
    <tile gid="387"/>
    <tile gid="1"/>
    <tile gid="1"/>
    <tile gid="1"/>
    <tile gid="1"/>
    <tile gid="1"/>
    <tile gid="1"/>
    <tile gid="1"/>
    <tile gid="1"/>
    <tile gid="1"/>
    <tile gid="1"/>
    <tile gid="1"/>
    <tile gid="1"/>
    <tile gid="1"/>
    <tile gid="1"/>
    <tile gid="1"/>
    <tile gid="1"/>
    <tile gid="1"/>
    <tile gid="387"/>
    <tile gid="1"/>
    <tile gid="1"/>
    <tile gid="1"/>
    <tile gid="1"/>
    <tile gid="1"/>
    <tile gid="1"/>
    <tile gid="1"/>
    <tile gid="1"/>
    <tile gid="387"/>
    <tile gid="387"/>
    <tile gid="387"/>
    <tile gid="387"/>
    <tile gid="387"/>
    <tile gid="387"/>
    <tile gid="387"/>
    <tile gid="387"/>
    <tile gid="387"/>
    <tile gid="1"/>
    <tile gid="1"/>
    <tile gid="1"/>
    <tile gid="387"/>
    <tile gid="1"/>
    <tile gid="1"/>
    <tile gid="1"/>
    <tile gid="1"/>
    <tile gid="387"/>
    <tile gid="1"/>
    <tile gid="1"/>
    <tile gid="1"/>
    <tile gid="1"/>
    <tile gid="1"/>
    <tile gid="387"/>
    <tile gid="1"/>
    <tile gid="1"/>
    <tile gid="1"/>
    <tile gid="1"/>
    <tile gid="1"/>
    <tile gid="1"/>
    <tile gid="1"/>
    <tile gid="1"/>
    <tile gid="1"/>
    <tile gid="1"/>
    <tile gid="1"/>
    <tile gid="1"/>
    <tile gid="1"/>
    <tile gid="1"/>
    <tile gid="1"/>
    <tile gid="1"/>
    <tile gid="1"/>
    <tile gid="387"/>
    <tile gid="1"/>
    <tile gid="1"/>
    <tile gid="1"/>
    <tile gid="1"/>
    <tile gid="1"/>
    <tile gid="1"/>
    <tile gid="1"/>
    <tile gid="1"/>
    <tile gid="1"/>
    <tile gid="1"/>
    <tile gid="1"/>
    <tile gid="1"/>
    <tile gid="1"/>
    <tile gid="1"/>
    <tile gid="1"/>
    <tile gid="1"/>
    <tile gid="1"/>
    <tile gid="1"/>
    <tile gid="1"/>
    <tile gid="1"/>
    <tile gid="387"/>
    <tile gid="1"/>
    <tile gid="1"/>
    <tile gid="1"/>
    <tile gid="1"/>
    <tile gid="387"/>
    <tile gid="1"/>
    <tile gid="1"/>
    <tile gid="1"/>
    <tile gid="1"/>
    <tile gid="1"/>
    <tile gid="387"/>
    <tile gid="1"/>
    <tile gid="1"/>
    <tile gid="1"/>
    <tile gid="1"/>
    <tile gid="1"/>
    <tile gid="1"/>
    <tile gid="1"/>
    <tile gid="1"/>
    <tile gid="1"/>
    <tile gid="1"/>
    <tile gid="1"/>
    <tile gid="1"/>
    <tile gid="1"/>
    <tile gid="1"/>
    <tile gid="1"/>
    <tile gid="1"/>
    <tile gid="1"/>
    <tile gid="387"/>
    <tile gid="1"/>
    <tile gid="1"/>
    <tile gid="1"/>
    <tile gid="1"/>
    <tile gid="1"/>
    <tile gid="1"/>
    <tile gid="1"/>
    <tile gid="1"/>
    <tile gid="387"/>
    <tile gid="387"/>
    <tile gid="387"/>
    <tile gid="387"/>
    <tile gid="387"/>
    <tile gid="387"/>
    <tile gid="387"/>
    <tile gid="387"/>
    <tile gid="387"/>
    <tile gid="1"/>
    <tile gid="1"/>
    <tile gid="1"/>
    <tile gid="387"/>
    <tile gid="1"/>
    <tile gid="1"/>
    <tile gid="1"/>
    <tile gid="1"/>
    <tile gid="387"/>
    <tile gid="1"/>
    <tile gid="1"/>
    <tile gid="1"/>
    <tile gid="1"/>
    <tile gid="1"/>
    <tile gid="387"/>
    <tile gid="1"/>
    <tile gid="1"/>
    <tile gid="1"/>
    <tile gid="1"/>
    <tile gid="1"/>
    <tile gid="1"/>
    <tile gid="1"/>
    <tile gid="1"/>
    <tile gid="1"/>
    <tile gid="1"/>
    <tile gid="1"/>
    <tile gid="1"/>
    <tile gid="1"/>
    <tile gid="1"/>
    <tile gid="1"/>
    <tile gid="1"/>
    <tile gid="1"/>
    <tile gid="387"/>
    <tile gid="1"/>
    <tile gid="1"/>
    <tile gid="1"/>
    <tile gid="1"/>
    <tile gid="1"/>
    <tile gid="1"/>
    <tile gid="1"/>
    <tile gid="1"/>
    <tile gid="387"/>
    <tile gid="1"/>
    <tile gid="1"/>
    <tile gid="1"/>
    <tile gid="1"/>
    <tile gid="1"/>
    <tile gid="1"/>
    <tile gid="1"/>
    <tile gid="387"/>
    <tile gid="387"/>
    <tile gid="387"/>
    <tile gid="387"/>
    <tile gid="387"/>
    <tile gid="1"/>
    <tile gid="1"/>
    <tile gid="1"/>
    <tile gid="1"/>
    <tile gid="387"/>
    <tile gid="1"/>
    <tile gid="1"/>
    <tile gid="1"/>
    <tile gid="1"/>
    <tile gid="1"/>
    <tile gid="387"/>
    <tile gid="1"/>
    <tile gid="1"/>
    <tile gid="1"/>
    <tile gid="1"/>
    <tile gid="1"/>
    <tile gid="1"/>
    <tile gid="1"/>
    <tile gid="1"/>
    <tile gid="1"/>
    <tile gid="1"/>
    <tile gid="1"/>
    <tile gid="1"/>
    <tile gid="1"/>
    <tile gid="1"/>
    <tile gid="1"/>
    <tile gid="1"/>
    <tile gid="1"/>
    <tile gid="387"/>
    <tile gid="1"/>
    <tile gid="1"/>
    <tile gid="1"/>
    <tile gid="1"/>
    <tile gid="1"/>
    <tile gid="1"/>
    <tile gid="1"/>
    <tile gid="1"/>
    <tile gid="387"/>
    <tile gid="1"/>
    <tile gid="1"/>
    <tile gid="1"/>
    <tile gid="1"/>
    <tile gid="1"/>
    <tile gid="1"/>
    <tile gid="1"/>
    <tile gid="1"/>
    <tile gid="1"/>
    <tile gid="1"/>
    <tile gid="1"/>
    <tile gid="1"/>
    <tile gid="1"/>
    <tile gid="1"/>
    <tile gid="1"/>
    <tile gid="1"/>
    <tile gid="387"/>
    <tile gid="1"/>
    <tile gid="1"/>
    <tile gid="1"/>
    <tile gid="1"/>
    <tile gid="1"/>
    <tile gid="387"/>
    <tile gid="1"/>
    <tile gid="1"/>
    <tile gid="1"/>
    <tile gid="1"/>
    <tile gid="1"/>
    <tile gid="1"/>
    <tile gid="1"/>
    <tile gid="1"/>
    <tile gid="1"/>
    <tile gid="1"/>
    <tile gid="1"/>
    <tile gid="1"/>
    <tile gid="1"/>
    <tile gid="1"/>
    <tile gid="1"/>
    <tile gid="1"/>
    <tile gid="1"/>
    <tile gid="387"/>
    <tile gid="1"/>
    <tile gid="1"/>
    <tile gid="1"/>
    <tile gid="1"/>
    <tile gid="1"/>
    <tile gid="1"/>
    <tile gid="1"/>
    <tile gid="1"/>
    <tile gid="387"/>
    <tile gid="1"/>
    <tile gid="1"/>
    <tile gid="1"/>
    <tile gid="1"/>
    <tile gid="1"/>
    <tile gid="1"/>
    <tile gid="1"/>
    <tile gid="1"/>
    <tile gid="1"/>
    <tile gid="1"/>
    <tile gid="1"/>
    <tile gid="1"/>
    <tile gid="1"/>
    <tile gid="1"/>
    <tile gid="1"/>
    <tile gid="1"/>
    <tile gid="387"/>
    <tile gid="1"/>
    <tile gid="1"/>
    <tile gid="1"/>
    <tile gid="1"/>
    <tile gid="1"/>
    <tile gid="387"/>
    <tile gid="1"/>
    <tile gid="1"/>
    <tile gid="1"/>
    <tile gid="1"/>
    <tile gid="1"/>
    <tile gid="1"/>
    <tile gid="1"/>
    <tile gid="1"/>
    <tile gid="1"/>
    <tile gid="1"/>
    <tile gid="1"/>
    <tile gid="1"/>
    <tile gid="1"/>
    <tile gid="1"/>
    <tile gid="1"/>
    <tile gid="1"/>
    <tile gid="1"/>
    <tile gid="387"/>
    <tile gid="1"/>
    <tile gid="1"/>
    <tile gid="1"/>
    <tile gid="1"/>
    <tile gid="1"/>
    <tile gid="1"/>
    <tile gid="1"/>
    <tile gid="1"/>
    <tile gid="387"/>
    <tile gid="1"/>
    <tile gid="1"/>
    <tile gid="1"/>
    <tile gid="1"/>
    <tile gid="1"/>
    <tile gid="1"/>
    <tile gid="1"/>
    <tile gid="387"/>
    <tile gid="387"/>
    <tile gid="387"/>
    <tile gid="387"/>
    <tile gid="387"/>
    <tile gid="387"/>
    <tile gid="387"/>
    <tile gid="387"/>
    <tile gid="387"/>
    <tile gid="387"/>
    <tile gid="1"/>
    <tile gid="1"/>
    <tile gid="1"/>
    <tile gid="1"/>
    <tile gid="1"/>
    <tile gid="387"/>
    <tile gid="387"/>
    <tile gid="387"/>
    <tile gid="387"/>
    <tile gid="387"/>
    <tile gid="387"/>
    <tile gid="387"/>
    <tile gid="387"/>
    <tile gid="387"/>
    <tile gid="387"/>
    <tile gid="387"/>
    <tile gid="387"/>
    <tile gid="387"/>
    <tile gid="387"/>
    <tile gid="387"/>
    <tile gid="387"/>
    <tile gid="387"/>
    <tile gid="387"/>
    <tile gid="387"/>
    <tile gid="1"/>
    <tile gid="1"/>
    <tile gid="1"/>
    <tile gid="1"/>
    <tile gid="1"/>
    <tile gid="1"/>
    <tile gid="1"/>
    <tile gid="1"/>
    <tile gid="387"/>
    <tile gid="1"/>
    <tile gid="1"/>
    <tile gid="1"/>
    <tile gid="1"/>
    <tile gid="1"/>
    <tile gid="387"/>
    <tile gid="387"/>
    <tile gid="387"/>
    <tile gid="1"/>
    <tile gid="1"/>
    <tile gid="1"/>
    <tile gid="1"/>
    <tile gid="1"/>
    <tile gid="1"/>
    <tile gid="1"/>
    <tile gid="1"/>
    <tile gid="1"/>
    <tile gid="1"/>
    <tile gid="1"/>
    <tile gid="1"/>
    <tile gid="1"/>
    <tile gid="1"/>
    <tile gid="1"/>
    <tile gid="1"/>
    <tile gid="1"/>
    <tile gid="1"/>
    <tile gid="1"/>
    <tile gid="1"/>
    <tile gid="1"/>
    <tile gid="1"/>
    <tile gid="1"/>
    <tile gid="1"/>
    <tile gid="1"/>
    <tile gid="1"/>
    <tile gid="1"/>
    <tile gid="1"/>
    <tile gid="1"/>
    <tile gid="1"/>
    <tile gid="1"/>
    <tile gid="1"/>
    <tile gid="1"/>
    <tile gid="1"/>
    <tile gid="1"/>
    <tile gid="1"/>
    <tile gid="1"/>
    <tile gid="1"/>
    <tile gid="1"/>
    <tile gid="1"/>
    <tile gid="1"/>
    <tile gid="387"/>
    <tile gid="1"/>
    <tile gid="1"/>
    <tile gid="1"/>
    <tile gid="1"/>
    <tile gid="1"/>
    <tile gid="387"/>
    <tile gid="1"/>
    <tile gid="1"/>
    <tile gid="1"/>
    <tile gid="1"/>
    <tile gid="1"/>
    <tile gid="1"/>
    <tile gid="1"/>
    <tile gid="1"/>
    <tile gid="1"/>
    <tile gid="1"/>
    <tile gid="1"/>
    <tile gid="1"/>
    <tile gid="1"/>
    <tile gid="1"/>
    <tile gid="1"/>
    <tile gid="1"/>
    <tile gid="1"/>
    <tile gid="1"/>
    <tile gid="1"/>
    <tile gid="1"/>
    <tile gid="1"/>
    <tile gid="1"/>
    <tile gid="1"/>
    <tile gid="1"/>
    <tile gid="1"/>
    <tile gid="1"/>
    <tile gid="1"/>
    <tile gid="1"/>
    <tile gid="1"/>
    <tile gid="1"/>
    <tile gid="1"/>
    <tile gid="1"/>
    <tile gid="1"/>
    <tile gid="1"/>
    <tile gid="1"/>
    <tile gid="1"/>
    <tile gid="1"/>
    <tile gid="1"/>
    <tile gid="1"/>
    <tile gid="1"/>
    <tile gid="1"/>
    <tile gid="1"/>
    <tile gid="1"/>
    <tile gid="387"/>
    <tile gid="387"/>
    <tile gid="387"/>
    <tile gid="387"/>
    <tile gid="387"/>
    <tile gid="387"/>
    <tile gid="387"/>
    <tile gid="1"/>
    <tile gid="1"/>
    <tile gid="1"/>
    <tile gid="1"/>
    <tile gid="1"/>
    <tile gid="1"/>
    <tile gid="1"/>
    <tile gid="1"/>
    <tile gid="1"/>
    <tile gid="1"/>
    <tile gid="1"/>
    <tile gid="1"/>
    <tile gid="1"/>
    <tile gid="1"/>
   </data>
  </layer>
 </group>
 <group id="55" name="rooms" visible="0">
  <group id="59" name="room" visible="0">
   <objectgroup id="78" name="wall">
    <object id="314" x="144.167" y="576" width="16" height="16"/>
    <object id="315" x="159.834" y="576" width="16" height="16"/>
    <object id="316" x="208.834" y="576" width="16" height="16"/>
    <object id="317" x="176.167" y="576" width="16" height="16"/>
    <object id="318" x="192.834" y="576" width="16" height="16"/>
   </objectgroup>
   <objectgroup id="61" name="spawner">
    <object id="162" x="245.333" y="694.333">
     <properties>
      <property name="enemy" type="int" value="0"/>
      <property name="type" type="int" value="1"/>
     </properties>
    </object>
    <object id="163" x="293.667" y="694.667">
     <properties>
      <property name="enemy" type="int" value="0"/>
      <property name="type" type="int" value="1"/>
     </properties>
    </object>
    <object id="164" x="277" y="729.333">
     <properties>
      <property name="enemy" type="int" value="0"/>
      <property name="type" type="int" value="1"/>
     </properties>
    </object>
    <object id="165" x="134.667" y="691.167">
     <properties>
      <property name="enemy" type="int" value="0"/>
      <property name="type" type="int" value="1"/>
     </properties>
    </object>
    <object id="166" x="96" y="702.667">
     <properties>
      <property name="enemy" type="int" value="0"/>
      <property name="type" type="int" value="1"/>
     </properties>
    </object>
    <object id="167" x="208.833" y="654.5">
     <properties>
      <property name="enemy" type="int" value="0"/>
      <property name="type" type="int" value="1"/>
     </properties>
    </object>
    <object id="168" x="137.333" y="732">
     <properties>
      <property name="enemy" type="int" value="0"/>
      <property name="type" type="int" value="1"/>
     </properties>
    </object>
    <object id="169" x="73" y="732">
     <properties>
      <property name="enemy" type="int" value="0"/>
      <property name="type" type="int" value="1"/>
     </properties>
    </object>
    <object id="170" x="204.667" y="731.667">
     <properties>
      <property name="enemy" type="int" value="0"/>
      <property name="type" type="int" value="1"/>
     </properties>
    </object>
    <object id="272" x="157" y="655.833">
     <properties>
      <property name="enemy" type="int" value="0"/>
      <property name="type" type="int" value="1"/>
     </properties>
    </object>
    <object id="273" x="296.667" y="640.833">
     <properties>
      <property name="enemy" type="int" value="0"/>
      <property name="type" type="int" value="1"/>
     </properties>
    </object>
    <object id="274" x="80.5" y="636">
     <properties>
      <property name="enemy" type="int" value="0"/>
      <property name="type" type="int" value="1"/>
     </properties>
    </object>
    <object id="275" x="201.667" y="689.667">
     <properties>
      <property name="enemy" type="int" value="0"/>
      <property name="type" type="int" value="1"/>
     </properties>
    </object>
    <object id="276" x="95.167" y="666.834">
     <properties>
      <property name="enemy" type="int" value="0"/>
      <property name="type" type="int" value="1"/>
     </properties>
    </object>
    <object id="277" x="260.667" y="662.667">
     <properties>
      <property name="enemy" type="int" value="0"/>
      <property name="type" type="int" value="1"/>
     </properties>
    </object>
   </objectgroup>
   <objectgroup id="86" name="room_trigger">
    <object id="319" x="49" y="609.5" width="273.5" height="18"/>
   </objectgroup>
  </group>
  <group id="79" name="room" visible="0">
   <objectgroup id="80" name="wall">
    <object id="257" x="144.333" y="560" width="16" height="16"/>
    <object id="258" x="160" y="560" width="16" height="16"/>
    <object id="259" x="209" y="560" width="16" height="16"/>
    <object id="260" x="176.333" y="560" width="16" height="16"/>
    <object id="261" x="193" y="560" width="16" height="16"/>
    <object id="310" x="224" y="416.834" width="16" height="16"/>
    <object id="311" x="224" y="400.167" width="16" height="16"/>
    <object id="312" x="224" y="367.167" width="16" height="16"/>
    <object id="313" x="224" y="383.834" width="16" height="16"/>
   </objectgroup>
   <objectgroup id="81" name="spawner">
    <object id="263" x="199.5" y="502.833">
     <properties>
      <property name="enemy" type="int" value="0"/>
      <property name="type" type="int" value="1"/>
     </properties>
    </object>
    <object id="264" x="160" y="504">
     <properties>
      <property name="enemy" type="int" value="0"/>
      <property name="type" type="int" value="1"/>
     </properties>
    </object>
    <object id="265" x="209.5" y="470.667">
     <properties>
      <property name="enemy" type="int" value="0"/>
      <property name="type" type="int" value="1"/>
     </properties>
    </object>
    <object id="266" x="163" y="538.333">
     <properties>
      <property name="enemy" type="int" value="0"/>
      <property name="type" type="int" value="1"/>
     </properties>
    </object>
    <object id="267" x="170.5" y="473.333">
     <properties>
      <property name="enemy" type="int" value="0"/>
      <property name="type" type="int" value="1"/>
     </properties>
    </object>
    <object id="268" x="205.667" y="545.667">
     <properties>
      <property name="enemy" type="int" value="0"/>
      <property name="type" type="int" value="1"/>
     </properties>
    </object>
    <object id="269" x="127.167" y="472.833">
     <properties>
      <property name="enemy" type="int" value="0"/>
      <property name="type" type="int" value="1"/>
     </properties>
    </object>
    <object id="271" x="82.6667" y="456.833">
     <properties>
      <property name="enemy" type="int" value="0"/>
      <property name="type" type="int" value="1"/>
     </properties>
    </object>
   </objectgroup>
   <objectgroup id="85" name="room_trigger">
    <object id="309" x="63" y="437.5" width="165.5" height="19.5"/>
   </objectgroup>
  </group>
  <group id="56" name="room" visible="0">
   <objectgroup id="74" name="wall">
    <object id="233" x="256" y="416.33" width="16" height="16"/>
    <object id="234" x="256" y="399.663" width="16" height="16"/>
    <object id="235" x="256" y="366.663" width="16" height="16"/>
    <object id="236" x="256" y="383.33" width="16" height="16"/>
    <object id="305" x="544.5" y="431.5" width="16" height="16" rotation="89.8905"/>
    <object id="306" x="544.5" y="447.5" width="16" height="16" rotation="89.8905"/>
    <object id="307" x="544.5" y="463.5" width="16" height="16" rotation="89.8905"/>
    <object id="254" x="400" y="208" width="16" height="16"/>
    <object id="255" x="383.333" y="208" width="16" height="16"/>
   </objectgroup>
   <objectgroup id="58" name="spawner">
    <object id="146" x="336" y="321" height="1">
     <properties>
      <property name="enemy" type="int" value="0"/>
      <property name="type" type="int" value="1"/>
     </properties>
    </object>
    <object id="175" x="297" y="303">
     <properties>
      <property name="enemy" type="int" value="0"/>
      <property name="type" type="int" value="1"/>
     </properties>
    </object>
    <object id="176" x="288" y="478" height="1">
     <properties>
      <property name="enemy" type="int" value="0"/>
      <property name="type" type="int" value="1"/>
     </properties>
    </object>
    <object id="177" x="290" y="476">
     <properties>
      <property name="enemy" type="int" value="0"/>
      <property name="type" type="int" value="1"/>
     </properties>
    </object>
    <object id="178" x="335" y="468">
     <properties>
      <property name="enemy" type="int" value="0"/>
      <property name="type" type="int" value="1"/>
     </properties>
    </object>
    <object id="179" x="342" y="424">
     <properties>
      <property name="enemy" type="int" value="0"/>
      <property name="type" type="int" value="1"/>
     </properties>
    </object>
    <object id="180" x="362" y="398">
     <properties>
      <property name="enemy" type="int" value="0"/>
      <property name="type" type="int" value="1"/>
     </properties>
    </object>
    <object id="181" x="404" y="373">
     <properties>
      <property name="enemy" type="int" value="0"/>
      <property name="type" type="int" value="1"/>
     </properties>
    </object>
    <object id="182" x="466" y="470">
     <properties>
      <property name="enemy" type="int" value="0"/>
      <property name="type" type="int" value="1"/>
     </properties>
    </object>
    <object id="183" x="435" y="323">
     <properties>
      <property name="enemy" type="int" value="0"/>
      <property name="type" type="int" value="1"/>
     </properties>
    </object>
    <object id="184" x="462" y="299">
     <properties>
      <property name="enemy" type="int" value="0"/>
      <property name="type" type="int" value="1"/>
     </properties>
    </object>
    <object id="185" x="403" y="296">
     <properties>
      <property name="enemy" type="int" value="0"/>
      <property name="type" type="int" value="1"/>
     </properties>
    </object>
    <object id="186" x="345" y="299">
     <properties>
      <property name="enemy" type="int" value="0"/>
      <property name="type" type="int" value="1"/>
     </properties>
    </object>
    <object id="187" x="288" y="431">
     <properties>
      <property name="enemy" type="int" value="0"/>
      <property name="type" type="int" value="1"/>
     </properties>
    </object>
    <object id="188" x="292" y="400">
     <properties>
      <property name="enemy" type="int" value="0"/>
      <property name="type" type="int" value="1"/>
     </properties>
    </object>
    <object id="189" x="456" y="366">
     <properties>
      <property name="enemy" type="int" value="0"/>
      <property name="type" type="int" value="1"/>
     </properties>
    </object>
    <object id="190" x="294" y="335">
     <properties>
      <property name="enemy" type="int" value="0"/>
      <property name="type" type="int" value="1"/>
     </properties>
    </object>
    <object id="191" x="347" y="335">
     <properties>
      <property name="enemy" type="int" value="0"/>
      <property name="type" type="int" value="1"/>
     </properties>
    </object>
    <object id="192" x="344" y="368">
     <properties>
      <property name="enemy" type="int" value="0"/>
      <property name="type" type="int" value="1"/>
     </properties>
    </object>
    <object id="193" x="504" y="316">
     <properties>
      <property name="enemy" type="int" value="0"/>
      <property name="type" type="int" value="1"/>
     </properties>
    </object>
    <object id="194" x="434" y="443">
     <properties>
      <property name="enemy" type="int" value="0"/>
      <property name="type" type="int" value="1"/>
     </properties>
    </object>
   </objectgroup>
   <objectgroup id="84" name="room_trigger">
    <object id="308" x="485.5" y="282" width="22" height="215"/>
   </objectgroup>
  </group>
  <group id="62" name="room" visible="0">
   <objectgroup id="76" name="wall">
    <object id="291" x="672.243" y="496.5" width="16" height="16"/>
    <object id="292" x="688.243" y="496.5" width="16" height="16"/>
    <object id="293" x="704.243" y="496.5" width="16" height="16"/>
    <object id="294" x="719.91" y="496.5" width="16" height="16"/>
    <object id="298" x="576" y="431.985" width="16" height="16" rotation="89.8905"/>
    <object id="299" x="576" y="447.985" width="16" height="16" rotation="89.8905"/>
    <object id="300" x="576" y="463.985" width="16" height="16" rotation="89.8905"/>
   </objectgroup>
   <objectgroup id="64" name="spawner">
    <object id="223" x="663" y="311">
     <properties>
      <property name="enemy" type="int" value="0"/>
      <property name="type" type="int" value="1"/>
     </properties>
    </object>
    <object id="224" x="667" y="337">
     <properties>
      <property name="enemy" type="int" value="0"/>
      <property name="type" type="int" value="1"/>
     </properties>
    </object>
    <object id="225" x="707" y="312">
     <properties>
      <property name="enemy" type="int" value="0"/>
      <property name="type" type="int" value="1"/>
     </properties>
    </object>
    <object id="226" x="745.667" y="307.333">
     <properties>
      <property name="enemy" type="int" value="0"/>
      <property name="type" type="int" value="1"/>
     </properties>
    </object>
    <object id="227" x="743.333" y="330.333">
     <properties>
      <property name="enemy" type="int" value="0"/>
      <property name="type" type="int" value="1"/>
     </properties>
    </object>
    <object id="228" x="596.5" y="445.5">
     <properties>
      <property name="enemy" type="int" value="0"/>
      <property name="type" type="int" value="1"/>
     </properties>
    </object>
    <object id="230" x="626" y="444.5">
     <properties>
      <property name="enemy" type="int" value="0"/>
      <property name="type" type="int" value="1"/>
     </properties>
    </object>
    <object id="231" x="705.167" y="407.5">
     <properties>
      <property name="enemy" type="int" value="0"/>
      <property name="type" type="int" value="1"/>
     </properties>
    </object>
   </objectgroup>
   <objectgroup id="83" name="room_trigger">
    <object id="301" x="646" y="455" width="101" height="22"/>
   </objectgroup>
  </group>
  <group id="65" name="room" visible="0">
   <objectgroup id="66" name="wall">
    <object id="279" x="672.095" y="544" width="16" height="16"/>
    <object id="280" x="688.095" y="544" width="16" height="16"/>
    <object id="281" x="704" y="544" width="16" height="16"/>
    <object id="282" x="720.262" y="544" width="16" height="16"/>
    <object id="295" x="608" y="704" width="16" height="16" rotation="90"/>
    <object id="296" x="608" y="720" width="16" height="16" rotation="90"/>
   </objectgroup>
   <objectgroup id="67" name="spawner">
    <object id="195" x="566" y="580">
     <properties>
      <property name="enemy" type="int" value="0"/>
      <property name="type" type="int" value="1"/>
     </properties>
    </object>
    <object id="196" x="506" y="580">
     <properties>
      <property name="enemy" type="int" value="0"/>
      <property name="type" type="int" value="1"/>
     </properties>
    </object>
    <object id="197" x="539" y="616">
     <properties>
      <property name="enemy" type="int" value="0"/>
      <property name="type" type="int" value="1"/>
     </properties>
    </object>
    <object id="198" x="689" y="577">
     <properties>
      <property name="enemy" type="int" value="0"/>
      <property name="type" type="int" value="1"/>
     </properties>
    </object>
    <object id="199" x="721" y="608">
     <properties>
      <property name="enemy" type="int" value="0"/>
      <property name="type" type="int" value="1"/>
     </properties>
    </object>
    <object id="200" x="713" y="714">
     <properties>
      <property name="enemy" type="int" value="0"/>
      <property name="type" type="int" value="1"/>
     </properties>
    </object>
   </objectgroup>
   <objectgroup id="82" name="room_trigger">
    <object id="297" x="629.25" y="697.75" width="18.5" height="37.25"/>
   </objectgroup>
  </group>
 </group>
 <objectgroup id="73" name="spawner" visible="0">
  <object id="222" x="520" y="731">
   <properties>
    <property name="type" type="int" value="0"/>
   </properties>
  </object>
 </objectgroup>
 <objectgroup id="87" name="door" visible="0">
  <properties>
   <property name="next_level" value="game_end"/>
  </properties>
 </objectgroup>
 <objectgroup id="88" name="traps" visible="0">
  <object id="320" x="672" y="688" width="16" height="16"/>
  <object id="321" x="688.667" y="688" width="16" height="16"/>
  <object id="322" x="704.167" y="687.75" width="16" height="16"/>
  <object id="323" x="720.833" y="688" width="16" height="16"/>
  <object id="324" x="608.667" y="574.667" width="16" height="16"/>
  <object id="325" x="623.333" y="592" width="16" height="16"/>
  <object id="326" x="641.333" y="574.667" width="16" height="16"/>
  <object id="327" x="656.667" y="592.667" width="16" height="16"/>
  <object id="328" x="592" y="592.667" width="16" height="16"/>
  <object id="329" x="688" y="416.667" width="16" height="16"/>
  <object id="330" x="706" y="400" width="16" height="16"/>
  <object id="331" x="688" y="385.333" width="16" height="16"/>
  <object id="332" x="704.667" y="368" width="16" height="16"/>
  <object id="333" x="688" y="352.667" width="16" height="16"/>
  <object id="335" x="366.667" y="224.667" width="16" height="16"/>
  <object id="336" x="384" y="240" width="16" height="16"/>
  <object id="337" x="400" y="240" width="16" height="16"/>
  <object id="338" x="414.667" y="223.333" width="16" height="16"/>
  <object id="339" x="322.667" y="272.667" width="16" height="16"/>
  <object id="340" x="335.333" y="286" width="16" height="16"/>
  <object id="341" x="351.333" y="304" width="16" height="16"/>
  <object id="342" x="462.667" y="270.667" width="16" height="16"/>
  <object id="343" x="447.333" y="287.333" width="16" height="16"/>
  <object id="344" x="430.667" y="302.667" width="16" height="16"/>
  <object id="345" x="288.667" y="431.333" width="16" height="16"/>
  <object id="346" x="304.667" y="446.667" width="16" height="16"/>
  <object id="347" x="353.333" y="368.667" width="16" height="16"/>
  <object id="348" x="368.667" y="384" width="16" height="16"/>
  <object id="349" x="463.333" y="352" width="16" height="16"/>
  <object id="350" x="480.667" y="352" width="16" height="16"/>
  <object id="351" x="498" y="352" width="16" height="16"/>
  <object id="352" x="144" y="416" width="16" height="16"/>
  <object id="353" x="160" y="432" width="16" height="16"/>
  <object id="354" x="176" y="448" width="16" height="16"/>
  <object id="355" x="192" y="464" width="16" height="16"/>
  <object id="356" x="208" y="480" width="16" height="16"/>
  <object id="361" x="160" y="464" width="16" height="16"/>
  <object id="362" x="144" y="480" width="16" height="16"/>
  <object id="363" x="192" y="432" width="16" height="16"/>
  <object id="364" x="208" y="416" width="16" height="16"/>
  <object id="365" x="144" y="448" width="16" height="16"/>
  <object id="366" x="208" y="448" width="16" height="16"/>
  <object id="367" x="176" y="416" width="16" height="16"/>
  <object id="368" x="176" y="480" width="16" height="16"/>
  <object id="369" x="47.3333" y="592.667" width="16" height="16"/>
  <object id="370" x="64.6667" y="607.333" width="16" height="16"/>
  <object id="371" x="80.6667" y="623.333" width="16" height="16"/>
  <object id="372" x="96" y="640" width="16" height="16"/>
  <object id="373" x="304" y="593.333" width="16" height="16"/>
  <object id="374" x="288" y="608" width="16" height="16"/>
  <object id="375" x="272" y="624" width="16" height="16"/>
  <object id="376" x="255.333" y="640.667" width="16" height="16"/>
  <object id="377" x="144" y="656" width="16" height="16"/>
  <object id="378" x="159.333" y="640.667" width="16" height="16"/>
  <object id="379" x="176" y="656" width="16" height="16"/>
  <object id="380" x="192" y="639.333" width="16" height="16"/>
  <object id="381" x="208.667" y="655.333" width="16" height="16"/>
  <object id="382" x="176" y="608.667" width="16" height="16"/>
  <object id="383" x="176" y="592" width="16" height="16"/>
  <object id="384" x="80.6667" y="688" width="16" height="16"/>
  <object id="385" x="80" y="671.333" width="16" height="16"/>
  <object id="386" x="80" y="705.333" width="16" height="16"/>
  <object id="387" x="64.6667" y="688" width="16" height="16"/>
  <object id="388" x="96" y="688" width="16" height="16"/>
  <object id="389" x="272" y="688" width="16" height="16"/>
  <object id="390" x="254" y="688" width="16" height="16"/>
  <object id="391" x="272" y="670.667" width="16" height="16"/>
  <object id="392" x="289.333" y="688" width="16" height="16"/>
  <object id="393" x="272" y="705.333" width="16" height="16"/>
 </objectgroup>
 <objectgroup id="89" name="coffers">
  <object id="396" x="705.333" y="310.667"/>
  <object id="397" x="96" y="456"/>
  <object id="398" x="220" y="730.667"/>
 </objectgroup>
 <group id="91" name="levers">
  <group id="96" name="lever">
   <objectgroup id="92" name="lever">
    <object id="402" x="181" y="731"/>
   </objectgroup>
   <objectgroup id="94" name="walls">
    <object id="403" x="384" y="176" width="16" height="16"/>
    <object id="404" x="400" y="176" width="16" height="16"/>
   </objectgroup>
  </group>
 </group>
</map>
