<?xml version="1.0" encoding="UTF-8"?>
<map version="1.10" tiledversion="1.10.0" orientation="orthogonal" renderorder="right-down" width="40" height="30" tilewidth="16" tileheight="16" infinite="0" nextlayerid="7" nextobjectid="8" maxBaseLayer="2">
 <tileset firstgid="1" source="../media/DungeonTileset.tsx"/>
 <group id="6" name="render">
  <layer id="1" name="base" width="40" height="30">
   <data>
    <tile gid="130"/>
    <tile gid="130"/>
    <tile gid="130"/>
    <tile gid="130"/>
    <tile gid="130"/>
    <tile gid="130"/>
    <tile gid="130"/>
    <tile gid="130"/>
    <tile gid="130"/>
    <tile gid="130"/>
    <tile gid="130"/>
    <tile gid="130"/>
    <tile gid="130"/>
    <tile gid="130"/>
    <tile gid="130"/>
    <tile gid="130"/>
    <tile gid="130"/>
    <tile gid="130"/>
    <tile gid="130"/>
    <tile gid="130"/>
    <tile gid="130"/>
    <tile gid="130"/>
    <tile gid="130"/>
    <tile gid="130"/>
    <tile gid="130"/>
    <tile gid="130"/>
    <tile gid="130"/>
    <tile gid="130"/>
    <tile gid="130"/>
    <tile gid="130"/>
    <tile gid="130"/>
    <tile gid="130"/>
    <tile gid="130"/>
    <tile gid="130"/>
    <tile gid="130"/>
    <tile gid="130"/>
    <tile gid="130"/>
    <tile gid="130"/>
    <tile gid="130"/>
    <tile gid="130"/>
    <tile gid="130"/>
    <tile gid="130"/>
    <tile gid="130"/>
    <tile gid="130"/>
    <tile gid="130"/>
    <tile gid="130"/>
    <tile gid="130"/>
    <tile gid="130"/>
    <tile gid="130"/>
    <tile gid="130"/>
    <tile gid="130"/>
    <tile gid="130"/>
    <tile gid="130"/>
    <tile gid="130"/>
    <tile gid="130"/>
    <tile gid="130"/>
    <tile gid="130"/>
    <tile gid="130"/>
    <tile gid="130"/>
    <tile gid="130"/>
    <tile gid="130"/>
    <tile gid="130"/>
    <tile gid="130"/>
    <tile gid="130"/>
    <tile gid="130"/>
    <tile gid="130"/>
    <tile gid="130"/>
    <tile gid="130"/>
    <tile gid="130"/>
    <tile gid="130"/>
    <tile gid="130"/>
    <tile gid="130"/>
    <tile gid="130"/>
    <tile gid="130"/>
    <tile gid="130"/>
    <tile gid="130"/>
    <tile gid="130"/>
    <tile gid="130"/>
    <tile gid="130"/>
    <tile gid="163"/>
    <tile gid="130"/>
    <tile gid="130"/>
    <tile gid="130"/>
    <tile gid="130"/>
    <tile gid="130"/>
    <tile gid="130"/>
    <tile gid="130"/>
    <tile gid="130"/>
    <tile gid="130"/>
    <tile gid="130"/>
    <tile gid="130"/>
    <tile gid="130"/>
    <tile gid="130"/>
    <tile gid="130"/>
    <tile gid="130"/>
    <tile gid="130"/>
    <tile gid="130"/>
    <tile gid="130"/>
    <tile gid="130"/>
    <tile gid="130"/>
    <tile gid="130"/>
    <tile gid="130"/>
    <tile gid="130"/>
    <tile gid="162"/>
    <tile gid="130"/>
    <tile gid="130"/>
    <tile gid="130"/>
    <tile gid="130"/>
    <tile gid="130"/>
    <tile gid="130"/>
    <tile gid="130"/>
    <tile gid="130"/>
    <tile gid="130"/>
    <tile gid="130"/>
    <tile gid="130"/>
    <tile gid="130"/>
    <tile gid="130"/>
    <tile gid="130"/>
    <tile gid="163"/>
    <tile gid="163"/>
    <tile gid="130"/>
    <tile gid="130"/>
    <tile gid="130"/>
    <tile gid="130"/>
    <tile gid="130"/>
    <tile gid="130"/>
    <tile gid="130"/>
    <tile gid="130"/>
    <tile gid="130"/>
    <tile gid="130"/>
    <tile gid="130"/>
    <tile gid="130"/>
    <tile gid="130"/>
    <tile gid="130"/>
    <tile gid="130"/>
    <tile gid="130"/>
    <tile gid="130"/>
    <tile gid="130"/>
    <tile gid="131"/>
    <tile gid="162"/>
    <tile gid="130"/>
    <tile gid="130"/>
    <tile gid="162"/>
    <tile gid="162"/>
    <tile gid="162"/>
    <tile gid="130"/>
    <tile gid="162"/>
    <tile gid="162"/>
    <tile gid="130"/>
    <tile gid="130"/>
    <tile gid="130"/>
    <tile gid="130"/>
    <tile gid="130"/>
    <tile gid="130"/>
    <tile gid="130"/>
    <tile gid="130"/>
    <tile gid="130"/>
    <tile gid="130"/>
    <tile gid="130"/>
    <tile gid="130"/>
    <tile gid="130"/>
    <tile gid="130"/>
    <tile gid="130"/>
    <tile gid="130"/>
    <tile gid="130"/>
    <tile gid="130"/>
    <tile gid="130"/>
    <tile gid="130"/>
    <tile gid="130"/>
    <tile gid="130"/>
    <tile gid="130"/>
    <tile gid="130"/>
    <tile gid="130"/>
    <tile gid="131"/>
    <tile gid="131"/>
    <tile gid="131"/>
    <tile gid="131"/>
    <tile gid="162"/>
    <tile gid="162"/>
    <tile gid="130"/>
    <tile gid="130"/>
    <tile gid="130"/>
    <tile gid="130"/>
    <tile gid="130"/>
    <tile gid="163"/>
    <tile gid="130"/>
    <tile gid="131"/>
    <tile gid="130"/>
    <tile gid="130"/>
    <tile gid="130"/>
    <tile gid="130"/>
    <tile gid="130"/>
    <tile gid="130"/>
    <tile gid="130"/>
    <tile gid="130"/>
    <tile gid="130"/>
    <tile gid="130"/>
    <tile gid="163"/>
    <tile gid="130"/>
    <tile gid="130"/>
    <tile gid="130"/>
    <tile gid="130"/>
    <tile gid="130"/>
    <tile gid="130"/>
    <tile gid="130"/>
    <tile gid="130"/>
    <tile gid="130"/>
    <tile gid="130"/>
    <tile gid="130"/>
    <tile gid="130"/>
    <tile gid="162"/>
    <tile gid="162"/>
    <tile gid="162"/>
    <tile gid="130"/>
    <tile gid="130"/>
    <tile gid="162"/>
    <tile gid="130"/>
    <tile gid="130"/>
    <tile gid="130"/>
    <tile gid="130"/>
    <tile gid="130"/>
    <tile gid="130"/>
    <tile gid="130"/>
    <tile gid="130"/>
    <tile gid="130"/>
    <tile gid="130"/>
    <tile gid="130"/>
    <tile gid="130"/>
    <tile gid="130"/>
    <tile gid="130"/>
    <tile gid="130"/>
    <tile gid="130"/>
    <tile gid="195"/>
    <tile gid="131"/>
    <tile gid="130"/>
    <tile gid="130"/>
    <tile gid="130"/>
    <tile gid="130"/>
    <tile gid="130"/>
    <tile gid="130"/>
    <tile gid="131"/>
    <tile gid="130"/>
    <tile gid="130"/>
    <tile gid="131"/>
    <tile gid="130"/>
    <tile gid="131"/>
    <tile gid="162"/>
    <tile gid="130"/>
    <tile gid="130"/>
    <tile gid="130"/>
    <tile gid="130"/>
    <tile gid="130"/>
    <tile gid="130"/>
    <tile gid="130"/>
    <tile gid="130"/>
    <tile gid="130"/>
    <tile gid="131"/>
    <tile gid="130"/>
    <tile gid="195"/>
    <tile gid="130"/>
    <tile gid="130"/>
    <tile gid="130"/>
    <tile gid="130"/>
    <tile gid="130"/>
    <tile gid="130"/>
    <tile gid="130"/>
    <tile gid="130"/>
    <tile gid="130"/>
    <tile gid="162"/>
    <tile gid="130"/>
    <tile gid="163"/>
    <tile gid="130"/>
    <tile gid="131"/>
    <tile gid="131"/>
    <tile gid="130"/>
    <tile gid="162"/>
    <tile gid="163"/>
    <tile gid="130"/>
    <tile gid="130"/>
    <tile gid="130"/>
    <tile gid="131"/>
    <tile gid="130"/>
    <tile gid="131"/>
    <tile gid="130"/>
    <tile gid="130"/>
    <tile gid="162"/>
    <tile gid="162"/>
    <tile gid="130"/>
    <tile gid="131"/>
    <tile gid="131"/>
    <tile gid="130"/>
    <tile gid="130"/>
    <tile gid="163"/>
    <tile gid="130"/>
    <tile gid="130"/>
    <tile gid="130"/>
    <tile gid="130"/>
    <tile gid="130"/>
    <tile gid="130"/>
    <tile gid="130"/>
    <tile gid="130"/>
    <tile gid="130"/>
    <tile gid="130"/>
    <tile gid="130"/>
    <tile gid="130"/>
    <tile gid="163"/>
    <tile gid="130"/>
    <tile gid="130"/>
    <tile gid="131"/>
    <tile gid="130"/>
    <tile gid="163"/>
    <tile gid="130"/>
    <tile gid="163"/>
    <tile gid="131"/>
    <tile gid="130"/>
    <tile gid="130"/>
    <tile gid="130"/>
    <tile gid="130"/>
    <tile gid="130"/>
    <tile gid="130"/>
    <tile gid="130"/>
    <tile gid="130"/>
    <tile gid="130"/>
    <tile gid="130"/>
    <tile gid="130"/>
    <tile gid="130"/>
    <tile gid="130"/>
    <tile gid="130"/>
    <tile gid="130"/>
    <tile gid="130"/>
    <tile gid="163"/>
    <tile gid="163"/>
    <tile gid="130"/>
    <tile gid="131"/>
    <tile gid="162"/>
    <tile gid="130"/>
    <tile gid="130"/>
    <tile gid="130"/>
    <tile gid="130"/>
    <tile gid="130"/>
    <tile gid="130"/>
    <tile gid="130"/>
    <tile gid="130"/>
    <tile gid="130"/>
    <tile gid="130"/>
    <tile gid="130"/>
    <tile gid="163"/>
    <tile gid="130"/>
    <tile gid="130"/>
    <tile gid="130"/>
    <tile gid="130"/>
    <tile gid="130"/>
    <tile gid="130"/>
    <tile gid="130"/>
    <tile gid="130"/>
    <tile gid="130"/>
    <tile gid="130"/>
    <tile gid="130"/>
    <tile gid="130"/>
    <tile gid="130"/>
    <tile gid="130"/>
    <tile gid="130"/>
    <tile gid="130"/>
    <tile gid="130"/>
    <tile gid="130"/>
    <tile gid="130"/>
    <tile gid="130"/>
    <tile gid="130"/>
    <tile gid="130"/>
    <tile gid="130"/>
    <tile gid="130"/>
    <tile gid="163"/>
    <tile gid="130"/>
    <tile gid="130"/>
    <tile gid="130"/>
    <tile gid="130"/>
    <tile gid="130"/>
    <tile gid="130"/>
    <tile gid="130"/>
    <tile gid="130"/>
    <tile gid="130"/>
    <tile gid="163"/>
    <tile gid="163"/>
    <tile gid="163"/>
    <tile gid="163"/>
    <tile gid="195"/>
    <tile gid="163"/>
    <tile gid="130"/>
    <tile gid="130"/>
    <tile gid="130"/>
    <tile gid="130"/>
    <tile gid="130"/>
    <tile gid="130"/>
    <tile gid="130"/>
    <tile gid="130"/>
    <tile gid="130"/>
    <tile gid="130"/>
    <tile gid="130"/>
    <tile gid="130"/>
    <tile gid="130"/>
    <tile gid="163"/>
    <tile gid="130"/>
    <tile gid="130"/>
    <tile gid="130"/>
    <tile gid="130"/>
    <tile gid="130"/>
    <tile gid="130"/>
    <tile gid="195"/>
    <tile gid="130"/>
    <tile gid="131"/>
    <tile gid="130"/>
    <tile gid="130"/>
    <tile gid="130"/>
    <tile gid="130"/>
    <tile gid="130"/>
    <tile gid="162"/>
    <tile gid="130"/>
    <tile gid="130"/>
    <tile gid="130"/>
    <tile gid="130"/>
    <tile gid="130"/>
    <tile gid="163"/>
    <tile gid="163"/>
    <tile gid="163"/>
    <tile gid="130"/>
    <tile gid="130"/>
    <tile gid="130"/>
    <tile gid="130"/>
    <tile gid="130"/>
    <tile gid="163"/>
    <tile gid="163"/>
    <tile gid="195"/>
    <tile gid="130"/>
    <tile gid="130"/>
    <tile gid="130"/>
    <tile gid="130"/>
    <tile gid="130"/>
    <tile gid="130"/>
    <tile gid="130"/>
    <tile gid="130"/>
    <tile gid="163"/>
    <tile gid="163"/>
    <tile gid="163"/>
    <tile gid="163"/>
    <tile gid="130"/>
    <tile gid="130"/>
    <tile gid="163"/>
    <tile gid="195"/>
    <tile gid="130"/>
    <tile gid="130"/>
    <tile gid="131"/>
    <tile gid="130"/>
    <tile gid="130"/>
    <tile gid="130"/>
    <tile gid="130"/>
    <tile gid="162"/>
    <tile gid="130"/>
    <tile gid="163"/>
    <tile gid="130"/>
    <tile gid="130"/>
    <tile gid="130"/>
    <tile gid="130"/>
    <tile gid="162"/>
    <tile gid="130"/>
    <tile gid="130"/>
    <tile gid="130"/>
    <tile gid="163"/>
    <tile gid="163"/>
    <tile gid="130"/>
    <tile gid="130"/>
    <tile gid="163"/>
    <tile gid="195"/>
    <tile gid="130"/>
    <tile gid="130"/>
    <tile gid="130"/>
    <tile gid="162"/>
    <tile gid="130"/>
    <tile gid="130"/>
    <tile gid="163"/>
    <tile gid="130"/>
    <tile gid="163"/>
    <tile gid="130"/>
    <tile gid="130"/>
    <tile gid="130"/>
    <tile gid="130"/>
    <tile gid="163"/>
    <tile gid="163"/>
    <tile gid="163"/>
    <tile gid="130"/>
    <tile gid="130"/>
    <tile gid="130"/>
    <tile gid="131"/>
    <tile gid="130"/>
    <tile gid="130"/>
    <tile gid="130"/>
    <tile gid="130"/>
    <tile gid="162"/>
    <tile gid="130"/>
    <tile gid="130"/>
    <tile gid="130"/>
    <tile gid="130"/>
    <tile gid="130"/>
    <tile gid="130"/>
    <tile gid="130"/>
    <tile gid="163"/>
    <tile gid="163"/>
    <tile gid="130"/>
    <tile gid="130"/>
    <tile gid="130"/>
    <tile gid="130"/>
    <tile gid="163"/>
    <tile gid="131"/>
    <tile gid="130"/>
    <tile gid="130"/>
    <tile gid="163"/>
    <tile gid="162"/>
    <tile gid="130"/>
    <tile gid="130"/>
    <tile gid="163"/>
    <tile gid="130"/>
    <tile gid="130"/>
    <tile gid="163"/>
    <tile gid="130"/>
    <tile gid="130"/>
    <tile gid="130"/>
    <tile gid="130"/>
    <tile gid="195"/>
    <tile gid="130"/>
    <tile gid="130"/>
    <tile gid="163"/>
    <tile gid="130"/>
    <tile gid="130"/>
    <tile gid="130"/>
    <tile gid="162"/>
    <tile gid="130"/>
    <tile gid="130"/>
    <tile gid="130"/>
    <tile gid="130"/>
    <tile gid="130"/>
    <tile gid="130"/>
    <tile gid="130"/>
    <tile gid="130"/>
    <tile gid="130"/>
    <tile gid="162"/>
    <tile gid="130"/>
    <tile gid="130"/>
    <tile gid="130"/>
    <tile gid="130"/>
    <tile gid="130"/>
    <tile gid="130"/>
    <tile gid="163"/>
    <tile gid="131"/>
    <tile gid="130"/>
    <tile gid="130"/>
    <tile gid="163"/>
    <tile gid="130"/>
    <tile gid="130"/>
    <tile gid="130"/>
    <tile gid="163"/>
    <tile gid="130"/>
    <tile gid="130"/>
    <tile gid="130"/>
    <tile gid="130"/>
    <tile gid="130"/>
    <tile gid="130"/>
    <tile gid="130"/>
    <tile gid="163"/>
    <tile gid="130"/>
    <tile gid="130"/>
    <tile gid="130"/>
    <tile gid="130"/>
    <tile gid="130"/>
    <tile gid="162"/>
    <tile gid="130"/>
    <tile gid="130"/>
    <tile gid="163"/>
    <tile gid="130"/>
    <tile gid="162"/>
    <tile gid="130"/>
    <tile gid="130"/>
    <tile gid="130"/>
    <tile gid="130"/>
    <tile gid="130"/>
    <tile gid="130"/>
    <tile gid="130"/>
    <tile gid="130"/>
    <tile gid="130"/>
    <tile gid="130"/>
    <tile gid="130"/>
    <tile gid="130"/>
    <tile gid="130"/>
    <tile gid="131"/>
    <tile gid="130"/>
    <tile gid="130"/>
    <tile gid="163"/>
    <tile gid="130"/>
    <tile gid="130"/>
    <tile gid="130"/>
    <tile gid="130"/>
    <tile gid="130"/>
    <tile gid="163"/>
    <tile gid="130"/>
    <tile gid="130"/>
    <tile gid="163"/>
    <tile gid="130"/>
    <tile gid="195"/>
    <tile gid="162"/>
    <tile gid="130"/>
    <tile gid="130"/>
    <tile gid="130"/>
    <tile gid="130"/>
    <tile gid="162"/>
    <tile gid="130"/>
    <tile gid="130"/>
    <tile gid="130"/>
    <tile gid="131"/>
    <tile gid="130"/>
    <tile gid="130"/>
    <tile gid="162"/>
    <tile gid="130"/>
    <tile gid="130"/>
    <tile gid="130"/>
    <tile gid="162"/>
    <tile gid="130"/>
    <tile gid="130"/>
    <tile gid="130"/>
    <tile gid="130"/>
    <tile gid="130"/>
    <tile gid="130"/>
    <tile gid="130"/>
    <tile gid="130"/>
    <tile gid="130"/>
    <tile gid="131"/>
    <tile gid="163"/>
    <tile gid="130"/>
    <tile gid="130"/>
    <tile gid="130"/>
    <tile gid="163"/>
    <tile gid="130"/>
    <tile gid="130"/>
    <tile gid="163"/>
    <tile gid="130"/>
    <tile gid="130"/>
    <tile gid="130"/>
    <tile gid="130"/>
    <tile gid="130"/>
    <tile gid="130"/>
    <tile gid="130"/>
    <tile gid="130"/>
    <tile gid="130"/>
    <tile gid="130"/>
    <tile gid="162"/>
    <tile gid="130"/>
    <tile gid="130"/>
    <tile gid="130"/>
    <tile gid="130"/>
    <tile gid="131"/>
    <tile gid="130"/>
    <tile gid="130"/>
    <tile gid="162"/>
    <tile gid="130"/>
    <tile gid="130"/>
    <tile gid="162"/>
    <tile gid="130"/>
    <tile gid="130"/>
    <tile gid="130"/>
    <tile gid="130"/>
    <tile gid="163"/>
    <tile gid="130"/>
    <tile gid="130"/>
    <tile gid="130"/>
    <tile gid="130"/>
    <tile gid="163"/>
    <tile gid="163"/>
    <tile gid="130"/>
    <tile gid="130"/>
    <tile gid="130"/>
    <tile gid="163"/>
    <tile gid="130"/>
    <tile gid="130"/>
    <tile gid="162"/>
    <tile gid="130"/>
    <tile gid="130"/>
    <tile gid="130"/>
    <tile gid="163"/>
    <tile gid="130"/>
    <tile gid="130"/>
    <tile gid="130"/>
    <tile gid="131"/>
    <tile gid="130"/>
    <tile gid="130"/>
    <tile gid="130"/>
    <tile gid="162"/>
    <tile gid="195"/>
    <tile gid="130"/>
    <tile gid="130"/>
    <tile gid="130"/>
    <tile gid="130"/>
    <tile gid="131"/>
    <tile gid="130"/>
    <tile gid="162"/>
    <tile gid="162"/>
    <tile gid="130"/>
    <tile gid="130"/>
    <tile gid="130"/>
    <tile gid="130"/>
    <tile gid="130"/>
    <tile gid="163"/>
    <tile gid="130"/>
    <tile gid="130"/>
    <tile gid="130"/>
    <tile gid="130"/>
    <tile gid="163"/>
    <tile gid="163"/>
    <tile gid="130"/>
    <tile gid="130"/>
    <tile gid="130"/>
    <tile gid="130"/>
    <tile gid="130"/>
    <tile gid="130"/>
    <tile gid="162"/>
    <tile gid="130"/>
    <tile gid="130"/>
    <tile gid="130"/>
    <tile gid="163"/>
    <tile gid="163"/>
    <tile gid="162"/>
    <tile gid="163"/>
    <tile gid="131"/>
    <tile gid="130"/>
    <tile gid="130"/>
    <tile gid="163"/>
    <tile gid="162"/>
    <tile gid="130"/>
    <tile gid="130"/>
    <tile gid="130"/>
    <tile gid="130"/>
    <tile gid="130"/>
    <tile gid="130"/>
    <tile gid="130"/>
    <tile gid="130"/>
    <tile gid="130"/>
    <tile gid="130"/>
    <tile gid="130"/>
    <tile gid="130"/>
    <tile gid="130"/>
    <tile gid="163"/>
    <tile gid="195"/>
    <tile gid="130"/>
    <tile gid="130"/>
    <tile gid="130"/>
    <tile gid="130"/>
    <tile gid="163"/>
    <tile gid="130"/>
    <tile gid="130"/>
    <tile gid="130"/>
    <tile gid="130"/>
    <tile gid="162"/>
    <tile gid="130"/>
    <tile gid="130"/>
    <tile gid="130"/>
    <tile gid="130"/>
    <tile gid="130"/>
    <tile gid="130"/>
    <tile gid="130"/>
    <tile gid="130"/>
    <tile gid="162"/>
    <tile gid="163"/>
    <tile gid="130"/>
    <tile gid="130"/>
    <tile gid="130"/>
    <tile gid="130"/>
    <tile gid="162"/>
    <tile gid="130"/>
    <tile gid="130"/>
    <tile gid="130"/>
    <tile gid="163"/>
    <tile gid="130"/>
    <tile gid="130"/>
    <tile gid="130"/>
    <tile gid="130"/>
    <tile gid="130"/>
    <tile gid="130"/>
    <tile gid="195"/>
    <tile gid="130"/>
    <tile gid="130"/>
    <tile gid="163"/>
    <tile gid="130"/>
    <tile gid="163"/>
    <tile gid="163"/>
    <tile gid="163"/>
    <tile gid="130"/>
    <tile gid="163"/>
    <tile gid="130"/>
    <tile gid="130"/>
    <tile gid="130"/>
    <tile gid="130"/>
    <tile gid="162"/>
    <tile gid="130"/>
    <tile gid="130"/>
    <tile gid="130"/>
    <tile gid="130"/>
    <tile gid="163"/>
    <tile gid="130"/>
    <tile gid="130"/>
    <tile gid="130"/>
    <tile gid="130"/>
    <tile gid="130"/>
    <tile gid="130"/>
    <tile gid="130"/>
    <tile gid="130"/>
    <tile gid="130"/>
    <tile gid="130"/>
    <tile gid="130"/>
    <tile gid="130"/>
    <tile gid="130"/>
    <tile gid="163"/>
    <tile gid="130"/>
    <tile gid="130"/>
    <tile gid="130"/>
    <tile gid="162"/>
    <tile gid="195"/>
    <tile gid="130"/>
    <tile gid="162"/>
    <tile gid="130"/>
    <tile gid="130"/>
    <tile gid="130"/>
    <tile gid="130"/>
    <tile gid="130"/>
    <tile gid="130"/>
    <tile gid="130"/>
    <tile gid="130"/>
    <tile gid="163"/>
    <tile gid="130"/>
    <tile gid="130"/>
    <tile gid="130"/>
    <tile gid="130"/>
    <tile gid="130"/>
    <tile gid="130"/>
    <tile gid="130"/>
    <tile gid="130"/>
    <tile gid="130"/>
    <tile gid="163"/>
    <tile gid="130"/>
    <tile gid="130"/>
    <tile gid="130"/>
    <tile gid="130"/>
    <tile gid="130"/>
    <tile gid="130"/>
    <tile gid="130"/>
    <tile gid="130"/>
    <tile gid="130"/>
    <tile gid="130"/>
    <tile gid="130"/>
    <tile gid="130"/>
    <tile gid="130"/>
    <tile gid="163"/>
    <tile gid="130"/>
    <tile gid="130"/>
    <tile gid="163"/>
    <tile gid="162"/>
    <tile gid="130"/>
    <tile gid="130"/>
    <tile gid="130"/>
    <tile gid="130"/>
    <tile gid="130"/>
    <tile gid="162"/>
    <tile gid="130"/>
    <tile gid="130"/>
    <tile gid="130"/>
    <tile gid="130"/>
    <tile gid="130"/>
    <tile gid="163"/>
    <tile gid="163"/>
    <tile gid="130"/>
    <tile gid="130"/>
    <tile gid="130"/>
    <tile gid="130"/>
    <tile gid="163"/>
    <tile gid="163"/>
    <tile gid="130"/>
    <tile gid="130"/>
    <tile gid="130"/>
    <tile gid="163"/>
    <tile gid="130"/>
    <tile gid="130"/>
    <tile gid="130"/>
    <tile gid="130"/>
    <tile gid="130"/>
    <tile gid="131"/>
    <tile gid="130"/>
    <tile gid="130"/>
    <tile gid="131"/>
    <tile gid="130"/>
    <tile gid="131"/>
    <tile gid="130"/>
    <tile gid="163"/>
    <tile gid="130"/>
    <tile gid="130"/>
    <tile gid="162"/>
    <tile gid="131"/>
    <tile gid="130"/>
    <tile gid="163"/>
    <tile gid="163"/>
    <tile gid="130"/>
    <tile gid="163"/>
    <tile gid="130"/>
    <tile gid="162"/>
    <tile gid="130"/>
    <tile gid="162"/>
    <tile gid="130"/>
    <tile gid="130"/>
    <tile gid="130"/>
    <tile gid="163"/>
    <tile gid="163"/>
    <tile gid="130"/>
    <tile gid="130"/>
    <tile gid="130"/>
    <tile gid="163"/>
    <tile gid="163"/>
    <tile gid="130"/>
    <tile gid="130"/>
    <tile gid="163"/>
    <tile gid="163"/>
    <tile gid="163"/>
    <tile gid="163"/>
    <tile gid="130"/>
    <tile gid="130"/>
    <tile gid="130"/>
    <tile gid="130"/>
    <tile gid="130"/>
    <tile gid="130"/>
    <tile gid="130"/>
    <tile gid="130"/>
    <tile gid="130"/>
    <tile gid="130"/>
    <tile gid="130"/>
    <tile gid="130"/>
    <tile gid="130"/>
    <tile gid="130"/>
    <tile gid="130"/>
    <tile gid="130"/>
    <tile gid="130"/>
    <tile gid="163"/>
    <tile gid="163"/>
    <tile gid="130"/>
    <tile gid="130"/>
    <tile gid="130"/>
    <tile gid="130"/>
    <tile gid="130"/>
    <tile gid="130"/>
    <tile gid="130"/>
    <tile gid="130"/>
    <tile gid="130"/>
    <tile gid="130"/>
    <tile gid="163"/>
    <tile gid="130"/>
    <tile gid="130"/>
    <tile gid="163"/>
    <tile gid="130"/>
    <tile gid="130"/>
    <tile gid="163"/>
    <tile gid="130"/>
    <tile gid="130"/>
    <tile gid="130"/>
    <tile gid="130"/>
    <tile gid="130"/>
    <tile gid="130"/>
    <tile gid="130"/>
    <tile gid="130"/>
    <tile gid="130"/>
    <tile gid="130"/>
    <tile gid="130"/>
    <tile gid="130"/>
    <tile gid="130"/>
    <tile gid="130"/>
    <tile gid="130"/>
    <tile gid="130"/>
    <tile gid="130"/>
    <tile gid="130"/>
    <tile gid="130"/>
    <tile gid="130"/>
    <tile gid="130"/>
    <tile gid="130"/>
    <tile gid="130"/>
    <tile gid="130"/>
    <tile gid="130"/>
    <tile gid="131"/>
    <tile gid="130"/>
    <tile gid="130"/>
    <tile gid="130"/>
    <tile gid="130"/>
    <tile gid="130"/>
    <tile gid="130"/>
    <tile gid="130"/>
    <tile gid="162"/>
    <tile gid="130"/>
    <tile gid="163"/>
    <tile gid="163"/>
    <tile gid="130"/>
    <tile gid="130"/>
    <tile gid="163"/>
    <tile gid="163"/>
    <tile gid="130"/>
    <tile gid="163"/>
    <tile gid="163"/>
    <tile gid="130"/>
    <tile gid="130"/>
    <tile gid="130"/>
    <tile gid="130"/>
    <tile gid="131"/>
    <tile gid="130"/>
    <tile gid="131"/>
    <tile gid="130"/>
    <tile gid="163"/>
    <tile gid="163"/>
    <tile gid="163"/>
    <tile gid="130"/>
    <tile gid="130"/>
    <tile gid="130"/>
    <tile gid="130"/>
    <tile gid="130"/>
    <tile gid="130"/>
    <tile gid="130"/>
    <tile gid="130"/>
    <tile gid="130"/>
    <tile gid="131"/>
    <tile gid="131"/>
    <tile gid="130"/>
    <tile gid="130"/>
    <tile gid="130"/>
    <tile gid="130"/>
    <tile gid="162"/>
    <tile gid="130"/>
    <tile gid="162"/>
    <tile gid="130"/>
    <tile gid="162"/>
    <tile gid="163"/>
    <tile gid="130"/>
    <tile gid="130"/>
    <tile gid="130"/>
    <tile gid="130"/>
    <tile gid="130"/>
    <tile gid="130"/>
    <tile gid="130"/>
    <tile gid="163"/>
    <tile gid="163"/>
    <tile gid="163"/>
    <tile gid="163"/>
    <tile gid="130"/>
    <tile gid="130"/>
    <tile gid="130"/>
    <tile gid="131"/>
    <tile gid="131"/>
    <tile gid="130"/>
    <tile gid="163"/>
    <tile gid="163"/>
    <tile gid="130"/>
    <tile gid="130"/>
    <tile gid="130"/>
    <tile gid="130"/>
    <tile gid="130"/>
    <tile gid="130"/>
    <tile gid="130"/>
    <tile gid="130"/>
    <tile gid="163"/>
    <tile gid="130"/>
    <tile gid="163"/>
    <tile gid="163"/>
    <tile gid="163"/>
    <tile gid="130"/>
    <tile gid="130"/>
    <tile gid="130"/>
    <tile gid="130"/>
    <tile gid="130"/>
    <tile gid="130"/>
    <tile gid="162"/>
    <tile gid="163"/>
    <tile gid="163"/>
    <tile gid="130"/>
    <tile gid="130"/>
    <tile gid="130"/>
    <tile gid="130"/>
    <tile gid="130"/>
    <tile gid="130"/>
    <tile gid="130"/>
    <tile gid="163"/>
    <tile gid="163"/>
    <tile gid="130"/>
    <tile gid="130"/>
    <tile gid="130"/>
    <tile gid="162"/>
    <tile gid="162"/>
    <tile gid="162"/>
    <tile gid="162"/>
    <tile gid="162"/>
    <tile gid="162"/>
    <tile gid="130"/>
    <tile gid="162"/>
    <tile gid="130"/>
    <tile gid="130"/>
    <tile gid="130"/>
    <tile gid="130"/>
    <tile gid="130"/>
    <tile gid="131"/>
    <tile gid="130"/>
    <tile gid="130"/>
    <tile gid="130"/>
    <tile gid="130"/>
    <tile gid="130"/>
    <tile gid="130"/>
    <tile gid="130"/>
    <tile gid="130"/>
    <tile gid="130"/>
    <tile gid="130"/>
    <tile gid="130"/>
    <tile gid="162"/>
    <tile gid="163"/>
    <tile gid="163"/>
    <tile gid="163"/>
    <tile gid="130"/>
    <tile gid="130"/>
    <tile gid="130"/>
    <tile gid="130"/>
    <tile gid="130"/>
    <tile gid="130"/>
    <tile gid="130"/>
    <tile gid="130"/>
    <tile gid="130"/>
    <tile gid="163"/>
    <tile gid="130"/>
    <tile gid="162"/>
    <tile gid="130"/>
    <tile gid="130"/>
    <tile gid="130"/>
    <tile gid="130"/>
    <tile gid="130"/>
    <tile gid="130"/>
    <tile gid="130"/>
    <tile gid="130"/>
    <tile gid="130"/>
    <tile gid="130"/>
    <tile gid="130"/>
    <tile gid="130"/>
    <tile gid="130"/>
    <tile gid="130"/>
    <tile gid="130"/>
    <tile gid="130"/>
    <tile gid="130"/>
    <tile gid="130"/>
    <tile gid="131"/>
    <tile gid="130"/>
    <tile gid="163"/>
    <tile gid="130"/>
    <tile gid="130"/>
    <tile gid="130"/>
    <tile gid="162"/>
    <tile gid="130"/>
    <tile gid="130"/>
    <tile gid="130"/>
    <tile gid="130"/>
    <tile gid="130"/>
    <tile gid="130"/>
    <tile gid="130"/>
    <tile gid="130"/>
    <tile gid="130"/>
    <tile gid="130"/>
    <tile gid="130"/>
    <tile gid="130"/>
    <tile gid="130"/>
    <tile gid="130"/>
    <tile gid="130"/>
    <tile gid="130"/>
    <tile gid="130"/>
    <tile gid="130"/>
    <tile gid="130"/>
    <tile gid="130"/>
    <tile gid="130"/>
    <tile gid="130"/>
    <tile gid="163"/>
    <tile gid="130"/>
    <tile gid="130"/>
    <tile gid="130"/>
    <tile gid="130"/>
    <tile gid="130"/>
    <tile gid="130"/>
    <tile gid="130"/>
    <tile gid="130"/>
    <tile gid="130"/>
    <tile gid="130"/>
    <tile gid="130"/>
    <tile gid="130"/>
    <tile gid="130"/>
    <tile gid="130"/>
    <tile gid="130"/>
    <tile gid="130"/>
    <tile gid="130"/>
    <tile gid="130"/>
    <tile gid="130"/>
    <tile gid="130"/>
   </data>
  </layer>
    <layer id="2" name="upper_walls" width="40" height="30">
   <data>
    <tile gid="786"/>
    <tile gid="786"/>
    <tile gid="786"/>
    <tile gid="786"/>
    <tile gid="786"/>
    <tile gid="786"/>
    <tile gid="786"/>
    <tile gid="786"/>
    <tile gid="786"/>
    <tile gid="786"/>
    <tile gid="786"/>
    <tile gid="786"/>
    <tile gid="786"/>
    <tile gid="786"/>
    <tile gid="786"/>
    <tile gid="786"/>
    <tile gid="786"/>
    <tile gid="786"/>
    <tile gid="786"/>
    <tile gid="786"/>
    <tile gid="786"/>
    <tile gid="786"/>
    <tile gid="786"/>
    <tile gid="786"/>
    <tile gid="786"/>
    <tile gid="786"/>
    <tile gid="786"/>
    <tile gid="786"/>
    <tile gid="786"/>
    <tile gid="786"/>
    <tile gid="786"/>
    <tile gid="786"/>
    <tile gid="786"/>
    <tile gid="786"/>
    <tile gid="786"/>
    <tile gid="786"/>
    <tile gid="786"/>
    <tile gid="786"/>
    <tile gid="786"/>
    <tile gid="786"/>
    <tile gid="786"/>
    <tile gid="786"/>
    <tile gid="786"/>
    <tile gid="786"/>
    <tile gid="786"/>
    <tile gid="786"/>
    <tile gid="786"/>
    <tile gid="786"/>
    <tile gid="786"/>
    <tile gid="786"/>
    <tile gid="786"/>
    <tile gid="786"/>
    <tile gid="786"/>
    <tile gid="786"/>
    <tile gid="786"/>
    <tile gid="786"/>
    <tile gid="786"/>
    <tile gid="786"/>
    <tile gid="786"/>
    <tile gid="786"/>
    <tile gid="786"/>
    <tile gid="786"/>
    <tile gid="786"/>
    <tile gid="786"/>
    <tile gid="786"/>
    <tile gid="786"/>
    <tile gid="786"/>
    <tile gid="786"/>
    <tile gid="786"/>
    <tile gid="786"/>
    <tile gid="786"/>
    <tile gid="786"/>
    <tile gid="786"/>
    <tile gid="786"/>
    <tile gid="786"/>
    <tile gid="786"/>
    <tile gid="786"/>
    <tile gid="786"/>
    <tile gid="786"/>
    <tile gid="786"/>
    <tile gid="786"/>
    <tile gid="786"/>
    <tile gid="225"/>
    <tile gid="3"/>
    <tile gid="3"/>
    <tile gid="3"/>
    <tile gid="3"/>
    <tile gid="3"/>
    <tile gid="3"/>
    <tile gid="3"/>
    <tile gid="3"/>
    <tile gid="3"/>
    <tile gid="3"/>
    <tile gid="3"/>
    <tile gid="3"/>
    <tile gid="3"/>
    <tile gid="3"/>
    <tile gid="3"/>
    <tile gid="3"/>
    <tile gid="3"/>
    <tile gid="3"/>
    <tile gid="3"/>
    <tile gid="3"/>
    <tile gid="3"/>
    <tile gid="3"/>
    <tile gid="3"/>
    <tile gid="3"/>
    <tile gid="3"/>
    <tile gid="3"/>
    <tile gid="3"/>
    <tile gid="3"/>
    <tile gid="3"/>
    <tile gid="3"/>
    <tile gid="3"/>
    <tile gid="3"/>
    <tile gid="3"/>
    <tile gid="3"/>
    <tile gid="226"/>
    <tile gid="786"/>
    <tile gid="786"/>
    <tile gid="786"/>
    <tile gid="786"/>
    <tile gid="257"/>
    <tile gid="35"/>
    <tile gid="35"/>
    <tile gid="35"/>
    <tile gid="35"/>
    <tile gid="35"/>
    <tile gid="35"/>
    <tile gid="35"/>
    <tile gid="35"/>
    <tile gid="35"/>
    <tile gid="35"/>
    <tile gid="35"/>
    <tile gid="35"/>
    <tile gid="35"/>
    <tile gid="35"/>
    <tile gid="35"/>
    <tile gid="35"/>
    <tile gid="35"/>
    <tile gid="35"/>
    <tile gid="35"/>
    <tile gid="35"/>
    <tile gid="35"/>
    <tile gid="35"/>
    <tile gid="35"/>
    <tile gid="35"/>
    <tile gid="35"/>
    <tile gid="35"/>
    <tile gid="35"/>
    <tile gid="35"/>
    <tile gid="35"/>
    <tile gid="35"/>
    <tile gid="35"/>
    <tile gid="35"/>
    <tile gid="35"/>
    <tile gid="35"/>
    <tile gid="258"/>
    <tile gid="786"/>
    <tile gid="786"/>
    <tile gid="786"/>
    <tile gid="786"/>
    <tile gid="257"/>
    <tile gid="786"/>
    <tile gid="786"/>
    <tile gid="786"/>
    <tile gid="786"/>
    <tile gid="786"/>
    <tile gid="786"/>
    <tile gid="786"/>
    <tile gid="786"/>
    <tile gid="786"/>
    <tile gid="786"/>
    <tile gid="786"/>
    <tile gid="786"/>
    <tile gid="786"/>
    <tile gid="786"/>
    <tile gid="786"/>
    <tile gid="786"/>
    <tile gid="786"/>
    <tile gid="786"/>
    <tile gid="786"/>
    <tile gid="786"/>
    <tile gid="786"/>
    <tile gid="786"/>
    <tile gid="786"/>
    <tile gid="786"/>
    <tile gid="786"/>
    <tile gid="786"/>
    <tile gid="786"/>
    <tile gid="786"/>
    <tile gid="786"/>
    <tile gid="786"/>
    <tile gid="786"/>
    <tile gid="786"/>
    <tile gid="786"/>
    <tile gid="786"/>
    <tile gid="258"/>
    <tile gid="786"/>
    <tile gid="786"/>
    <tile gid="786"/>
    <tile gid="786"/>
    <tile gid="257"/>
    <tile gid="786"/>
    <tile gid="786"/>
    <tile gid="786"/>
    <tile gid="786"/>
    <tile gid="786"/>
    <tile gid="786"/>
    <tile gid="786"/>
    <tile gid="786"/>
    <tile gid="786"/>
    <tile gid="786"/>
    <tile gid="786"/>
    <tile gid="786"/>
    <tile gid="786"/>
    <tile gid="786"/>
    <tile gid="786"/>
    <tile gid="786"/>
    <tile gid="786"/>
    <tile gid="786"/>
    <tile gid="786"/>
    <tile gid="786"/>
    <tile gid="786"/>
    <tile gid="786"/>
    <tile gid="786"/>
    <tile gid="786"/>
    <tile gid="786"/>
    <tile gid="786"/>
    <tile gid="786"/>
    <tile gid="786"/>
    <tile gid="786"/>
    <tile gid="786"/>
    <tile gid="786"/>
    <tile gid="786"/>
    <tile gid="786"/>
    <tile gid="786"/>
    <tile gid="258"/>
    <tile gid="786"/>
    <tile gid="786"/>
    <tile gid="786"/>
    <tile gid="786"/>
    <tile gid="257"/>
    <tile gid="786"/>
    <tile gid="786"/>
    <tile gid="786"/>
    <tile gid="786"/>
    <tile gid="786"/>
    <tile gid="786"/>
    <tile gid="786"/>
    <tile gid="786"/>
    <tile gid="786"/>
    <tile gid="786"/>
    <tile gid="786"/>
    <tile gid="786"/>
    <tile gid="786"/>
    <tile gid="786"/>
    <tile gid="786"/>
    <tile gid="786"/>
    <tile gid="786"/>
    <tile gid="786"/>
    <tile gid="786"/>
    <tile gid="786"/>
    <tile gid="786"/>
    <tile gid="786"/>
    <tile gid="786"/>
    <tile gid="786"/>
    <tile gid="786"/>
    <tile gid="786"/>
    <tile gid="786"/>
    <tile gid="786"/>
    <tile gid="786"/>
    <tile gid="786"/>
    <tile gid="786"/>
    <tile gid="786"/>
    <tile gid="786"/>
    <tile gid="786"/>
    <tile gid="258"/>
    <tile gid="786"/>
    <tile gid="786"/>
    <tile gid="786"/>
    <tile gid="786"/>
    <tile gid="257"/>
    <tile gid="786"/>
    <tile gid="786"/>
    <tile gid="786"/>
    <tile gid="786"/>
    <tile gid="786"/>
    <tile gid="786"/>
    <tile gid="786"/>
    <tile gid="786"/>
    <tile gid="786"/>
    <tile gid="786"/>
    <tile gid="786"/>
    <tile gid="786"/>
    <tile gid="786"/>
    <tile gid="786"/>
    <tile gid="786"/>
    <tile gid="786"/>
    <tile gid="786"/>
    <tile gid="786"/>
    <tile gid="786"/>
    <tile gid="786"/>
    <tile gid="786"/>
    <tile gid="786"/>
    <tile gid="786"/>
    <tile gid="786"/>
    <tile gid="786"/>
    <tile gid="786"/>
    <tile gid="786"/>
    <tile gid="786"/>
    <tile gid="786"/>
    <tile gid="786"/>
    <tile gid="786"/>
    <tile gid="786"/>
    <tile gid="786"/>
    <tile gid="786"/>
    <tile gid="258"/>
    <tile gid="786"/>
    <tile gid="786"/>
    <tile gid="786"/>
    <tile gid="786"/>
    <tile gid="257"/>
    <tile gid="786"/>
    <tile gid="786"/>
    <tile gid="786"/>
    <tile gid="786"/>
    <tile gid="786"/>
    <tile gid="786"/>
    <tile gid="786"/>
    <tile gid="786"/>
    <tile gid="786"/>
    <tile gid="786"/>
    <tile gid="786"/>
    <tile gid="786"/>
    <tile gid="786"/>
    <tile gid="786"/>
    <tile gid="786"/>
    <tile gid="786"/>
    <tile gid="786"/>
    <tile gid="786"/>
    <tile gid="786"/>
    <tile gid="786"/>
    <tile gid="786"/>
    <tile gid="786"/>
    <tile gid="786"/>
    <tile gid="786"/>
    <tile gid="786"/>
    <tile gid="786"/>
    <tile gid="786"/>
    <tile gid="786"/>
    <tile gid="786"/>
    <tile gid="786"/>
    <tile gid="786"/>
    <tile gid="786"/>
    <tile gid="786"/>
    <tile gid="786"/>
    <tile gid="258"/>
    <tile gid="786"/>
    <tile gid="786"/>
    <tile gid="786"/>
    <tile gid="786"/>
    <tile gid="257"/>
    <tile gid="786"/>
    <tile gid="786"/>
    <tile gid="786"/>
    <tile gid="786"/>
    <tile gid="786"/>
    <tile gid="786"/>
    <tile gid="786"/>
    <tile gid="786"/>
    <tile gid="786"/>
    <tile gid="786"/>
    <tile gid="786"/>
    <tile gid="786"/>
    <tile gid="786"/>
    <tile gid="786"/>
    <tile gid="786"/>
    <tile gid="786"/>
    <tile gid="786"/>
    <tile gid="786"/>
    <tile gid="786"/>
    <tile gid="786"/>
    <tile gid="786"/>
    <tile gid="786"/>
    <tile gid="786"/>
    <tile gid="786"/>
    <tile gid="786"/>
    <tile gid="786"/>
    <tile gid="786"/>
    <tile gid="786"/>
    <tile gid="786"/>
    <tile gid="786"/>
    <tile gid="786"/>
    <tile gid="786"/>
    <tile gid="786"/>
    <tile gid="786"/>
    <tile gid="258"/>
    <tile gid="786"/>
    <tile gid="786"/>
    <tile gid="786"/>
    <tile gid="786"/>
    <tile gid="257"/>
    <tile gid="786"/>
    <tile gid="786"/>
    <tile gid="786"/>
    <tile gid="786"/>
    <tile gid="786"/>
    <tile gid="786"/>
    <tile gid="786"/>
    <tile gid="786"/>
    <tile gid="786"/>
    <tile gid="786"/>
    <tile gid="786"/>
    <tile gid="786"/>
    <tile gid="786"/>
    <tile gid="786"/>
    <tile gid="786"/>
    <tile gid="786"/>
    <tile gid="786"/>
    <tile gid="786"/>
    <tile gid="786"/>
    <tile gid="786"/>
    <tile gid="786"/>
    <tile gid="786"/>
    <tile gid="786"/>
    <tile gid="786"/>
    <tile gid="786"/>
    <tile gid="786"/>
    <tile gid="786"/>
    <tile gid="786"/>
    <tile gid="786"/>
    <tile gid="786"/>
    <tile gid="786"/>
    <tile gid="786"/>
    <tile gid="786"/>
    <tile gid="786"/>
    <tile gid="258"/>
    <tile gid="786"/>
    <tile gid="786"/>
    <tile gid="786"/>
    <tile gid="786"/>
    <tile gid="257"/>
    <tile gid="786"/>
    <tile gid="786"/>
    <tile gid="786"/>
    <tile gid="786"/>
    <tile gid="786"/>
    <tile gid="786"/>
    <tile gid="786"/>
    <tile gid="786"/>
    <tile gid="786"/>
    <tile gid="786"/>
    <tile gid="786"/>
    <tile gid="786"/>
    <tile gid="786"/>
    <tile gid="786"/>
    <tile gid="786"/>
    <tile gid="786"/>
    <tile gid="786"/>
    <tile gid="786"/>
    <tile gid="786"/>
    <tile gid="786"/>
    <tile gid="786"/>
    <tile gid="786"/>
    <tile gid="786"/>
    <tile gid="786"/>
    <tile gid="786"/>
    <tile gid="786"/>
    <tile gid="786"/>
    <tile gid="786"/>
    <tile gid="786"/>
    <tile gid="786"/>
    <tile gid="786"/>
    <tile gid="786"/>
    <tile gid="786"/>
    <tile gid="786"/>
    <tile gid="258"/>
    <tile gid="786"/>
    <tile gid="786"/>
    <tile gid="786"/>
    <tile gid="786"/>
    <tile gid="257"/>
    <tile gid="786"/>
    <tile gid="786"/>
    <tile gid="786"/>
    <tile gid="786"/>
    <tile gid="786"/>
    <tile gid="786"/>
    <tile gid="786"/>
    <tile gid="786"/>
    <tile gid="786"/>
    <tile gid="786"/>
    <tile gid="786"/>
    <tile gid="786"/>
    <tile gid="786"/>
    <tile gid="786"/>
    <tile gid="786"/>
    <tile gid="786"/>
    <tile gid="786"/>
    <tile gid="786"/>
    <tile gid="786"/>
    <tile gid="786"/>
    <tile gid="786"/>
    <tile gid="786"/>
    <tile gid="786"/>
    <tile gid="786"/>
    <tile gid="786"/>
    <tile gid="786"/>
    <tile gid="786"/>
    <tile gid="786"/>
    <tile gid="786"/>
    <tile gid="786"/>
    <tile gid="786"/>
    <tile gid="786"/>
    <tile gid="786"/>
    <tile gid="786"/>
    <tile gid="258"/>
    <tile gid="786"/>
    <tile gid="786"/>
    <tile gid="786"/>
    <tile gid="786"/>
    <tile gid="257"/>
    <tile gid="786"/>
    <tile gid="786"/>
    <tile gid="786"/>
    <tile gid="786"/>
    <tile gid="786"/>
    <tile gid="786"/>
    <tile gid="786"/>
    <tile gid="786"/>
    <tile gid="786"/>
    <tile gid="786"/>
    <tile gid="786"/>
    <tile gid="786"/>
    <tile gid="786"/>
    <tile gid="786"/>
    <tile gid="786"/>
    <tile gid="786"/>
    <tile gid="786"/>
    <tile gid="786"/>
    <tile gid="786"/>
    <tile gid="786"/>
    <tile gid="786"/>
    <tile gid="786"/>
    <tile gid="786"/>
    <tile gid="786"/>
    <tile gid="786"/>
    <tile gid="786"/>
    <tile gid="786"/>
    <tile gid="786"/>
    <tile gid="786"/>
    <tile gid="786"/>
    <tile gid="786"/>
    <tile gid="786"/>
    <tile gid="786"/>
    <tile gid="786"/>
    <tile gid="258"/>
    <tile gid="786"/>
    <tile gid="786"/>
    <tile gid="786"/>
    <tile gid="786"/>
    <tile gid="257"/>
    <tile gid="786"/>
    <tile gid="786"/>
    <tile gid="786"/>
    <tile gid="786"/>
    <tile gid="786"/>
    <tile gid="786"/>
    <tile gid="786"/>
    <tile gid="786"/>
    <tile gid="786"/>
    <tile gid="786"/>
    <tile gid="786"/>
    <tile gid="786"/>
    <tile gid="786"/>
    <tile gid="786"/>
    <tile gid="786"/>
    <tile gid="786"/>
    <tile gid="786"/>
    <tile gid="786"/>
    <tile gid="786"/>
    <tile gid="786"/>
    <tile gid="786"/>
    <tile gid="786"/>
    <tile gid="786"/>
    <tile gid="786"/>
    <tile gid="786"/>
    <tile gid="786"/>
    <tile gid="786"/>
    <tile gid="786"/>
    <tile gid="786"/>
    <tile gid="786"/>
    <tile gid="786"/>
    <tile gid="786"/>
    <tile gid="786"/>
    <tile gid="786"/>
    <tile gid="258"/>
    <tile gid="786"/>
    <tile gid="786"/>
    <tile gid="786"/>
    <tile gid="786"/>
    <tile gid="257"/>
    <tile gid="786"/>
    <tile gid="786"/>
    <tile gid="786"/>
    <tile gid="786"/>
    <tile gid="786"/>
    <tile gid="786"/>
    <tile gid="786"/>
    <tile gid="786"/>
    <tile gid="786"/>
    <tile gid="786"/>
    <tile gid="786"/>
    <tile gid="786"/>
    <tile gid="786"/>
    <tile gid="786"/>
    <tile gid="786"/>
    <tile gid="786"/>
    <tile gid="786"/>
    <tile gid="786"/>
    <tile gid="786"/>
    <tile gid="786"/>
    <tile gid="786"/>
    <tile gid="786"/>
    <tile gid="786"/>
    <tile gid="786"/>
    <tile gid="786"/>
    <tile gid="786"/>
    <tile gid="786"/>
    <tile gid="786"/>
    <tile gid="786"/>
    <tile gid="786"/>
    <tile gid="786"/>
    <tile gid="786"/>
    <tile gid="786"/>
    <tile gid="786"/>
    <tile gid="258"/>
    <tile gid="786"/>
    <tile gid="786"/>
    <tile gid="786"/>
    <tile gid="786"/>
    <tile gid="257"/>
    <tile gid="786"/>
    <tile gid="786"/>
    <tile gid="786"/>
    <tile gid="786"/>
    <tile gid="786"/>
    <tile gid="786"/>
    <tile gid="786"/>
    <tile gid="786"/>
    <tile gid="786"/>
    <tile gid="786"/>
    <tile gid="786"/>
    <tile gid="786"/>
    <tile gid="786"/>
    <tile gid="786"/>
    <tile gid="786"/>
    <tile gid="786"/>
    <tile gid="786"/>
    <tile gid="786"/>
    <tile gid="786"/>
    <tile gid="786"/>
    <tile gid="786"/>
    <tile gid="786"/>
    <tile gid="786"/>
    <tile gid="786"/>
    <tile gid="786"/>
    <tile gid="786"/>
    <tile gid="786"/>
    <tile gid="786"/>
    <tile gid="786"/>
    <tile gid="786"/>
    <tile gid="786"/>
    <tile gid="786"/>
    <tile gid="786"/>
    <tile gid="786"/>
    <tile gid="258"/>
    <tile gid="786"/>
    <tile gid="786"/>
    <tile gid="786"/>
    <tile gid="786"/>
    <tile gid="257"/>
    <tile gid="786"/>
    <tile gid="786"/>
    <tile gid="786"/>
    <tile gid="786"/>
    <tile gid="786"/>
    <tile gid="786"/>
    <tile gid="786"/>
    <tile gid="786"/>
    <tile gid="786"/>
    <tile gid="786"/>
    <tile gid="786"/>
    <tile gid="786"/>
    <tile gid="786"/>
    <tile gid="786"/>
    <tile gid="786"/>
    <tile gid="786"/>
    <tile gid="786"/>
    <tile gid="786"/>
    <tile gid="786"/>
    <tile gid="786"/>
    <tile gid="786"/>
    <tile gid="786"/>
    <tile gid="786"/>
    <tile gid="786"/>
    <tile gid="786"/>
    <tile gid="786"/>
    <tile gid="786"/>
    <tile gid="786"/>
    <tile gid="786"/>
    <tile gid="786"/>
    <tile gid="786"/>
    <tile gid="786"/>
    <tile gid="786"/>
    <tile gid="786"/>
    <tile gid="258"/>
    <tile gid="786"/>
    <tile gid="786"/>
    <tile gid="786"/>
    <tile gid="786"/>
    <tile gid="257"/>
    <tile gid="786"/>
    <tile gid="786"/>
    <tile gid="786"/>
    <tile gid="786"/>
    <tile gid="786"/>
    <tile gid="786"/>
    <tile gid="786"/>
    <tile gid="786"/>
    <tile gid="786"/>
    <tile gid="786"/>
    <tile gid="786"/>
    <tile gid="786"/>
    <tile gid="786"/>
    <tile gid="786"/>
    <tile gid="786"/>
    <tile gid="786"/>
    <tile gid="786"/>
    <tile gid="786"/>
    <tile gid="786"/>
    <tile gid="786"/>
    <tile gid="786"/>
    <tile gid="786"/>
    <tile gid="786"/>
    <tile gid="786"/>
    <tile gid="786"/>
    <tile gid="786"/>
    <tile gid="786"/>
    <tile gid="786"/>
    <tile gid="786"/>
    <tile gid="786"/>
    <tile gid="786"/>
    <tile gid="786"/>
    <tile gid="786"/>
    <tile gid="786"/>
    <tile gid="258"/>
    <tile gid="786"/>
    <tile gid="786"/>
    <tile gid="786"/>
    <tile gid="786"/>
    <tile gid="257"/>
    <tile gid="786"/>
    <tile gid="786"/>
    <tile gid="786"/>
    <tile gid="786"/>
    <tile gid="786"/>
    <tile gid="786"/>
    <tile gid="786"/>
    <tile gid="786"/>
    <tile gid="786"/>
    <tile gid="786"/>
    <tile gid="786"/>
    <tile gid="786"/>
    <tile gid="786"/>
    <tile gid="786"/>
    <tile gid="786"/>
    <tile gid="786"/>
    <tile gid="786"/>
    <tile gid="786"/>
    <tile gid="786"/>
    <tile gid="786"/>
    <tile gid="786"/>
    <tile gid="786"/>
    <tile gid="786"/>
    <tile gid="786"/>
    <tile gid="786"/>
    <tile gid="786"/>
    <tile gid="786"/>
    <tile gid="786"/>
    <tile gid="786"/>
    <tile gid="786"/>
    <tile gid="786"/>
    <tile gid="786"/>
    <tile gid="786"/>
    <tile gid="786"/>
    <tile gid="258"/>
    <tile gid="786"/>
    <tile gid="786"/>
    <tile gid="786"/>
    <tile gid="786"/>
    <tile gid="257"/>
    <tile gid="786"/>
    <tile gid="786"/>
    <tile gid="786"/>
    <tile gid="786"/>
    <tile gid="786"/>
    <tile gid="786"/>
    <tile gid="786"/>
    <tile gid="786"/>
    <tile gid="786"/>
    <tile gid="786"/>
    <tile gid="786"/>
    <tile gid="786"/>
    <tile gid="786"/>
    <tile gid="786"/>
    <tile gid="786"/>
    <tile gid="786"/>
    <tile gid="786"/>
    <tile gid="786"/>
    <tile gid="786"/>
    <tile gid="786"/>
    <tile gid="786"/>
    <tile gid="786"/>
    <tile gid="786"/>
    <tile gid="786"/>
    <tile gid="786"/>
    <tile gid="786"/>
    <tile gid="786"/>
    <tile gid="786"/>
    <tile gid="786"/>
    <tile gid="786"/>
    <tile gid="786"/>
    <tile gid="786"/>
    <tile gid="786"/>
    <tile gid="786"/>
    <tile gid="258"/>
    <tile gid="786"/>
    <tile gid="786"/>
    <tile gid="786"/>
    <tile gid="786"/>
    <tile gid="257"/>
    <tile gid="786"/>
    <tile gid="786"/>
    <tile gid="786"/>
    <tile gid="786"/>
    <tile gid="786"/>
    <tile gid="786"/>
    <tile gid="786"/>
    <tile gid="786"/>
    <tile gid="786"/>
    <tile gid="786"/>
    <tile gid="786"/>
    <tile gid="786"/>
    <tile gid="786"/>
    <tile gid="786"/>
    <tile gid="786"/>
    <tile gid="786"/>
    <tile gid="786"/>
    <tile gid="786"/>
    <tile gid="786"/>
    <tile gid="786"/>
    <tile gid="786"/>
    <tile gid="786"/>
    <tile gid="786"/>
    <tile gid="786"/>
    <tile gid="786"/>
    <tile gid="786"/>
    <tile gid="786"/>
    <tile gid="786"/>
    <tile gid="786"/>
    <tile gid="786"/>
    <tile gid="786"/>
    <tile gid="786"/>
    <tile gid="786"/>
    <tile gid="786"/>
    <tile gid="258"/>
    <tile gid="786"/>
    <tile gid="786"/>
    <tile gid="786"/>
    <tile gid="786"/>
    <tile gid="257"/>
    <tile gid="786"/>
    <tile gid="786"/>
    <tile gid="786"/>
    <tile gid="786"/>
    <tile gid="786"/>
    <tile gid="786"/>
    <tile gid="786"/>
    <tile gid="786"/>
    <tile gid="786"/>
    <tile gid="786"/>
    <tile gid="786"/>
    <tile gid="786"/>
    <tile gid="786"/>
    <tile gid="786"/>
    <tile gid="786"/>
    <tile gid="786"/>
    <tile gid="786"/>
    <tile gid="786"/>
    <tile gid="786"/>
    <tile gid="786"/>
    <tile gid="786"/>
    <tile gid="786"/>
    <tile gid="786"/>
    <tile gid="786"/>
    <tile gid="786"/>
    <tile gid="786"/>
    <tile gid="786"/>
    <tile gid="786"/>
    <tile gid="786"/>
    <tile gid="786"/>
    <tile gid="786"/>
    <tile gid="786"/>
    <tile gid="786"/>
    <tile gid="786"/>
    <tile gid="258"/>
    <tile gid="786"/>
    <tile gid="786"/>
    <tile gid="786"/>
    <tile gid="786"/>
    <tile gid="257"/>
    <tile gid="786"/>
    <tile gid="786"/>
    <tile gid="786"/>
    <tile gid="786"/>
    <tile gid="786"/>
    <tile gid="786"/>
    <tile gid="786"/>
    <tile gid="786"/>
    <tile gid="786"/>
    <tile gid="786"/>
    <tile gid="786"/>
    <tile gid="786"/>
    <tile gid="786"/>
    <tile gid="786"/>
    <tile gid="786"/>
    <tile gid="786"/>
    <tile gid="786"/>
    <tile gid="786"/>
    <tile gid="786"/>
    <tile gid="786"/>
    <tile gid="786"/>
    <tile gid="786"/>
    <tile gid="786"/>
    <tile gid="786"/>
    <tile gid="786"/>
    <tile gid="786"/>
    <tile gid="786"/>
    <tile gid="786"/>
    <tile gid="786"/>
    <tile gid="786"/>
    <tile gid="786"/>
    <tile gid="786"/>
    <tile gid="786"/>
    <tile gid="786"/>
    <tile gid="258"/>
    <tile gid="786"/>
    <tile gid="786"/>
    <tile gid="786"/>
    <tile gid="786"/>
    <tile gid="257"/>
    <tile gid="786"/>
    <tile gid="786"/>
    <tile gid="786"/>
    <tile gid="786"/>
    <tile gid="786"/>
    <tile gid="786"/>
    <tile gid="786"/>
    <tile gid="786"/>
    <tile gid="786"/>
    <tile gid="786"/>
    <tile gid="786"/>
    <tile gid="786"/>
    <tile gid="786"/>
    <tile gid="786"/>
    <tile gid="786"/>
    <tile gid="786"/>
    <tile gid="786"/>
    <tile gid="786"/>
    <tile gid="786"/>
    <tile gid="786"/>
    <tile gid="786"/>
    <tile gid="786"/>
    <tile gid="786"/>
    <tile gid="786"/>
    <tile gid="786"/>
    <tile gid="786"/>
    <tile gid="786"/>
    <tile gid="786"/>
    <tile gid="786"/>
    <tile gid="786"/>
    <tile gid="786"/>
    <tile gid="786"/>
    <tile gid="786"/>
    <tile gid="786"/>
    <tile gid="258"/>
    <tile gid="786"/>
    <tile gid="786"/>
    <tile gid="786"/>
    <tile gid="786"/>
    <tile gid="257"/>
    <tile gid="786"/>
    <tile gid="786"/>
    <tile gid="786"/>
    <tile gid="786"/>
    <tile gid="786"/>
    <tile gid="786"/>
    <tile gid="786"/>
    <tile gid="786"/>
    <tile gid="786"/>
    <tile gid="786"/>
    <tile gid="786"/>
    <tile gid="786"/>
    <tile gid="786"/>
    <tile gid="786"/>
    <tile gid="786"/>
    <tile gid="786"/>
    <tile gid="786"/>
    <tile gid="786"/>
    <tile gid="786"/>
    <tile gid="786"/>
    <tile gid="786"/>
    <tile gid="786"/>
    <tile gid="786"/>
    <tile gid="786"/>
    <tile gid="786"/>
    <tile gid="786"/>
    <tile gid="786"/>
    <tile gid="786"/>
    <tile gid="786"/>
    <tile gid="786"/>
    <tile gid="786"/>
    <tile gid="786"/>
    <tile gid="786"/>
    <tile gid="786"/>
    <tile gid="258"/>
    <tile gid="786"/>
    <tile gid="786"/>
    <tile gid="786"/>
    <tile gid="786"/>
    <tile gid="257"/>
    <tile gid="786"/>
    <tile gid="786"/>
    <tile gid="786"/>
    <tile gid="786"/>
    <tile gid="786"/>
    <tile gid="786"/>
    <tile gid="786"/>
    <tile gid="786"/>
    <tile gid="786"/>
    <tile gid="786"/>
    <tile gid="786"/>
    <tile gid="786"/>
    <tile gid="786"/>
    <tile gid="786"/>
    <tile gid="786"/>
    <tile gid="786"/>
    <tile gid="786"/>
    <tile gid="786"/>
    <tile gid="786"/>
    <tile gid="786"/>
    <tile gid="786"/>
    <tile gid="786"/>
    <tile gid="786"/>
    <tile gid="786"/>
    <tile gid="786"/>
    <tile gid="786"/>
    <tile gid="786"/>
    <tile gid="786"/>
    <tile gid="786"/>
    <tile gid="786"/>
    <tile gid="786"/>
    <tile gid="786"/>
    <tile gid="786"/>
    <tile gid="786"/>
    <tile gid="258"/>
    <tile gid="786"/>
    <tile gid="786"/>
    <tile gid="786"/>
    <tile gid="786"/>
    <tile gid="786"/>
    <tile gid="786"/>
    <tile gid="786"/>
    <tile gid="786"/>
    <tile gid="786"/>
    <tile gid="786"/>
    <tile gid="786"/>
    <tile gid="786"/>
    <tile gid="786"/>
    <tile gid="786"/>
    <tile gid="786"/>
    <tile gid="786"/>
    <tile gid="786"/>
    <tile gid="786"/>
    <tile gid="786"/>
    <tile gid="786"/>
    <tile gid="786"/>
    <tile gid="786"/>
    <tile gid="786"/>
    <tile gid="786"/>
    <tile gid="786"/>
    <tile gid="786"/>
    <tile gid="786"/>
    <tile gid="786"/>
    <tile gid="786"/>
    <tile gid="786"/>
    <tile gid="786"/>
    <tile gid="786"/>
    <tile gid="786"/>
    <tile gid="786"/>
    <tile gid="786"/>
    <tile gid="786"/>
    <tile gid="786"/>
    <tile gid="786"/>
    <tile gid="786"/>
    <tile gid="786"/>
    <tile gid="786"/>
    <tile gid="786"/>
    <tile gid="786"/>
    <tile gid="786"/>
    <tile gid="786"/>
    <tile gid="786"/>
    <tile gid="786"/>
    <tile gid="786"/>
    <tile gid="786"/>
    <tile gid="786"/>
    <tile gid="786"/>
    <tile gid="786"/>
    <tile gid="786"/>
    <tile gid="786"/>
    <tile gid="786"/>
    <tile gid="786"/>
    <tile gid="786"/>
    <tile gid="786"/>
    <tile gid="786"/>
    <tile gid="786"/>
    <tile gid="786"/>
    <tile gid="786"/>
    <tile gid="786"/>
    <tile gid="786"/>
    <tile gid="786"/>
    <tile gid="786"/>
    <tile gid="786"/>
    <tile gid="786"/>
    <tile gid="786"/>
    <tile gid="786"/>
    <tile gid="786"/>
    <tile gid="786"/>
    <tile gid="786"/>
    <tile gid="786"/>
    <tile gid="786"/>
    <tile gid="786"/>
    <tile gid="786"/>
    <tile gid="786"/>
    <tile gid="786"/>
    <tile gid="786"/>
    <tile gid="786"/>
    <tile gid="786"/>
    <tile gid="786"/>
    <tile gid="786"/>
    <tile gid="786"/>
    <tile gid="786"/>
    <tile gid="786"/>
    <tile gid="786"/>
    <tile gid="786"/>
    <tile gid="786"/>
    <tile gid="786"/>
    <tile gid="786"/>
    <tile gid="786"/>
    <tile gid="786"/>
    <tile gid="786"/>
    <tile gid="786"/>
    <tile gid="786"/>
    <tile gid="786"/>
    <tile gid="786"/>
    <tile gid="786"/>
    <tile gid="786"/>
    <tile gid="786"/>
    <tile gid="786"/>
    <tile gid="786"/>
    <tile gid="786"/>
    <tile gid="786"/>
    <tile gid="786"/>
    <tile gid="786"/>
    <tile gid="786"/>
    <tile gid="786"/>
    <tile gid="786"/>
    <tile gid="786"/>
    <tile gid="786"/>
    <tile gid="786"/>
    <tile gid="786"/>
    <tile gid="786"/>
    <tile gid="786"/>
    <tile gid="786"/>
    <tile gid="786"/>
    <tile gid="786"/>
    <tile gid="786"/>
    <tile gid="786"/>
   </data>
  </layer>
  <layer id="3" name="lower_walls" width="40" height="30">
   <data>
    <tile gid="786"/>
    <tile gid="786"/>
    <tile gid="786"/>
    <tile gid="786"/>
    <tile gid="786"/>
    <tile gid="786"/>
    <tile gid="786"/>
    <tile gid="786"/>
    <tile gid="786"/>
    <tile gid="786"/>
    <tile gid="786"/>
    <tile gid="786"/>
    <tile gid="786"/>
    <tile gid="786"/>
    <tile gid="786"/>
    <tile gid="786"/>
    <tile gid="786"/>
    <tile gid="786"/>
    <tile gid="786"/>
    <tile gid="786"/>
    <tile gid="786"/>
    <tile gid="786"/>
    <tile gid="786"/>
    <tile gid="786"/>
    <tile gid="786"/>
    <tile gid="786"/>
    <tile gid="786"/>
    <tile gid="786"/>
    <tile gid="786"/>
    <tile gid="786"/>
    <tile gid="786"/>
    <tile gid="786"/>
    <tile gid="786"/>
    <tile gid="786"/>
    <tile gid="786"/>
    <tile gid="786"/>
    <tile gid="786"/>
    <tile gid="786"/>
    <tile gid="786"/>
    <tile gid="786"/>
    <tile gid="786"/>
    <tile gid="786"/>
    <tile gid="786"/>
    <tile gid="786"/>
    <tile gid="786"/>
    <tile gid="786"/>
    <tile gid="786"/>
    <tile gid="786"/>
    <tile gid="786"/>
    <tile gid="786"/>
    <tile gid="786"/>
    <tile gid="786"/>
    <tile gid="786"/>
    <tile gid="786"/>
    <tile gid="786"/>
    <tile gid="786"/>
    <tile gid="786"/>
    <tile gid="786"/>
    <tile gid="786"/>
    <tile gid="786"/>
    <tile gid="786"/>
    <tile gid="786"/>
    <tile gid="786"/>
    <tile gid="786"/>
    <tile gid="786"/>
    <tile gid="786"/>
    <tile gid="786"/>
    <tile gid="786"/>
    <tile gid="786"/>
    <tile gid="786"/>
    <tile gid="786"/>
    <tile gid="786"/>
    <tile gid="786"/>
    <tile gid="786"/>
    <tile gid="786"/>
    <tile gid="786"/>
    <tile gid="786"/>
    <tile gid="786"/>
    <tile gid="786"/>
    <tile gid="786"/>
    <tile gid="786"/>
    <tile gid="786"/>
    <tile gid="786"/>
    <tile gid="786"/>
    <tile gid="786"/>
    <tile gid="786"/>
    <tile gid="786"/>
    <tile gid="786"/>
    <tile gid="786"/>
    <tile gid="786"/>
    <tile gid="786"/>
    <tile gid="786"/>
    <tile gid="786"/>
    <tile gid="786"/>
    <tile gid="786"/>
    <tile gid="786"/>
    <tile gid="786"/>
    <tile gid="786"/>
    <tile gid="786"/>
    <tile gid="786"/>
    <tile gid="786"/>
    <tile gid="786"/>
    <tile gid="786"/>
    <tile gid="786"/>
    <tile gid="786"/>
    <tile gid="786"/>
    <tile gid="786"/>
    <tile gid="786"/>
    <tile gid="786"/>
    <tile gid="786"/>
    <tile gid="786"/>
    <tile gid="786"/>
    <tile gid="786"/>
    <tile gid="786"/>
    <tile gid="786"/>
    <tile gid="786"/>
    <tile gid="786"/>
    <tile gid="786"/>
    <tile gid="786"/>
    <tile gid="786"/>
    <tile gid="786"/>
    <tile gid="786"/>
    <tile gid="786"/>
    <tile gid="786"/>
    <tile gid="786"/>
    <tile gid="786"/>
    <tile gid="786"/>
    <tile gid="786"/>
    <tile gid="786"/>
    <tile gid="786"/>
    <tile gid="786"/>
    <tile gid="786"/>
    <tile gid="786"/>
    <tile gid="786"/>
    <tile gid="786"/>
    <tile gid="786"/>
    <tile gid="786"/>
    <tile gid="786"/>
    <tile gid="786"/>
    <tile gid="786"/>
    <tile gid="786"/>
    <tile gid="786"/>
    <tile gid="786"/>
    <tile gid="786"/>
    <tile gid="786"/>
    <tile gid="786"/>
    <tile gid="786"/>
    <tile gid="786"/>
    <tile gid="786"/>
    <tile gid="786"/>
    <tile gid="786"/>
    <tile gid="786"/>
    <tile gid="786"/>
    <tile gid="786"/>
    <tile gid="786"/>
    <tile gid="786"/>
    <tile gid="786"/>
    <tile gid="786"/>
    <tile gid="786"/>
    <tile gid="786"/>
    <tile gid="786"/>
    <tile gid="786"/>
    <tile gid="786"/>
    <tile gid="786"/>
    <tile gid="786"/>
    <tile gid="786"/>
    <tile gid="786"/>
    <tile gid="786"/>
    <tile gid="786"/>
    <tile gid="786"/>
    <tile gid="786"/>
    <tile gid="786"/>
    <tile gid="786"/>
    <tile gid="786"/>
    <tile gid="786"/>
    <tile gid="786"/>
    <tile gid="786"/>
    <tile gid="786"/>
    <tile gid="786"/>
    <tile gid="786"/>
    <tile gid="786"/>
    <tile gid="786"/>
    <tile gid="786"/>
    <tile gid="786"/>
    <tile gid="786"/>
    <tile gid="786"/>
    <tile gid="786"/>
    <tile gid="786"/>
    <tile gid="786"/>
    <tile gid="786"/>
    <tile gid="786"/>
    <tile gid="786"/>
    <tile gid="786"/>
    <tile gid="786"/>
    <tile gid="786"/>
    <tile gid="786"/>
    <tile gid="786"/>
    <tile gid="786"/>
    <tile gid="786"/>
    <tile gid="786"/>
    <tile gid="786"/>
    <tile gid="786"/>
    <tile gid="786"/>
    <tile gid="786"/>
    <tile gid="786"/>
    <tile gid="786"/>
    <tile gid="786"/>
    <tile gid="786"/>
    <tile gid="786"/>
    <tile gid="786"/>
    <tile gid="786"/>
    <tile gid="786"/>
    <tile gid="786"/>
    <tile gid="786"/>
    <tile gid="786"/>
    <tile gid="786"/>
    <tile gid="786"/>
    <tile gid="786"/>
    <tile gid="786"/>
    <tile gid="786"/>
    <tile gid="786"/>
    <tile gid="786"/>
    <tile gid="786"/>
    <tile gid="786"/>
    <tile gid="786"/>
    <tile gid="786"/>
    <tile gid="786"/>
    <tile gid="786"/>
    <tile gid="786"/>
    <tile gid="786"/>
    <tile gid="786"/>
    <tile gid="786"/>
    <tile gid="786"/>
    <tile gid="786"/>
    <tile gid="786"/>
    <tile gid="786"/>
    <tile gid="786"/>
    <tile gid="786"/>
    <tile gid="786"/>
    <tile gid="786"/>
    <tile gid="786"/>
    <tile gid="786"/>
    <tile gid="786"/>
    <tile gid="786"/>
    <tile gid="786"/>
    <tile gid="786"/>
    <tile gid="786"/>
    <tile gid="786"/>
    <tile gid="786"/>
    <tile gid="786"/>
    <tile gid="786"/>
    <tile gid="786"/>
    <tile gid="786"/>
    <tile gid="786"/>
    <tile gid="786"/>
    <tile gid="786"/>
    <tile gid="786"/>
    <tile gid="786"/>
    <tile gid="786"/>
    <tile gid="786"/>
    <tile gid="786"/>
    <tile gid="786"/>
    <tile gid="786"/>
    <tile gid="786"/>
    <tile gid="786"/>
    <tile gid="786"/>
    <tile gid="786"/>
    <tile gid="786"/>
    <tile gid="786"/>
    <tile gid="786"/>
    <tile gid="786"/>
    <tile gid="786"/>
    <tile gid="786"/>
    <tile gid="786"/>
    <tile gid="786"/>
    <tile gid="786"/>
    <tile gid="786"/>
    <tile gid="786"/>
    <tile gid="786"/>
    <tile gid="786"/>
    <tile gid="786"/>
    <tile gid="786"/>
    <tile gid="786"/>
    <tile gid="786"/>
    <tile gid="786"/>
    <tile gid="786"/>
    <tile gid="786"/>
    <tile gid="786"/>
    <tile gid="786"/>
    <tile gid="786"/>
    <tile gid="786"/>
    <tile gid="786"/>
    <tile gid="786"/>
    <tile gid="786"/>
    <tile gid="786"/>
    <tile gid="786"/>
    <tile gid="786"/>
    <tile gid="786"/>
    <tile gid="786"/>
    <tile gid="786"/>
    <tile gid="786"/>
    <tile gid="786"/>
    <tile gid="786"/>
    <tile gid="786"/>
    <tile gid="786"/>
    <tile gid="786"/>
    <tile gid="786"/>
    <tile gid="786"/>
    <tile gid="786"/>
    <tile gid="786"/>
    <tile gid="786"/>
    <tile gid="786"/>
    <tile gid="786"/>
    <tile gid="786"/>
    <tile gid="786"/>
    <tile gid="786"/>
    <tile gid="786"/>
    <tile gid="786"/>
    <tile gid="786"/>
    <tile gid="786"/>
    <tile gid="786"/>
    <tile gid="786"/>
    <tile gid="786"/>
    <tile gid="786"/>
    <tile gid="786"/>
    <tile gid="786"/>
    <tile gid="786"/>
    <tile gid="786"/>
    <tile gid="786"/>
    <tile gid="786"/>
    <tile gid="786"/>
    <tile gid="786"/>
    <tile gid="786"/>
    <tile gid="786"/>
    <tile gid="786"/>
    <tile gid="786"/>
    <tile gid="786"/>
    <tile gid="786"/>
    <tile gid="786"/>
    <tile gid="786"/>
    <tile gid="786"/>
    <tile gid="786"/>
    <tile gid="786"/>
    <tile gid="786"/>
    <tile gid="786"/>
    <tile gid="786"/>
    <tile gid="786"/>
    <tile gid="786"/>
    <tile gid="786"/>
    <tile gid="786"/>
    <tile gid="786"/>
    <tile gid="786"/>
    <tile gid="786"/>
    <tile gid="786"/>
    <tile gid="786"/>
    <tile gid="786"/>
    <tile gid="786"/>
    <tile gid="786"/>
    <tile gid="786"/>
    <tile gid="786"/>
    <tile gid="786"/>
    <tile gid="786"/>
    <tile gid="786"/>
    <tile gid="786"/>
    <tile gid="786"/>
    <tile gid="786"/>
    <tile gid="786"/>
    <tile gid="786"/>
    <tile gid="786"/>
    <tile gid="786"/>
    <tile gid="786"/>
    <tile gid="786"/>
    <tile gid="786"/>
    <tile gid="786"/>
    <tile gid="786"/>
    <tile gid="786"/>
    <tile gid="786"/>
    <tile gid="786"/>
    <tile gid="786"/>
    <tile gid="786"/>
    <tile gid="786"/>
    <tile gid="786"/>
    <tile gid="786"/>
    <tile gid="786"/>
    <tile gid="786"/>
    <tile gid="786"/>
    <tile gid="786"/>
    <tile gid="786"/>
    <tile gid="786"/>
    <tile gid="786"/>
    <tile gid="786"/>
    <tile gid="786"/>
    <tile gid="786"/>
    <tile gid="786"/>
    <tile gid="786"/>
    <tile gid="786"/>
    <tile gid="786"/>
    <tile gid="786"/>
    <tile gid="786"/>
    <tile gid="786"/>
    <tile gid="786"/>
    <tile gid="786"/>
    <tile gid="786"/>
    <tile gid="786"/>
    <tile gid="786"/>
    <tile gid="786"/>
    <tile gid="786"/>
    <tile gid="786"/>
    <tile gid="786"/>
    <tile gid="786"/>
    <tile gid="786"/>
    <tile gid="786"/>
    <tile gid="786"/>
    <tile gid="786"/>
    <tile gid="786"/>
    <tile gid="786"/>
    <tile gid="786"/>
    <tile gid="786"/>
    <tile gid="786"/>
    <tile gid="786"/>
    <tile gid="786"/>
    <tile gid="786"/>
    <tile gid="786"/>
    <tile gid="786"/>
    <tile gid="786"/>
    <tile gid="786"/>
    <tile gid="786"/>
    <tile gid="786"/>
    <tile gid="786"/>
    <tile gid="786"/>
    <tile gid="786"/>
    <tile gid="786"/>
    <tile gid="786"/>
    <tile gid="786"/>
    <tile gid="786"/>
    <tile gid="786"/>
    <tile gid="786"/>
    <tile gid="786"/>
    <tile gid="786"/>
    <tile gid="786"/>
    <tile gid="786"/>
    <tile gid="786"/>
    <tile gid="786"/>
    <tile gid="786"/>
    <tile gid="786"/>
    <tile gid="786"/>
    <tile gid="786"/>
    <tile gid="786"/>
    <tile gid="786"/>
    <tile gid="786"/>
    <tile gid="786"/>
    <tile gid="786"/>
    <tile gid="786"/>
    <tile gid="786"/>
    <tile gid="786"/>
    <tile gid="786"/>
    <tile gid="786"/>
    <tile gid="786"/>
    <tile gid="786"/>
    <tile gid="786"/>
    <tile gid="786"/>
    <tile gid="786"/>
    <tile gid="786"/>
    <tile gid="786"/>
    <tile gid="786"/>
    <tile gid="786"/>
    <tile gid="786"/>
    <tile gid="786"/>
    <tile gid="786"/>
    <tile gid="786"/>
    <tile gid="786"/>
    <tile gid="786"/>
    <tile gid="786"/>
    <tile gid="786"/>
    <tile gid="786"/>
    <tile gid="786"/>
    <tile gid="786"/>
    <tile gid="786"/>
    <tile gid="786"/>
    <tile gid="786"/>
    <tile gid="786"/>
    <tile gid="786"/>
    <tile gid="786"/>
    <tile gid="786"/>
    <tile gid="786"/>
    <tile gid="786"/>
    <tile gid="786"/>
    <tile gid="786"/>
    <tile gid="786"/>
    <tile gid="786"/>
    <tile gid="786"/>
    <tile gid="786"/>
    <tile gid="786"/>
    <tile gid="786"/>
    <tile gid="786"/>
    <tile gid="786"/>
    <tile gid="786"/>
    <tile gid="786"/>
    <tile gid="786"/>
    <tile gid="786"/>
    <tile gid="786"/>
    <tile gid="786"/>
    <tile gid="786"/>
    <tile gid="786"/>
    <tile gid="786"/>
    <tile gid="786"/>
    <tile gid="786"/>
    <tile gid="786"/>
    <tile gid="786"/>
    <tile gid="786"/>
    <tile gid="786"/>
    <tile gid="786"/>
    <tile gid="786"/>
    <tile gid="786"/>
    <tile gid="786"/>
    <tile gid="786"/>
    <tile gid="786"/>
    <tile gid="786"/>
    <tile gid="786"/>
    <tile gid="786"/>
    <tile gid="786"/>
    <tile gid="786"/>
    <tile gid="786"/>
    <tile gid="786"/>
    <tile gid="786"/>
    <tile gid="786"/>
    <tile gid="786"/>
    <tile gid="786"/>
    <tile gid="786"/>
    <tile gid="786"/>
    <tile gid="786"/>
    <tile gid="786"/>
    <tile gid="786"/>
    <tile gid="786"/>
    <tile gid="786"/>
    <tile gid="786"/>
    <tile gid="786"/>
    <tile gid="786"/>
    <tile gid="786"/>
    <tile gid="786"/>
    <tile gid="786"/>
    <tile gid="786"/>
    <tile gid="786"/>
    <tile gid="786"/>
    <tile gid="786"/>
    <tile gid="786"/>
    <tile gid="786"/>
    <tile gid="786"/>
    <tile gid="786"/>
    <tile gid="786"/>
    <tile gid="786"/>
    <tile gid="786"/>
    <tile gid="786"/>
    <tile gid="786"/>
    <tile gid="786"/>
    <tile gid="786"/>
    <tile gid="786"/>
    <tile gid="786"/>
    <tile gid="786"/>
    <tile gid="786"/>
    <tile gid="786"/>
    <tile gid="786"/>
    <tile gid="786"/>
    <tile gid="786"/>
    <tile gid="786"/>
    <tile gid="786"/>
    <tile gid="786"/>
    <tile gid="786"/>
    <tile gid="786"/>
    <tile gid="786"/>
    <tile gid="786"/>
    <tile gid="786"/>
    <tile gid="786"/>
    <tile gid="786"/>
    <tile gid="786"/>
    <tile gid="786"/>
    <tile gid="786"/>
    <tile gid="786"/>
    <tile gid="786"/>
    <tile gid="786"/>
    <tile gid="786"/>
    <tile gid="786"/>
    <tile gid="786"/>
    <tile gid="786"/>
    <tile gid="786"/>
    <tile gid="786"/>
    <tile gid="786"/>
    <tile gid="786"/>
    <tile gid="786"/>
    <tile gid="786"/>
    <tile gid="786"/>
    <tile gid="786"/>
    <tile gid="786"/>
    <tile gid="786"/>
    <tile gid="786"/>
    <tile gid="786"/>
    <tile gid="786"/>
    <tile gid="786"/>
    <tile gid="786"/>
    <tile gid="786"/>
    <tile gid="786"/>
    <tile gid="786"/>
    <tile gid="786"/>
    <tile gid="786"/>
    <tile gid="786"/>
    <tile gid="786"/>
    <tile gid="786"/>
    <tile gid="786"/>
    <tile gid="786"/>
    <tile gid="786"/>
    <tile gid="786"/>
    <tile gid="786"/>
    <tile gid="786"/>
    <tile gid="786"/>
    <tile gid="786"/>
    <tile gid="786"/>
    <tile gid="786"/>
    <tile gid="786"/>
    <tile gid="786"/>
    <tile gid="786"/>
    <tile gid="786"/>
    <tile gid="786"/>
    <tile gid="786"/>
    <tile gid="786"/>
    <tile gid="786"/>
    <tile gid="786"/>
    <tile gid="786"/>
    <tile gid="786"/>
    <tile gid="786"/>
    <tile gid="786"/>
    <tile gid="786"/>
    <tile gid="786"/>
    <tile gid="786"/>
    <tile gid="786"/>
    <tile gid="786"/>
    <tile gid="786"/>
    <tile gid="786"/>
    <tile gid="786"/>
    <tile gid="786"/>
    <tile gid="786"/>
    <tile gid="786"/>
    <tile gid="786"/>
    <tile gid="786"/>
    <tile gid="786"/>
    <tile gid="786"/>
    <tile gid="786"/>
    <tile gid="786"/>
    <tile gid="786"/>
    <tile gid="786"/>
    <tile gid="786"/>
    <tile gid="786"/>
    <tile gid="786"/>
    <tile gid="786"/>
    <tile gid="786"/>
    <tile gid="786"/>
    <tile gid="786"/>
    <tile gid="786"/>
    <tile gid="786"/>
    <tile gid="786"/>
    <tile gid="786"/>
    <tile gid="786"/>
    <tile gid="786"/>
    <tile gid="786"/>
    <tile gid="786"/>
    <tile gid="786"/>
    <tile gid="786"/>
    <tile gid="786"/>
    <tile gid="786"/>
    <tile gid="786"/>
    <tile gid="786"/>
    <tile gid="786"/>
    <tile gid="786"/>
    <tile gid="786"/>
    <tile gid="786"/>
    <tile gid="786"/>
    <tile gid="786"/>
    <tile gid="786"/>
    <tile gid="786"/>
    <tile gid="786"/>
    <tile gid="786"/>
    <tile gid="786"/>
    <tile gid="786"/>
    <tile gid="786"/>
    <tile gid="786"/>
    <tile gid="786"/>
    <tile gid="786"/>
    <tile gid="786"/>
    <tile gid="786"/>
    <tile gid="786"/>
    <tile gid="786"/>
    <tile gid="786"/>
    <tile gid="786"/>
    <tile gid="786"/>
    <tile gid="786"/>
    <tile gid="786"/>
    <tile gid="786"/>
    <tile gid="786"/>
    <tile gid="786"/>
    <tile gid="786"/>
    <tile gid="786"/>
    <tile gid="786"/>
    <tile gid="786"/>
    <tile gid="786"/>
    <tile gid="786"/>
    <tile gid="786"/>
    <tile gid="786"/>
    <tile gid="786"/>
    <tile gid="786"/>
    <tile gid="786"/>
    <tile gid="786"/>
    <tile gid="786"/>
    <tile gid="786"/>
    <tile gid="786"/>
    <tile gid="786"/>
    <tile gid="786"/>
    <tile gid="786"/>
    <tile gid="786"/>
    <tile gid="786"/>
    <tile gid="786"/>
    <tile gid="786"/>
    <tile gid="786"/>
    <tile gid="786"/>
    <tile gid="786"/>
    <tile gid="786"/>
    <tile gid="786"/>
    <tile gid="786"/>
    <tile gid="786"/>
    <tile gid="786"/>
    <tile gid="786"/>
    <tile gid="786"/>
    <tile gid="786"/>
    <tile gid="786"/>
    <tile gid="786"/>
    <tile gid="786"/>
    <tile gid="786"/>
    <tile gid="786"/>
    <tile gid="786"/>
    <tile gid="786"/>
    <tile gid="786"/>
    <tile gid="786"/>
    <tile gid="786"/>
    <tile gid="786"/>
    <tile gid="786"/>
    <tile gid="786"/>
    <tile gid="786"/>
    <tile gid="786"/>
    <tile gid="786"/>
    <tile gid="786"/>
    <tile gid="786"/>
    <tile gid="786"/>
    <tile gid="786"/>
    <tile gid="786"/>
    <tile gid="786"/>
    <tile gid="786"/>
    <tile gid="786"/>
    <tile gid="786"/>
    <tile gid="786"/>
    <tile gid="786"/>
    <tile gid="786"/>
    <tile gid="786"/>
    <tile gid="786"/>
    <tile gid="786"/>
    <tile gid="786"/>
    <tile gid="786"/>
    <tile gid="786"/>
    <tile gid="786"/>
    <tile gid="786"/>
    <tile gid="786"/>
    <tile gid="786"/>
    <tile gid="786"/>
    <tile gid="786"/>
    <tile gid="786"/>
    <tile gid="786"/>
    <tile gid="786"/>
    <tile gid="786"/>
    <tile gid="786"/>
    <tile gid="786"/>
    <tile gid="786"/>
    <tile gid="786"/>
    <tile gid="786"/>
    <tile gid="786"/>
    <tile gid="786"/>
    <tile gid="786"/>
    <tile gid="786"/>
    <tile gid="786"/>
    <tile gid="786"/>
    <tile gid="786"/>
    <tile gid="786"/>
    <tile gid="786"/>
    <tile gid="786"/>
    <tile gid="786"/>
    <tile gid="786"/>
    <tile gid="786"/>
    <tile gid="786"/>
    <tile gid="786"/>
    <tile gid="786"/>
    <tile gid="786"/>
    <tile gid="786"/>
    <tile gid="786"/>
    <tile gid="786"/>
    <tile gid="786"/>
    <tile gid="786"/>
    <tile gid="786"/>
    <tile gid="786"/>
    <tile gid="786"/>
    <tile gid="786"/>
    <tile gid="786"/>
    <tile gid="786"/>
    <tile gid="786"/>
    <tile gid="786"/>
    <tile gid="786"/>
    <tile gid="786"/>
    <tile gid="786"/>
    <tile gid="786"/>
    <tile gid="786"/>
    <tile gid="786"/>
    <tile gid="786"/>
    <tile gid="786"/>
    <tile gid="786"/>
    <tile gid="786"/>
    <tile gid="786"/>
    <tile gid="786"/>
    <tile gid="786"/>
    <tile gid="786"/>
    <tile gid="786"/>
    <tile gid="786"/>
    <tile gid="786"/>
    <tile gid="786"/>
    <tile gid="786"/>
    <tile gid="786"/>
    <tile gid="786"/>
    <tile gid="786"/>
    <tile gid="786"/>
    <tile gid="786"/>
    <tile gid="786"/>
    <tile gid="786"/>
    <tile gid="786"/>
    <tile gid="786"/>
    <tile gid="786"/>
    <tile gid="786"/>
    <tile gid="786"/>
    <tile gid="786"/>
    <tile gid="786"/>
    <tile gid="786"/>
    <tile gid="786"/>
    <tile gid="786"/>
    <tile gid="786"/>
    <tile gid="786"/>
    <tile gid="786"/>
    <tile gid="786"/>
    <tile gid="786"/>
    <tile gid="786"/>
    <tile gid="786"/>
    <tile gid="786"/>
    <tile gid="786"/>
    <tile gid="786"/>
    <tile gid="786"/>
    <tile gid="786"/>
    <tile gid="786"/>
    <tile gid="786"/>
    <tile gid="786"/>
    <tile gid="786"/>
    <tile gid="786"/>
    <tile gid="786"/>
    <tile gid="786"/>
    <tile gid="786"/>
    <tile gid="786"/>
    <tile gid="786"/>
    <tile gid="786"/>
    <tile gid="786"/>
    <tile gid="786"/>
    <tile gid="786"/>
    <tile gid="786"/>
    <tile gid="786"/>
    <tile gid="786"/>
    <tile gid="786"/>
    <tile gid="786"/>
    <tile gid="786"/>
    <tile gid="786"/>
    <tile gid="786"/>
    <tile gid="786"/>
    <tile gid="786"/>
    <tile gid="786"/>
    <tile gid="786"/>
    <tile gid="786"/>
    <tile gid="786"/>
    <tile gid="786"/>
    <tile gid="786"/>
    <tile gid="786"/>
    <tile gid="786"/>
    <tile gid="786"/>
    <tile gid="786"/>
    <tile gid="786"/>
    <tile gid="786"/>
    <tile gid="786"/>
    <tile gid="786"/>
    <tile gid="786"/>
    <tile gid="786"/>
    <tile gid="786"/>
    <tile gid="786"/>
    <tile gid="786"/>
    <tile gid="786"/>
    <tile gid="786"/>
    <tile gid="786"/>
    <tile gid="786"/>
    <tile gid="786"/>
    <tile gid="786"/>
    <tile gid="786"/>
    <tile gid="786"/>
    <tile gid="786"/>
    <tile gid="786"/>
    <tile gid="786"/>
    <tile gid="786"/>
    <tile gid="786"/>
    <tile gid="786"/>
    <tile gid="786"/>
    <tile gid="786"/>
    <tile gid="786"/>
    <tile gid="786"/>
    <tile gid="786"/>
    <tile gid="786"/>
    <tile gid="786"/>
    <tile gid="786"/>
    <tile gid="786"/>
    <tile gid="786"/>
    <tile gid="786"/>
    <tile gid="786"/>
    <tile gid="786"/>
    <tile gid="786"/>
    <tile gid="786"/>
    <tile gid="786"/>
    <tile gid="786"/>
    <tile gid="786"/>
    <tile gid="786"/>
    <tile gid="786"/>
    <tile gid="786"/>
    <tile gid="786"/>
    <tile gid="786"/>
    <tile gid="786"/>
    <tile gid="786"/>
    <tile gid="786"/>
    <tile gid="786"/>
    <tile gid="786"/>
    <tile gid="786"/>
    <tile gid="786"/>
    <tile gid="786"/>
    <tile gid="786"/>
    <tile gid="786"/>
    <tile gid="786"/>
    <tile gid="786"/>
    <tile gid="786"/>
    <tile gid="786"/>
    <tile gid="786"/>
    <tile gid="786"/>
    <tile gid="786"/>
    <tile gid="786"/>
    <tile gid="786"/>
    <tile gid="786"/>
    <tile gid="786"/>
    <tile gid="786"/>
    <tile gid="786"/>
    <tile gid="786"/>
    <tile gid="786"/>
    <tile gid="786"/>
    <tile gid="786"/>
    <tile gid="786"/>
    <tile gid="786"/>
    <tile gid="786"/>
    <tile gid="786"/>
    <tile gid="786"/>
    <tile gid="786"/>
    <tile gid="786"/>
    <tile gid="786"/>
    <tile gid="786"/>
    <tile gid="786"/>
    <tile gid="786"/>
    <tile gid="786"/>
    <tile gid="786"/>
    <tile gid="786"/>
    <tile gid="786"/>
    <tile gid="786"/>
    <tile gid="786"/>
    <tile gid="786"/>
    <tile gid="786"/>
    <tile gid="786"/>
    <tile gid="786"/>
    <tile gid="786"/>
    <tile gid="786"/>
    <tile gid="786"/>
    <tile gid="786"/>
    <tile gid="786"/>
    <tile gid="786"/>
    <tile gid="786"/>
    <tile gid="786"/>
    <tile gid="786"/>
    <tile gid="786"/>
    <tile gid="786"/>
    <tile gid="786"/>
    <tile gid="786"/>
    <tile gid="786"/>
    <tile gid="786"/>
    <tile gid="786"/>
    <tile gid="786"/>
    <tile gid="786"/>
    <tile gid="786"/>
    <tile gid="786"/>
    <tile gid="786"/>
    <tile gid="786"/>
    <tile gid="786"/>
    <tile gid="786"/>
    <tile gid="786"/>
    <tile gid="786"/>
    <tile gid="786"/>
    <tile gid="786"/>
    <tile gid="786"/>
    <tile gid="786"/>
    <tile gid="786"/>
    <tile gid="786"/>
    <tile gid="786"/>
    <tile gid="786"/>
    <tile gid="786"/>
    <tile gid="786"/>
    <tile gid="786"/>
    <tile gid="786"/>
    <tile gid="786"/>
    <tile gid="786"/>
    <tile gid="786"/>
    <tile gid="786"/>
    <tile gid="786"/>
    <tile gid="786"/>
    <tile gid="786"/>
    <tile gid="786"/>
    <tile gid="786"/>
    <tile gid="786"/>
    <tile gid="786"/>
    <tile gid="786"/>
    <tile gid="786"/>
    <tile gid="786"/>
    <tile gid="786"/>
    <tile gid="786"/>
    <tile gid="786"/>
    <tile gid="786"/>
    <tile gid="786"/>
    <tile gid="3"/>
    <tile gid="3"/>
    <tile gid="3"/>
    <tile gid="3"/>
    <tile gid="3"/>
    <tile gid="3"/>
    <tile gid="3"/>
    <tile gid="3"/>
    <tile gid="3"/>
    <tile gid="3"/>
    <tile gid="3"/>
    <tile gid="3"/>
    <tile gid="3"/>
    <tile gid="3"/>
    <tile gid="3"/>
    <tile gid="3"/>
    <tile gid="3"/>
    <tile gid="3"/>
    <tile gid="3"/>
    <tile gid="3"/>
    <tile gid="3"/>
    <tile gid="3"/>
    <tile gid="3"/>
    <tile gid="3"/>
    <tile gid="3"/>
    <tile gid="3"/>
    <tile gid="3"/>
    <tile gid="3"/>
    <tile gid="3"/>
    <tile gid="3"/>
    <tile gid="3"/>
    <tile gid="3"/>
    <tile gid="3"/>
    <tile gid="3"/>
    <tile gid="786"/>
    <tile gid="786"/>
    <tile gid="786"/>
    <tile gid="786"/>
    <tile gid="786"/>
    <tile gid="289"/>
    <tile gid="35"/>
    <tile gid="35"/>
    <tile gid="35"/>
    <tile gid="35"/>
    <tile gid="35"/>
    <tile gid="35"/>
    <tile gid="35"/>
    <tile gid="35"/>
    <tile gid="35"/>
    <tile gid="35"/>
    <tile gid="35"/>
    <tile gid="35"/>
    <tile gid="35"/>
    <tile gid="35"/>
    <tile gid="35"/>
    <tile gid="35"/>
    <tile gid="35"/>
    <tile gid="35"/>
    <tile gid="35"/>
    <tile gid="35"/>
    <tile gid="35"/>
    <tile gid="35"/>
    <tile gid="35"/>
    <tile gid="35"/>
    <tile gid="35"/>
    <tile gid="35"/>
    <tile gid="35"/>
    <tile gid="35"/>
    <tile gid="35"/>
    <tile gid="35"/>
    <tile gid="35"/>
    <tile gid="35"/>
    <tile gid="35"/>
    <tile gid="35"/>
    <tile gid="290"/>
    <tile gid="786"/>
    <tile gid="786"/>
    <tile gid="786"/>
    <tile gid="786"/>
    <tile gid="786"/>
    <tile gid="786"/>
    <tile gid="786"/>
    <tile gid="786"/>
    <tile gid="786"/>
    <tile gid="786"/>
    <tile gid="786"/>
    <tile gid="786"/>
    <tile gid="786"/>
    <tile gid="786"/>
    <tile gid="786"/>
    <tile gid="786"/>
    <tile gid="786"/>
    <tile gid="786"/>
    <tile gid="786"/>
    <tile gid="786"/>
    <tile gid="786"/>
    <tile gid="786"/>
    <tile gid="786"/>
    <tile gid="786"/>
    <tile gid="786"/>
    <tile gid="786"/>
    <tile gid="786"/>
    <tile gid="786"/>
    <tile gid="786"/>
    <tile gid="786"/>
    <tile gid="786"/>
    <tile gid="786"/>
    <tile gid="786"/>
    <tile gid="786"/>
    <tile gid="786"/>
    <tile gid="786"/>
    <tile gid="786"/>
    <tile gid="786"/>
    <tile gid="786"/>
    <tile gid="786"/>
    <tile gid="786"/>
    <tile gid="786"/>
    <tile gid="786"/>
    <tile gid="786"/>
    <tile gid="786"/>
    <tile gid="786"/>
    <tile gid="786"/>
    <tile gid="786"/>
    <tile gid="786"/>
    <tile gid="786"/>
    <tile gid="786"/>
    <tile gid="786"/>
    <tile gid="786"/>
    <tile gid="786"/>
    <tile gid="786"/>
    <tile gid="786"/>
    <tile gid="786"/>
    <tile gid="786"/>
    <tile gid="786"/>
    <tile gid="786"/>
    <tile gid="786"/>
    <tile gid="786"/>
    <tile gid="786"/>
    <tile gid="786"/>
    <tile gid="786"/>
    <tile gid="786"/>
    <tile gid="786"/>
    <tile gid="786"/>
    <tile gid="786"/>
    <tile gid="786"/>
    <tile gid="786"/>
    <tile gid="786"/>
    <tile gid="786"/>
    <tile gid="786"/>
    <tile gid="786"/>
    <tile gid="786"/>
    <tile gid="786"/>
    <tile gid="786"/>
    <tile gid="786"/>
    <tile gid="786"/>
    <tile gid="786"/>
    <tile gid="786"/>
   </data>
  </layer>

 </group>
 <group id="7" name="collData">
  <layer id="5" name="wall_coll" width="40" height="30">
   <data>
    <tile gid="786"/>
    <tile gid="786"/>
    <tile gid="786"/>
    <tile gid="786"/>
    <tile gid="786"/>
    <tile gid="786"/>
    <tile gid="786"/>
    <tile gid="786"/>
    <tile gid="786"/>
    <tile gid="786"/>
    <tile gid="786"/>
    <tile gid="786"/>
    <tile gid="786"/>
    <tile gid="786"/>
    <tile gid="786"/>
    <tile gid="786"/>
    <tile gid="786"/>
    <tile gid="786"/>
    <tile gid="786"/>
    <tile gid="786"/>
    <tile gid="786"/>
    <tile gid="786"/>
    <tile gid="786"/>
    <tile gid="786"/>
    <tile gid="786"/>
    <tile gid="786"/>
    <tile gid="786"/>
    <tile gid="786"/>
    <tile gid="786"/>
    <tile gid="786"/>
    <tile gid="786"/>
    <tile gid="786"/>
    <tile gid="786"/>
    <tile gid="786"/>
    <tile gid="786"/>
    <tile gid="786"/>
    <tile gid="786"/>
    <tile gid="786"/>
    <tile gid="786"/>
    <tile gid="786"/>
    <tile gid="786"/>
    <tile gid="786"/>
    <tile gid="786"/>
    <tile gid="786"/>
    <tile gid="786"/>
    <tile gid="786"/>
    <tile gid="786"/>
    <tile gid="786"/>
    <tile gid="786"/>
    <tile gid="786"/>
    <tile gid="786"/>
    <tile gid="786"/>
    <tile gid="786"/>
    <tile gid="786"/>
    <tile gid="786"/>
    <tile gid="786"/>
    <tile gid="786"/>
    <tile gid="786"/>
    <tile gid="786"/>
    <tile gid="786"/>
    <tile gid="786"/>
    <tile gid="786"/>
    <tile gid="786"/>
    <tile gid="786"/>
    <tile gid="786"/>
    <tile gid="786"/>
    <tile gid="786"/>
    <tile gid="786"/>
    <tile gid="786"/>
    <tile gid="786"/>
    <tile gid="786"/>
    <tile gid="786"/>
    <tile gid="786"/>
    <tile gid="786"/>
    <tile gid="786"/>
    <tile gid="786"/>
    <tile gid="786"/>
    <tile gid="786"/>
    <tile gid="786"/>
    <tile gid="786"/>
    <tile gid="786"/>
    <tile gid="786"/>
    <tile gid="786"/>
    <tile gid="786"/>
    <tile gid="786"/>
    <tile gid="786"/>
    <tile gid="786"/>
    <tile gid="786"/>
    <tile gid="786"/>
    <tile gid="786"/>
    <tile gid="786"/>
    <tile gid="786"/>
    <tile gid="786"/>
    <tile gid="786"/>
    <tile gid="786"/>
    <tile gid="786"/>
    <tile gid="786"/>
    <tile gid="786"/>
    <tile gid="786"/>
    <tile gid="786"/>
    <tile gid="786"/>
    <tile gid="786"/>
    <tile gid="786"/>
    <tile gid="786"/>
    <tile gid="786"/>
    <tile gid="786"/>
    <tile gid="786"/>
    <tile gid="786"/>
    <tile gid="786"/>
    <tile gid="786"/>
    <tile gid="786"/>
    <tile gid="786"/>
    <tile gid="786"/>
    <tile gid="786"/>
    <tile gid="786"/>
    <tile gid="786"/>
    <tile gid="786"/>
    <tile gid="786"/>
    <tile gid="786"/>
    <tile gid="786"/>
    <tile gid="786"/>
    <tile gid="786"/>
    <tile gid="387"/>
    <tile gid="387"/>
    <tile gid="387"/>
    <tile gid="387"/>
    <tile gid="387"/>
    <tile gid="387"/>
    <tile gid="387"/>
    <tile gid="387"/>
    <tile gid="387"/>
    <tile gid="387"/>
    <tile gid="387"/>
    <tile gid="387"/>
    <tile gid="387"/>
    <tile gid="387"/>
    <tile gid="387"/>
    <tile gid="387"/>
    <tile gid="387"/>
    <tile gid="387"/>
    <tile gid="387"/>
    <tile gid="387"/>
    <tile gid="387"/>
    <tile gid="387"/>
    <tile gid="387"/>
    <tile gid="387"/>
    <tile gid="387"/>
    <tile gid="387"/>
    <tile gid="387"/>
    <tile gid="387"/>
    <tile gid="387"/>
    <tile gid="387"/>
    <tile gid="387"/>
    <tile gid="387"/>
    <tile gid="387"/>
    <tile gid="387"/>
    <tile gid="387"/>
    <tile gid="387"/>
    <tile gid="786"/>
    <tile gid="786"/>
    <tile gid="786"/>
    <tile gid="786"/>
    <tile gid="387"/>
    <tile gid="786"/>
    <tile gid="786"/>
    <tile gid="786"/>
    <tile gid="786"/>
    <tile gid="786"/>
    <tile gid="786"/>
    <tile gid="786"/>
    <tile gid="786"/>
    <tile gid="786"/>
    <tile gid="786"/>
    <tile gid="786"/>
    <tile gid="786"/>
    <tile gid="786"/>
    <tile gid="786"/>
    <tile gid="786"/>
    <tile gid="786"/>
    <tile gid="786"/>
    <tile gid="786"/>
    <tile gid="786"/>
    <tile gid="786"/>
    <tile gid="786"/>
    <tile gid="786"/>
    <tile gid="786"/>
    <tile gid="786"/>
    <tile gid="786"/>
    <tile gid="786"/>
    <tile gid="786"/>
    <tile gid="786"/>
    <tile gid="786"/>
    <tile gid="786"/>
    <tile gid="786"/>
    <tile gid="786"/>
    <tile gid="786"/>
    <tile gid="786"/>
    <tile gid="387"/>
    <tile gid="786"/>
    <tile gid="786"/>
    <tile gid="786"/>
    <tile gid="786"/>
    <tile gid="387"/>
    <tile gid="786"/>
    <tile gid="786"/>
    <tile gid="786"/>
    <tile gid="786"/>
    <tile gid="786"/>
    <tile gid="786"/>
    <tile gid="786"/>
    <tile gid="786"/>
    <tile gid="786"/>
    <tile gid="786"/>
    <tile gid="786"/>
    <tile gid="786"/>
    <tile gid="786"/>
    <tile gid="786"/>
    <tile gid="786"/>
    <tile gid="786"/>
    <tile gid="786"/>
    <tile gid="786"/>
    <tile gid="786"/>
    <tile gid="786"/>
    <tile gid="786"/>
    <tile gid="786"/>
    <tile gid="786"/>
    <tile gid="786"/>
    <tile gid="786"/>
    <tile gid="786"/>
    <tile gid="786"/>
    <tile gid="786"/>
    <tile gid="786"/>
    <tile gid="786"/>
    <tile gid="786"/>
    <tile gid="786"/>
    <tile gid="786"/>
    <tile gid="786"/>
    <tile gid="387"/>
    <tile gid="786"/>
    <tile gid="786"/>
    <tile gid="786"/>
    <tile gid="786"/>
    <tile gid="387"/>
    <tile gid="786"/>
    <tile gid="786"/>
    <tile gid="786"/>
    <tile gid="786"/>
    <tile gid="786"/>
    <tile gid="786"/>
    <tile gid="786"/>
    <tile gid="786"/>
    <tile gid="786"/>
    <tile gid="786"/>
    <tile gid="786"/>
    <tile gid="786"/>
    <tile gid="786"/>
    <tile gid="786"/>
    <tile gid="786"/>
    <tile gid="786"/>
    <tile gid="786"/>
    <tile gid="786"/>
    <tile gid="786"/>
    <tile gid="786"/>
    <tile gid="786"/>
    <tile gid="786"/>
    <tile gid="786"/>
    <tile gid="786"/>
    <tile gid="786"/>
    <tile gid="786"/>
    <tile gid="786"/>
    <tile gid="786"/>
    <tile gid="786"/>
    <tile gid="786"/>
    <tile gid="786"/>
    <tile gid="786"/>
    <tile gid="786"/>
    <tile gid="786"/>
    <tile gid="387"/>
    <tile gid="786"/>
    <tile gid="786"/>
    <tile gid="786"/>
    <tile gid="786"/>
    <tile gid="387"/>
    <tile gid="786"/>
    <tile gid="786"/>
    <tile gid="786"/>
    <tile gid="786"/>
    <tile gid="786"/>
    <tile gid="786"/>
    <tile gid="786"/>
    <tile gid="786"/>
    <tile gid="786"/>
    <tile gid="786"/>
    <tile gid="786"/>
    <tile gid="786"/>
    <tile gid="786"/>
    <tile gid="786"/>
    <tile gid="786"/>
    <tile gid="786"/>
    <tile gid="786"/>
    <tile gid="786"/>
    <tile gid="786"/>
    <tile gid="786"/>
    <tile gid="786"/>
    <tile gid="786"/>
    <tile gid="786"/>
    <tile gid="786"/>
    <tile gid="786"/>
    <tile gid="786"/>
    <tile gid="786"/>
    <tile gid="786"/>
    <tile gid="786"/>
    <tile gid="786"/>
    <tile gid="786"/>
    <tile gid="786"/>
    <tile gid="786"/>
    <tile gid="786"/>
    <tile gid="387"/>
    <tile gid="786"/>
    <tile gid="786"/>
    <tile gid="786"/>
    <tile gid="786"/>
    <tile gid="387"/>
    <tile gid="786"/>
    <tile gid="786"/>
    <tile gid="786"/>
    <tile gid="786"/>
    <tile gid="786"/>
    <tile gid="786"/>
    <tile gid="786"/>
    <tile gid="786"/>
    <tile gid="786"/>
    <tile gid="786"/>
    <tile gid="786"/>
    <tile gid="786"/>
    <tile gid="786"/>
    <tile gid="786"/>
    <tile gid="786"/>
    <tile gid="786"/>
    <tile gid="786"/>
    <tile gid="786"/>
    <tile gid="786"/>
    <tile gid="786"/>
    <tile gid="786"/>
    <tile gid="786"/>
    <tile gid="786"/>
    <tile gid="786"/>
    <tile gid="786"/>
    <tile gid="786"/>
    <tile gid="786"/>
    <tile gid="786"/>
    <tile gid="786"/>
    <tile gid="786"/>
    <tile gid="786"/>
    <tile gid="786"/>
    <tile gid="786"/>
    <tile gid="786"/>
    <tile gid="387"/>
    <tile gid="786"/>
    <tile gid="786"/>
    <tile gid="786"/>
    <tile gid="786"/>
    <tile gid="387"/>
    <tile gid="786"/>
    <tile gid="786"/>
    <tile gid="786"/>
    <tile gid="786"/>
    <tile gid="786"/>
    <tile gid="786"/>
    <tile gid="786"/>
    <tile gid="786"/>
    <tile gid="786"/>
    <tile gid="786"/>
    <tile gid="786"/>
    <tile gid="786"/>
    <tile gid="786"/>
    <tile gid="786"/>
    <tile gid="786"/>
    <tile gid="786"/>
    <tile gid="786"/>
    <tile gid="786"/>
    <tile gid="786"/>
    <tile gid="786"/>
    <tile gid="786"/>
    <tile gid="786"/>
    <tile gid="786"/>
    <tile gid="786"/>
    <tile gid="786"/>
    <tile gid="786"/>
    <tile gid="786"/>
    <tile gid="786"/>
    <tile gid="786"/>
    <tile gid="786"/>
    <tile gid="786"/>
    <tile gid="786"/>
    <tile gid="786"/>
    <tile gid="786"/>
    <tile gid="387"/>
    <tile gid="786"/>
    <tile gid="786"/>
    <tile gid="786"/>
    <tile gid="786"/>
    <tile gid="387"/>
    <tile gid="786"/>
    <tile gid="786"/>
    <tile gid="786"/>
    <tile gid="786"/>
    <tile gid="786"/>
    <tile gid="786"/>
    <tile gid="786"/>
    <tile gid="786"/>
    <tile gid="786"/>
    <tile gid="786"/>
    <tile gid="786"/>
    <tile gid="786"/>
    <tile gid="786"/>
    <tile gid="786"/>
    <tile gid="786"/>
    <tile gid="786"/>
    <tile gid="786"/>
    <tile gid="786"/>
    <tile gid="786"/>
    <tile gid="786"/>
    <tile gid="786"/>
    <tile gid="786"/>
    <tile gid="786"/>
    <tile gid="786"/>
    <tile gid="786"/>
    <tile gid="786"/>
    <tile gid="786"/>
    <tile gid="786"/>
    <tile gid="786"/>
    <tile gid="786"/>
    <tile gid="786"/>
    <tile gid="786"/>
    <tile gid="786"/>
    <tile gid="786"/>
    <tile gid="387"/>
    <tile gid="786"/>
    <tile gid="786"/>
    <tile gid="786"/>
    <tile gid="786"/>
    <tile gid="387"/>
    <tile gid="786"/>
    <tile gid="786"/>
    <tile gid="786"/>
    <tile gid="786"/>
    <tile gid="786"/>
    <tile gid="786"/>
    <tile gid="786"/>
    <tile gid="786"/>
    <tile gid="786"/>
    <tile gid="786"/>
    <tile gid="786"/>
    <tile gid="786"/>
    <tile gid="786"/>
    <tile gid="786"/>
    <tile gid="786"/>
    <tile gid="786"/>
    <tile gid="786"/>
    <tile gid="786"/>
    <tile gid="786"/>
    <tile gid="786"/>
    <tile gid="786"/>
    <tile gid="786"/>
    <tile gid="786"/>
    <tile gid="786"/>
    <tile gid="786"/>
    <tile gid="786"/>
    <tile gid="786"/>
    <tile gid="786"/>
    <tile gid="786"/>
    <tile gid="786"/>
    <tile gid="786"/>
    <tile gid="786"/>
    <tile gid="786"/>
    <tile gid="786"/>
    <tile gid="387"/>
    <tile gid="786"/>
    <tile gid="786"/>
    <tile gid="786"/>
    <tile gid="786"/>
    <tile gid="387"/>
    <tile gid="786"/>
    <tile gid="786"/>
    <tile gid="786"/>
    <tile gid="786"/>
    <tile gid="786"/>
    <tile gid="786"/>
    <tile gid="786"/>
    <tile gid="786"/>
    <tile gid="786"/>
    <tile gid="786"/>
    <tile gid="786"/>
    <tile gid="786"/>
    <tile gid="786"/>
    <tile gid="786"/>
    <tile gid="786"/>
    <tile gid="786"/>
    <tile gid="786"/>
    <tile gid="786"/>
    <tile gid="786"/>
    <tile gid="786"/>
    <tile gid="786"/>
    <tile gid="786"/>
    <tile gid="786"/>
    <tile gid="786"/>
    <tile gid="786"/>
    <tile gid="786"/>
    <tile gid="786"/>
    <tile gid="786"/>
    <tile gid="786"/>
    <tile gid="786"/>
    <tile gid="786"/>
    <tile gid="786"/>
    <tile gid="786"/>
    <tile gid="786"/>
    <tile gid="387"/>
    <tile gid="786"/>
    <tile gid="786"/>
    <tile gid="786"/>
    <tile gid="786"/>
    <tile gid="387"/>
    <tile gid="786"/>
    <tile gid="786"/>
    <tile gid="786"/>
    <tile gid="786"/>
    <tile gid="786"/>
    <tile gid="786"/>
    <tile gid="786"/>
    <tile gid="786"/>
    <tile gid="786"/>
    <tile gid="786"/>
    <tile gid="786"/>
    <tile gid="786"/>
    <tile gid="786"/>
    <tile gid="786"/>
    <tile gid="786"/>
    <tile gid="786"/>
    <tile gid="786"/>
    <tile gid="786"/>
    <tile gid="786"/>
    <tile gid="786"/>
    <tile gid="786"/>
    <tile gid="786"/>
    <tile gid="786"/>
    <tile gid="786"/>
    <tile gid="786"/>
    <tile gid="786"/>
    <tile gid="786"/>
    <tile gid="786"/>
    <tile gid="786"/>
    <tile gid="786"/>
    <tile gid="786"/>
    <tile gid="786"/>
    <tile gid="786"/>
    <tile gid="786"/>
    <tile gid="387"/>
    <tile gid="786"/>
    <tile gid="786"/>
    <tile gid="786"/>
    <tile gid="786"/>
    <tile gid="387"/>
    <tile gid="786"/>
    <tile gid="786"/>
    <tile gid="786"/>
    <tile gid="786"/>
    <tile gid="786"/>
    <tile gid="786"/>
    <tile gid="786"/>
    <tile gid="786"/>
    <tile gid="786"/>
    <tile gid="786"/>
    <tile gid="786"/>
    <tile gid="786"/>
    <tile gid="786"/>
    <tile gid="786"/>
    <tile gid="786"/>
    <tile gid="786"/>
    <tile gid="786"/>
    <tile gid="786"/>
    <tile gid="786"/>
    <tile gid="786"/>
    <tile gid="786"/>
    <tile gid="786"/>
    <tile gid="786"/>
    <tile gid="786"/>
    <tile gid="786"/>
    <tile gid="786"/>
    <tile gid="786"/>
    <tile gid="786"/>
    <tile gid="786"/>
    <tile gid="786"/>
    <tile gid="786"/>
    <tile gid="786"/>
    <tile gid="786"/>
    <tile gid="786"/>
    <tile gid="387"/>
    <tile gid="786"/>
    <tile gid="786"/>
    <tile gid="786"/>
    <tile gid="786"/>
    <tile gid="387"/>
    <tile gid="786"/>
    <tile gid="786"/>
    <tile gid="786"/>
    <tile gid="786"/>
    <tile gid="786"/>
    <tile gid="786"/>
    <tile gid="786"/>
    <tile gid="786"/>
    <tile gid="786"/>
    <tile gid="786"/>
    <tile gid="786"/>
    <tile gid="786"/>
    <tile gid="786"/>
    <tile gid="786"/>
    <tile gid="786"/>
    <tile gid="786"/>
    <tile gid="786"/>
    <tile gid="786"/>
    <tile gid="786"/>
    <tile gid="786"/>
    <tile gid="786"/>
    <tile gid="786"/>
    <tile gid="786"/>
    <tile gid="786"/>
    <tile gid="786"/>
    <tile gid="786"/>
    <tile gid="786"/>
    <tile gid="786"/>
    <tile gid="786"/>
    <tile gid="786"/>
    <tile gid="786"/>
    <tile gid="786"/>
    <tile gid="786"/>
    <tile gid="786"/>
    <tile gid="387"/>
    <tile gid="786"/>
    <tile gid="786"/>
    <tile gid="786"/>
    <tile gid="786"/>
    <tile gid="387"/>
    <tile gid="786"/>
    <tile gid="786"/>
    <tile gid="786"/>
    <tile gid="786"/>
    <tile gid="786"/>
    <tile gid="786"/>
    <tile gid="786"/>
    <tile gid="786"/>
    <tile gid="786"/>
    <tile gid="786"/>
    <tile gid="786"/>
    <tile gid="786"/>
    <tile gid="786"/>
    <tile gid="786"/>
    <tile gid="786"/>
    <tile gid="786"/>
    <tile gid="786"/>
    <tile gid="786"/>
    <tile gid="786"/>
    <tile gid="786"/>
    <tile gid="786"/>
    <tile gid="786"/>
    <tile gid="786"/>
    <tile gid="786"/>
    <tile gid="786"/>
    <tile gid="786"/>
    <tile gid="786"/>
    <tile gid="786"/>
    <tile gid="786"/>
    <tile gid="786"/>
    <tile gid="786"/>
    <tile gid="786"/>
    <tile gid="786"/>
    <tile gid="786"/>
    <tile gid="387"/>
    <tile gid="786"/>
    <tile gid="786"/>
    <tile gid="786"/>
    <tile gid="786"/>
    <tile gid="387"/>
    <tile gid="786"/>
    <tile gid="786"/>
    <tile gid="786"/>
    <tile gid="786"/>
    <tile gid="786"/>
    <tile gid="786"/>
    <tile gid="786"/>
    <tile gid="786"/>
    <tile gid="786"/>
    <tile gid="786"/>
    <tile gid="786"/>
    <tile gid="786"/>
    <tile gid="786"/>
    <tile gid="786"/>
    <tile gid="786"/>
    <tile gid="786"/>
    <tile gid="786"/>
    <tile gid="786"/>
    <tile gid="786"/>
    <tile gid="786"/>
    <tile gid="786"/>
    <tile gid="786"/>
    <tile gid="786"/>
    <tile gid="786"/>
    <tile gid="786"/>
    <tile gid="786"/>
    <tile gid="786"/>
    <tile gid="786"/>
    <tile gid="786"/>
    <tile gid="786"/>
    <tile gid="786"/>
    <tile gid="786"/>
    <tile gid="786"/>
    <tile gid="786"/>
    <tile gid="387"/>
    <tile gid="786"/>
    <tile gid="786"/>
    <tile gid="786"/>
    <tile gid="786"/>
    <tile gid="387"/>
    <tile gid="786"/>
    <tile gid="786"/>
    <tile gid="786"/>
    <tile gid="786"/>
    <tile gid="786"/>
    <tile gid="786"/>
    <tile gid="786"/>
    <tile gid="786"/>
    <tile gid="786"/>
    <tile gid="786"/>
    <tile gid="786"/>
    <tile gid="786"/>
    <tile gid="786"/>
    <tile gid="786"/>
    <tile gid="786"/>
    <tile gid="786"/>
    <tile gid="786"/>
    <tile gid="786"/>
    <tile gid="786"/>
    <tile gid="786"/>
    <tile gid="786"/>
    <tile gid="786"/>
    <tile gid="786"/>
    <tile gid="786"/>
    <tile gid="786"/>
    <tile gid="786"/>
    <tile gid="786"/>
    <tile gid="786"/>
    <tile gid="786"/>
    <tile gid="786"/>
    <tile gid="786"/>
    <tile gid="786"/>
    <tile gid="786"/>
    <tile gid="786"/>
    <tile gid="387"/>
    <tile gid="786"/>
    <tile gid="786"/>
    <tile gid="786"/>
    <tile gid="786"/>
    <tile gid="387"/>
    <tile gid="786"/>
    <tile gid="786"/>
    <tile gid="786"/>
    <tile gid="786"/>
    <tile gid="786"/>
    <tile gid="786"/>
    <tile gid="786"/>
    <tile gid="786"/>
    <tile gid="786"/>
    <tile gid="786"/>
    <tile gid="786"/>
    <tile gid="786"/>
    <tile gid="786"/>
    <tile gid="786"/>
    <tile gid="786"/>
    <tile gid="786"/>
    <tile gid="786"/>
    <tile gid="786"/>
    <tile gid="786"/>
    <tile gid="786"/>
    <tile gid="786"/>
    <tile gid="786"/>
    <tile gid="786"/>
    <tile gid="786"/>
    <tile gid="786"/>
    <tile gid="786"/>
    <tile gid="786"/>
    <tile gid="786"/>
    <tile gid="786"/>
    <tile gid="786"/>
    <tile gid="786"/>
    <tile gid="786"/>
    <tile gid="786"/>
    <tile gid="786"/>
    <tile gid="387"/>
    <tile gid="786"/>
    <tile gid="786"/>
    <tile gid="786"/>
    <tile gid="786"/>
    <tile gid="387"/>
    <tile gid="786"/>
    <tile gid="786"/>
    <tile gid="786"/>
    <tile gid="786"/>
    <tile gid="786"/>
    <tile gid="786"/>
    <tile gid="786"/>
    <tile gid="786"/>
    <tile gid="786"/>
    <tile gid="786"/>
    <tile gid="786"/>
    <tile gid="786"/>
    <tile gid="786"/>
    <tile gid="786"/>
    <tile gid="786"/>
    <tile gid="786"/>
    <tile gid="786"/>
    <tile gid="786"/>
    <tile gid="786"/>
    <tile gid="786"/>
    <tile gid="786"/>
    <tile gid="786"/>
    <tile gid="786"/>
    <tile gid="786"/>
    <tile gid="786"/>
    <tile gid="786"/>
    <tile gid="786"/>
    <tile gid="786"/>
    <tile gid="786"/>
    <tile gid="786"/>
    <tile gid="786"/>
    <tile gid="786"/>
    <tile gid="786"/>
    <tile gid="786"/>
    <tile gid="387"/>
    <tile gid="786"/>
    <tile gid="786"/>
    <tile gid="786"/>
    <tile gid="786"/>
    <tile gid="387"/>
    <tile gid="786"/>
    <tile gid="786"/>
    <tile gid="786"/>
    <tile gid="786"/>
    <tile gid="786"/>
    <tile gid="786"/>
    <tile gid="786"/>
    <tile gid="786"/>
    <tile gid="786"/>
    <tile gid="786"/>
    <tile gid="786"/>
    <tile gid="786"/>
    <tile gid="786"/>
    <tile gid="786"/>
    <tile gid="786"/>
    <tile gid="786"/>
    <tile gid="786"/>
    <tile gid="786"/>
    <tile gid="786"/>
    <tile gid="786"/>
    <tile gid="786"/>
    <tile gid="786"/>
    <tile gid="786"/>
    <tile gid="786"/>
    <tile gid="786"/>
    <tile gid="786"/>
    <tile gid="786"/>
    <tile gid="786"/>
    <tile gid="786"/>
    <tile gid="786"/>
    <tile gid="786"/>
    <tile gid="786"/>
    <tile gid="786"/>
    <tile gid="786"/>
    <tile gid="387"/>
    <tile gid="786"/>
    <tile gid="786"/>
    <tile gid="786"/>
    <tile gid="786"/>
    <tile gid="387"/>
    <tile gid="786"/>
    <tile gid="786"/>
    <tile gid="786"/>
    <tile gid="786"/>
    <tile gid="786"/>
    <tile gid="786"/>
    <tile gid="786"/>
    <tile gid="786"/>
    <tile gid="786"/>
    <tile gid="786"/>
    <tile gid="786"/>
    <tile gid="786"/>
    <tile gid="786"/>
    <tile gid="786"/>
    <tile gid="786"/>
    <tile gid="786"/>
    <tile gid="786"/>
    <tile gid="786"/>
    <tile gid="786"/>
    <tile gid="786"/>
    <tile gid="786"/>
    <tile gid="786"/>
    <tile gid="786"/>
    <tile gid="786"/>
    <tile gid="786"/>
    <tile gid="786"/>
    <tile gid="786"/>
    <tile gid="786"/>
    <tile gid="786"/>
    <tile gid="786"/>
    <tile gid="786"/>
    <tile gid="786"/>
    <tile gid="786"/>
    <tile gid="786"/>
    <tile gid="387"/>
    <tile gid="786"/>
    <tile gid="786"/>
    <tile gid="786"/>
    <tile gid="786"/>
    <tile gid="387"/>
    <tile gid="786"/>
    <tile gid="786"/>
    <tile gid="786"/>
    <tile gid="786"/>
    <tile gid="786"/>
    <tile gid="786"/>
    <tile gid="786"/>
    <tile gid="786"/>
    <tile gid="786"/>
    <tile gid="786"/>
    <tile gid="786"/>
    <tile gid="786"/>
    <tile gid="786"/>
    <tile gid="786"/>
    <tile gid="786"/>
    <tile gid="786"/>
    <tile gid="786"/>
    <tile gid="786"/>
    <tile gid="786"/>
    <tile gid="786"/>
    <tile gid="786"/>
    <tile gid="786"/>
    <tile gid="786"/>
    <tile gid="786"/>
    <tile gid="786"/>
    <tile gid="786"/>
    <tile gid="786"/>
    <tile gid="786"/>
    <tile gid="786"/>
    <tile gid="786"/>
    <tile gid="786"/>
    <tile gid="786"/>
    <tile gid="786"/>
    <tile gid="786"/>
    <tile gid="387"/>
    <tile gid="786"/>
    <tile gid="786"/>
    <tile gid="786"/>
    <tile gid="786"/>
    <tile gid="387"/>
    <tile gid="786"/>
    <tile gid="786"/>
    <tile gid="786"/>
    <tile gid="786"/>
    <tile gid="786"/>
    <tile gid="786"/>
    <tile gid="786"/>
    <tile gid="786"/>
    <tile gid="786"/>
    <tile gid="786"/>
    <tile gid="786"/>
    <tile gid="786"/>
    <tile gid="786"/>
    <tile gid="786"/>
    <tile gid="786"/>
    <tile gid="786"/>
    <tile gid="786"/>
    <tile gid="786"/>
    <tile gid="786"/>
    <tile gid="786"/>
    <tile gid="786"/>
    <tile gid="786"/>
    <tile gid="786"/>
    <tile gid="786"/>
    <tile gid="786"/>
    <tile gid="786"/>
    <tile gid="786"/>
    <tile gid="786"/>
    <tile gid="786"/>
    <tile gid="786"/>
    <tile gid="786"/>
    <tile gid="786"/>
    <tile gid="786"/>
    <tile gid="786"/>
    <tile gid="387"/>
    <tile gid="786"/>
    <tile gid="786"/>
    <tile gid="786"/>
    <tile gid="786"/>
    <tile gid="387"/>
    <tile gid="786"/>
    <tile gid="786"/>
    <tile gid="786"/>
    <tile gid="786"/>
    <tile gid="786"/>
    <tile gid="786"/>
    <tile gid="786"/>
    <tile gid="786"/>
    <tile gid="786"/>
    <tile gid="786"/>
    <tile gid="786"/>
    <tile gid="786"/>
    <tile gid="786"/>
    <tile gid="786"/>
    <tile gid="786"/>
    <tile gid="786"/>
    <tile gid="786"/>
    <tile gid="786"/>
    <tile gid="786"/>
    <tile gid="786"/>
    <tile gid="786"/>
    <tile gid="786"/>
    <tile gid="786"/>
    <tile gid="786"/>
    <tile gid="786"/>
    <tile gid="786"/>
    <tile gid="786"/>
    <tile gid="786"/>
    <tile gid="786"/>
    <tile gid="786"/>
    <tile gid="786"/>
    <tile gid="786"/>
    <tile gid="786"/>
    <tile gid="786"/>
    <tile gid="387"/>
    <tile gid="786"/>
    <tile gid="786"/>
    <tile gid="786"/>
    <tile gid="786"/>
    <tile gid="387"/>
    <tile gid="786"/>
    <tile gid="786"/>
    <tile gid="786"/>
    <tile gid="786"/>
    <tile gid="786"/>
    <tile gid="786"/>
    <tile gid="786"/>
    <tile gid="786"/>
    <tile gid="786"/>
    <tile gid="786"/>
    <tile gid="786"/>
    <tile gid="786"/>
    <tile gid="786"/>
    <tile gid="786"/>
    <tile gid="786"/>
    <tile gid="786"/>
    <tile gid="786"/>
    <tile gid="786"/>
    <tile gid="786"/>
    <tile gid="786"/>
    <tile gid="786"/>
    <tile gid="786"/>
    <tile gid="786"/>
    <tile gid="786"/>
    <tile gid="786"/>
    <tile gid="786"/>
    <tile gid="786"/>
    <tile gid="786"/>
    <tile gid="786"/>
    <tile gid="786"/>
    <tile gid="786"/>
    <tile gid="786"/>
    <tile gid="786"/>
    <tile gid="786"/>
    <tile gid="387"/>
    <tile gid="786"/>
    <tile gid="786"/>
    <tile gid="786"/>
    <tile gid="786"/>
    <tile gid="387"/>
    <tile gid="387"/>
    <tile gid="387"/>
    <tile gid="387"/>
    <tile gid="387"/>
    <tile gid="387"/>
    <tile gid="387"/>
    <tile gid="387"/>
    <tile gid="387"/>
    <tile gid="387"/>
    <tile gid="387"/>
    <tile gid="387"/>
    <tile gid="387"/>
    <tile gid="387"/>
    <tile gid="387"/>
    <tile gid="387"/>
    <tile gid="387"/>
    <tile gid="387"/>
    <tile gid="387"/>
    <tile gid="387"/>
    <tile gid="387"/>
    <tile gid="387"/>
    <tile gid="387"/>
    <tile gid="387"/>
    <tile gid="387"/>
    <tile gid="387"/>
    <tile gid="387"/>
    <tile gid="387"/>
    <tile gid="387"/>
    <tile gid="387"/>
    <tile gid="387"/>
    <tile gid="387"/>
    <tile gid="387"/>
    <tile gid="387"/>
    <tile gid="387"/>
    <tile gid="387"/>
    <tile gid="786"/>
    <tile gid="786"/>
    <tile gid="786"/>
    <tile gid="786"/>
    <tile gid="786"/>
    <tile gid="786"/>
    <tile gid="786"/>
    <tile gid="786"/>
    <tile gid="786"/>
    <tile gid="786"/>
    <tile gid="786"/>
    <tile gid="786"/>
    <tile gid="786"/>
    <tile gid="786"/>
    <tile gid="786"/>
    <tile gid="786"/>
    <tile gid="786"/>
    <tile gid="786"/>
    <tile gid="786"/>
    <tile gid="786"/>
    <tile gid="786"/>
    <tile gid="786"/>
    <tile gid="786"/>
    <tile gid="786"/>
    <tile gid="786"/>
    <tile gid="786"/>
    <tile gid="786"/>
    <tile gid="786"/>
    <tile gid="786"/>
    <tile gid="786"/>
    <tile gid="786"/>
    <tile gid="786"/>
    <tile gid="786"/>
    <tile gid="786"/>
    <tile gid="786"/>
    <tile gid="786"/>
    <tile gid="786"/>
    <tile gid="786"/>
    <tile gid="786"/>
    <tile gid="786"/>
    <tile gid="786"/>
    <tile gid="786"/>
    <tile gid="786"/>
    <tile gid="786"/>
    <tile gid="786"/>
    <tile gid="786"/>
    <tile gid="786"/>
    <tile gid="786"/>
    <tile gid="786"/>
    <tile gid="786"/>
    <tile gid="786"/>
    <tile gid="786"/>
    <tile gid="786"/>
    <tile gid="786"/>
    <tile gid="786"/>
    <tile gid="786"/>
    <tile gid="786"/>
    <tile gid="786"/>
    <tile gid="786"/>
    <tile gid="786"/>
    <tile gid="786"/>
    <tile gid="786"/>
    <tile gid="786"/>
    <tile gid="786"/>
    <tile gid="786"/>
    <tile gid="786"/>
    <tile gid="786"/>
    <tile gid="786"/>
    <tile gid="786"/>
    <tile gid="786"/>
    <tile gid="786"/>
    <tile gid="786"/>
    <tile gid="786"/>
    <tile gid="786"/>
    <tile gid="786"/>
    <tile gid="786"/>
    <tile gid="786"/>
    <tile gid="786"/>
    <tile gid="786"/>
    <tile gid="786"/>
    <tile gid="786"/>
    <tile gid="786"/>
   </data>
  </layer>
 </group>
  <group id="10" name="rooms">
  <group id="18" name="room">
   <objectgroup id="24" name="room_trigger">
    <object id="108" x="346" y="31.5" width="32.5" height="142.5"/>
   </objectgroup>
   <objectgroup id="23" name="wall">
    <object id="105" x="304" y="64" width="16" height="16"/>
    <object id="106" x="304" y="80" width="16" height="16"/>
    <object id="107" x="304" y="96" width="16" height="16"/>
    <object id="110" x="528" y="48" width="16" height="16"/>
    <object id="111" x="544" y="48" width="16" height="16"/>
    <object id="112" x="560" y="48" width="16" height="16"/>
    <object id="113" x="576" y="48" width="16" height="16"/>
   </objectgroup>
   <objectgroup id="19" name="spawner">
    <object id="83" x="657" y="58.5">
     <properties>
      <property name="enemy" type="int" value="0"/>
      <property name="type" type="int" value="1"/>
     </properties>
    </object>
    <object id="86" x="704" y="70.5">
     <properties>
      <property name="enemy" type="int" value="0"/>
      <property name="type" type="int" value="1"/>
     </properties>
    </object>
    <object id="87" x="747.5" y="101.5">
     <properties>
      <property name="enemy" type="int" value="0"/>
      <property name="type" type="int" value="1"/>
     </properties>
    </object>
    <object id="88" x="763.5" y="52">
     <properties>
      <property name="enemy" type="int" value="0"/>
      <property name="type" type="int" value="1"/>
     </properties>
    </object>
    <object id="89" x="764.5" y="155">
     <properties>
      <property name="enemy" type="int" value="0"/>
      <property name="type" type="int" value="1"/>
     </properties>
    </object>
    <object id="91" x="717" y="154.5">
     <properties>
      <property name="enemy" type="int" value="0"/>
      <property name="type" type="int" value="1"/>
     </properties>
    </object>
    <object id="92" x="684.5" y="116">
     <properties>
      <property name="enemy" type="int" value="0"/>
      <property name="type" type="int" value="1"/>
     </properties>
    </object>
    <object id="93" x="657.5" y="154">
     <properties>
      <property name="enemy" type="int" value="0"/>
      <property name="type" type="int" value="1"/>
     </properties>
    </object>
    <object id="94" x="604.5" y="92.5">
     <properties>
      <property name="enemy" type="int" value="0"/>
      <property name="type" type="int" value="1"/>
     </properties>
    </object>
    <object id="95" x="602.5" y="149.5">
     <properties>
      <property name="enemy" type="int" value="0"/>
      <property name="type" type="int" value="1"/>
     </properties>
    </object>
    <object id="96" x="542" y="78.5">
     <properties>
      <property name="enemy" type="int" value="0"/>
      <property name="type" type="int" value="1"/>
     </properties>
    </object>
    <object id="97" x="529" y="154.5">
     <properties>
      <property name="enemy" type="int" value="0"/>
      <property name="type" type="int" value="1"/>
     </properties>
    </object>
    <object id="98" x="539" y="119.5">
     <properties>
      <property name="enemy" type="int" value="0"/>
      <property name="type" type="int" value="1"/>
     </properties>
    </object>
    <object id="99" x="468.5" y="63">
     <properties>
      <property name="enemy" type="int" value="0"/>
      <property name="type" type="int" value="1"/>
     </properties>
    </object>
    <object id="100" x="490.5" y="107">
     <properties>
      <property name="enemy" type="int" value="0"/>
      <property name="type" type="int" value="1"/>
     </properties>
    </object>
    <object id="101" x="464.5" y="149.5">
     <properties>
      <property name="enemy" type="int" value="0"/>
      <property name="type" type="int" value="1"/>
     </properties>
    </object>
    <object id="102" x="408" y="101">
     <properties>
      <property name="enemy" type="int" value="0"/>
      <property name="type" type="int" value="1"/>
     </properties>
    </object>
    <object id="103" x="431.5" y="135.5">
     <properties>
      <property name="enemy" type="int" value="0"/>
      <property name="type" type="int" value="1"/>
     </properties>
    </object>
    <object id="104" x="438" y="81">
     <properties>
      <property name="enemy" type="int" value="0"/>
      <property name="type" type="int" value="1"/>
     </properties>
    </object>
   </objectgroup>
  </group>
  <group id="41" name="room">
   <objectgroup id="42" name="room_trigger">
    <object id="82" x="400" y="224.5" width="30" height="140.5"/>
   </objectgroup>
   <objectgroup id="43" name="wall">
    <object id="76" x="448" y="272" width="16" height="16"/>
    <object id="77" x="448" y="288" width="16" height="16"/>
    <object id="78" x="448" y="304" width="16" height="16"/>
    <object id="79" x="160" y="272" width="16" height="16"/>
    <object id="80" x="160" y="288" width="16" height="16"/>
    <object id="81" x="160" y="304" width="16" height="16"/>
   </objectgroup>
   <objectgroup id="44" name="spawner">
    <object id="61" x="231" y="244.5">
     <properties>
      <property name="enemy" type="int" value="0"/>
      <property name="type" type="int" value="1"/>
     </properties>
    </object>
    <object id="62" x="289.5" y="246.5">
     <properties>
      <property name="enemy" type="int" value="0"/>
      <property name="type" type="int" value="1"/>
     </properties>
    </object>
    <object id="63" x="351" y="246">
     <properties>
      <property name="enemy" type="int" value="0"/>
      <property name="type" type="int" value="1"/>
     </properties>
    </object>
    <object id="64" x="206" y="286">
     <properties>
      <property name="enemy" type="int" value="0"/>
      <property name="type" type="int" value="1"/>
     </properties>
    </object>
    <object id="69" x="254" y="296.5">
     <properties>
      <property name="enemy" type="int" value="0"/>
      <property name="type" type="int" value="1"/>
     </properties>
    </object>
    <object id="73" x="275.5" y="341">
     <properties>
      <property name="enemy" type="int" value="0"/>
      <property name="type" type="int" value="1"/>
     </properties>
    </object>
    <object id="75" x="362" y="340.5">
     <properties>
      <property name="enemy" type="int" value="0"/>
      <property name="type" type="int" value="1"/>
     </properties>
    </object>
    <object id="115" x="322" y="288">
     <properties>
      <property name="enemy" type="int" value="0"/>
      <property name="type" type="int" value="1"/>
     </properties>
    </object>
   </objectgroup>
  </group>
  <group id="37" name="room">
   <objectgroup id="38" name="room_trigger">
    <object id="60" x="573.5" y="313.5" width="213.5" height="21"/>
   </objectgroup>
   <objectgroup id="39" name="wall">
    <object id="51" x="736" y="352" width="16" height="16"/>
    <object id="52" x="752" y="352" width="16" height="16"/>
    <object id="53" x="768" y="352" width="16" height="16"/>
    <object id="54" x="560" y="304" width="16" height="16"/>
    <object id="58" x="560" y="288" width="16" height="16"/>
    <object id="59" x="560" y="272" width="16" height="16"/>
   </objectgroup>
   <objectgroup id="40" name="spawner">
    <object id="45" x="599.333" y="247.333">
     <properties>
      <property name="enemy" type="int" value="0"/>
      <property name="type" type="int" value="1"/>
     </properties>
    </object>
    <object id="46" x="668" y="244.667">
     <properties>
      <property name="enemy" type="int" value="0"/>
      <property name="type" type="int" value="1"/>
     </properties>
    </object>
    <object id="47" x="736.667" y="252">
     <properties>
      <property name="enemy" type="int" value="0"/>
      <property name="type" type="int" value="1"/>
     </properties>
    </object>
    <object id="48" x="605.333" y="328">
     <properties>
      <property name="enemy" type="int" value="0"/>
      <property name="type" type="int" value="1"/>
     </properties>
    </object>
    <object id="49" x="636" y="289.333">
     <properties>
      <property name="enemy" type="int" value="0"/>
      <property name="type" type="int" value="1"/>
     </properties>
    </object>
   </objectgroup>
  </group>
  <group id="33" name="room">
   <objectgroup id="34" name="room_trigger">
    <object id="50" x="512.667" y="426" width="28.6667" height="118"/>
   </objectgroup>
   <objectgroup id="35" name="wall">
    <object id="38" x="480" y="464" width="16" height="16"/>
    <object id="39" x="480" y="480" width="16" height="16"/>
    <object id="40" x="480" y="496" width="16" height="16"/>
    <object id="41" x="720" y="432" width="16" height="16"/>
    <object id="42" x="720" y="448" width="16" height="16"/>
    <object id="43" x="720" y="464" width="16" height="16"/>
    <object id="44" x="720" y="480" width="16" height="16"/>
   </objectgroup>
   <objectgroup id="36" name="spawner">
    <object id="31" x="687" y="449.5">
     <properties>
      <property name="enemy" type="int" value="0"/>
      <property name="type" type="int" value="1"/>
     </properties>
    </object>
    <object id="32" x="688" y="483.5">
     <properties>
      <property name="enemy" type="int" value="0"/>
      <property name="type" type="int" value="1"/>
     </properties>
    </object>
    <object id="33" x="688.5" y="524">
     <properties>
      <property name="enemy" type="int" value="0"/>
      <property name="type" type="int" value="1"/>
     </properties>
    </object>
    <object id="34" x="632.5" y="451.5">
     <properties>
      <property name="enemy" type="int" value="0"/>
      <property name="type" type="int" value="1"/>
     </properties>
    </object>
    <object id="36" x="584.5" y="526">
     <properties>
      <property name="enemy" type="int" value="0"/>
      <property name="type" type="int" value="1"/>
     </properties>
    </object>
    <object id="37" x="594" y="486">
     <properties>
      <property name="enemy" type="int" value="0"/>
      <property name="type" type="int" value="1"/>
     </properties>
    </object>
   </objectgroup>
  </group>
  <group id="29" name="room">
   <objectgroup id="30" name="room_trigger">
    <object id="29" x="15.5" y="509.5" width="257" height="34"/>
   </objectgroup>
   <objectgroup id="31" name="wall">
    <object id="21" x="96" y="560" width="16" height="16"/>
    <object id="22" x="112" y="560" width="16" height="16"/>
    <object id="24" x="128" y="560" width="16" height="16"/>
    <object id="25" x="144" y="560" width="16" height="16"/>
    <object id="26" x="272" y="496" width="16" height="16"/>
    <object id="27" x="272" y="480" width="16" height="16"/>
    <object id="28" x="272" y="464" width="16" height="16"/>
   </objectgroup>
   <objectgroup id="32" name="spawner">
    <object id="14" x="41" y="452.5">
     <properties>
      <property name="enemy" type="int" value="0"/>
      <property name="type" type="int" value="1"/>
     </properties>
    </object>
    <object id="16" x="39.3333" y="532">
     <properties>
      <property name="enemy" type="int" value="0"/>
      <property name="type" type="int" value="1"/>
     </properties>
    </object>
    <object id="17" x="166" y="458">
     <properties>
      <property name="enemy" type="int" value="0"/>
      <property name="type" type="int" value="1"/>
     </properties>
    </object>
    <object id="18" x="250.5" y="456.5">
     <properties>
      <property name="enemy" type="int" value="0"/>
      <property name="type" type="int" value="1"/>
     </properties>
    </object>
    <object id="19" x="236" y="534.5">
     <properties>
      <property name="enemy" type="int" value="0"/>
      <property name="type" type="int" value="1"/>
     </properties>
    </object>
    <object id="20" x="103" y="497">
     <properties>
      <property name="enemy" type="int" value="0"/>
      <property name="type" type="int" value="1"/>
     </properties>
    </object>
   </objectgroup>
  </group>
  <group id="25" name="room">
   <objectgroup id="26" name="room_trigger">
    <object id="13" x="514" y="609" width="28.5" height="157"/>
   </objectgroup>
   <objectgroup id="27" name="wall">
    <object id="8" x="272" y="672" width="16" height="16"/>
    <object id="9" x="272" y="704" width="16" height="16"/>
    <object id="10" x="272" y="688" width="16" height="16"/>
    <object id="11" x="560" y="704" width="16" height="16"/>
    <object id="12" x="560" y="720" width="16" height="16"/>
   </objectgroup>
   <objectgroup id="28" name="spawner">
    <object id="1" x="398.667" y="633.333">
     <properties>
      <property name="enemy" type="int" value="0"/>
      <property name="type" type="int" value="1"/>
     </properties>
    </object>
    <object id="2" x="398.667" y="737.333">
     <properties>
      <property name="enemy" type="int" value="0"/>
      <property name="type" type="int" value="1"/>
     </properties>
    </object>
    <object id="3" x="325.333" y="672">
     <properties>
      <property name="enemy" type="int" value="0"/>
      <property name="type" type="int" value="1"/>
     </properties>
    </object>
    <object id="4" x="536" y="637.333">
     <properties>
      <property name="enemy" type="int" value="0"/>
      <property name="type" type="int" value="1"/>
     </properties>
    </object>
    <object id="5" x="461.333" y="636">
     <properties>
      <property name="enemy" type="int" value="0"/>
      <property name="type" type="int" value="1"/>
     </properties>
    </object>
    <object id="6" x="421.333" y="680">
     <properties>
      <property name="enemy" type="int" value="0"/>
      <property name="type" type="int" value="1"/>
     </properties>
    </object>
   </objectgroup>
  </group>
 </group>
 <objectgroup id="4" name="spawner">
  <properties>
   <property name="type" type="int" value="0"/>
  </properties>
  <object id="1" x="84.2085" y="92.2305" width="48" height="48">
   <properties>
    <property name="type" type="int" value="1"/>
    <property name="enemy" type="int" value="1"/>
   </properties>
  </object>
  <object id="4" x="464.99" y="85.5932" width="48" height="48">
   <properties>
    <property name="type" type="int" value="1"/>
    <property name="enemy" type="int" value="2"/>
   </properties>
  </object>
  <object id="5" x="70.5932" y="330.198" width="48" height="48">
   <properties>
    <property name="type" type="int" value="1"/>
    <property name="enemy" type="int" value="1"/>
   </properties>
  </object>
  <object id="6" x="464.99" y="327.88" width="48" height="48">
   <properties>
    <property name="type" type="int" value="1"/>
    <property name="enemy" type="int" value="0"/>
   </properties>
  </object>
  <object id="7" x="293" y="224" width="48" height="48">
   <properties>
    <property name="type" type="int" value="0"/>
   </properties>
  </object>
 </objectgroup>
  <objectgroup id="10" name="door">
 </objectgroup>
</map>
