<?xml version="1.0" encoding="UTF-8"?>
<map version="1.10" tiledversion="1.10.0" orientation="orthogonal" renderorder="right-down" width="40" height="30" tilewidth="16" tileheight="16" infinite="0" nextlayerid="7" nextobjectid="8">
 <tileset firstgid="1" source="0x72_DungeonTilesetII_v1.4.tsx"/>
 <group id="6" name="render">
  <layer id="1" name="base" width="40" height="30">
   <data>
    <tile gid="130"/>
    <tile gid="130"/>
    <tile gid="130"/>
    <tile gid="130"/>
    <tile gid="130"/>
    <tile gid="130"/>
    <tile gid="130"/>
    <tile gid="130"/>
    <tile gid="130"/>
    <tile gid="130"/>
    <tile gid="130"/>
    <tile gid="130"/>
    <tile gid="130"/>
    <tile gid="130"/>
    <tile gid="130"/>
    <tile gid="130"/>
    <tile gid="130"/>
    <tile gid="130"/>
    <tile gid="130"/>
    <tile gid="130"/>
    <tile gid="130"/>
    <tile gid="130"/>
    <tile gid="130"/>
    <tile gid="130"/>
    <tile gid="130"/>
    <tile gid="130"/>
    <tile gid="130"/>
    <tile gid="130"/>
    <tile gid="130"/>
    <tile gid="130"/>
    <tile gid="130"/>
    <tile gid="130"/>
    <tile gid="130"/>
    <tile gid="130"/>
    <tile gid="130"/>
    <tile gid="130"/>
    <tile gid="130"/>
    <tile gid="130"/>
    <tile gid="130"/>
    <tile gid="130"/>
    <tile gid="130"/>
    <tile gid="130"/>
    <tile gid="130"/>
    <tile gid="130"/>
    <tile gid="130"/>
    <tile gid="130"/>
    <tile gid="130"/>
    <tile gid="130"/>
    <tile gid="130"/>
    <tile gid="130"/>
    <tile gid="130"/>
    <tile gid="130"/>
    <tile gid="130"/>
    <tile gid="130"/>
    <tile gid="130"/>
    <tile gid="130"/>
    <tile gid="130"/>
    <tile gid="130"/>
    <tile gid="130"/>
    <tile gid="130"/>
    <tile gid="130"/>
    <tile gid="130"/>
    <tile gid="130"/>
    <tile gid="130"/>
    <tile gid="130"/>
    <tile gid="130"/>
    <tile gid="130"/>
    <tile gid="130"/>
    <tile gid="130"/>
    <tile gid="130"/>
    <tile gid="130"/>
    <tile gid="130"/>
    <tile gid="130"/>
    <tile gid="130"/>
    <tile gid="130"/>
    <tile gid="130"/>
    <tile gid="130"/>
    <tile gid="130"/>
    <tile gid="130"/>
    <tile gid="163"/>
    <tile gid="130"/>
    <tile gid="130"/>
    <tile gid="130"/>
    <tile gid="130"/>
    <tile gid="130"/>
    <tile gid="130"/>
    <tile gid="130"/>
    <tile gid="130"/>
    <tile gid="130"/>
    <tile gid="130"/>
    <tile gid="130"/>
    <tile gid="130"/>
    <tile gid="130"/>
    <tile gid="130"/>
    <tile gid="130"/>
    <tile gid="130"/>
    <tile gid="130"/>
    <tile gid="130"/>
    <tile gid="130"/>
    <tile gid="130"/>
    <tile gid="130"/>
    <tile gid="130"/>
    <tile gid="130"/>
    <tile gid="162"/>
    <tile gid="130"/>
    <tile gid="130"/>
    <tile gid="130"/>
    <tile gid="130"/>
    <tile gid="130"/>
    <tile gid="130"/>
    <tile gid="130"/>
    <tile gid="130"/>
    <tile gid="130"/>
    <tile gid="130"/>
    <tile gid="130"/>
    <tile gid="130"/>
    <tile gid="130"/>
    <tile gid="130"/>
    <tile gid="163"/>
    <tile gid="163"/>
    <tile gid="130"/>
    <tile gid="130"/>
    <tile gid="130"/>
    <tile gid="130"/>
    <tile gid="130"/>
    <tile gid="130"/>
    <tile gid="130"/>
    <tile gid="130"/>
    <tile gid="130"/>
    <tile gid="130"/>
    <tile gid="130"/>
    <tile gid="130"/>
    <tile gid="130"/>
    <tile gid="130"/>
    <tile gid="130"/>
    <tile gid="130"/>
    <tile gid="130"/>
    <tile gid="130"/>
    <tile gid="131"/>
    <tile gid="162"/>
    <tile gid="130"/>
    <tile gid="130"/>
    <tile gid="162"/>
    <tile gid="162"/>
    <tile gid="162"/>
    <tile gid="130"/>
    <tile gid="162"/>
    <tile gid="162"/>
    <tile gid="130"/>
    <tile gid="130"/>
    <tile gid="130"/>
    <tile gid="130"/>
    <tile gid="130"/>
    <tile gid="130"/>
    <tile gid="130"/>
    <tile gid="130"/>
    <tile gid="130"/>
    <tile gid="130"/>
    <tile gid="130"/>
    <tile gid="130"/>
    <tile gid="130"/>
    <tile gid="130"/>
    <tile gid="130"/>
    <tile gid="130"/>
    <tile gid="130"/>
    <tile gid="130"/>
    <tile gid="130"/>
    <tile gid="130"/>
    <tile gid="130"/>
    <tile gid="130"/>
    <tile gid="130"/>
    <tile gid="130"/>
    <tile gid="130"/>
    <tile gid="131"/>
    <tile gid="131"/>
    <tile gid="131"/>
    <tile gid="131"/>
    <tile gid="162"/>
    <tile gid="162"/>
    <tile gid="130"/>
    <tile gid="130"/>
    <tile gid="130"/>
    <tile gid="130"/>
    <tile gid="130"/>
    <tile gid="163"/>
    <tile gid="130"/>
    <tile gid="131"/>
    <tile gid="130"/>
    <tile gid="130"/>
    <tile gid="130"/>
    <tile gid="130"/>
    <tile gid="130"/>
    <tile gid="130"/>
    <tile gid="130"/>
    <tile gid="130"/>
    <tile gid="130"/>
    <tile gid="130"/>
    <tile gid="163"/>
    <tile gid="130"/>
    <tile gid="130"/>
    <tile gid="130"/>
    <tile gid="130"/>
    <tile gid="130"/>
    <tile gid="130"/>
    <tile gid="130"/>
    <tile gid="130"/>
    <tile gid="130"/>
    <tile gid="130"/>
    <tile gid="130"/>
    <tile gid="130"/>
    <tile gid="162"/>
    <tile gid="162"/>
    <tile gid="162"/>
    <tile gid="130"/>
    <tile gid="130"/>
    <tile gid="162"/>
    <tile gid="130"/>
    <tile gid="130"/>
    <tile gid="130"/>
    <tile gid="130"/>
    <tile gid="130"/>
    <tile gid="130"/>
    <tile gid="130"/>
    <tile gid="130"/>
    <tile gid="130"/>
    <tile gid="130"/>
    <tile gid="130"/>
    <tile gid="130"/>
    <tile gid="130"/>
    <tile gid="130"/>
    <tile gid="130"/>
    <tile gid="130"/>
    <tile gid="195"/>
    <tile gid="131"/>
    <tile gid="130"/>
    <tile gid="130"/>
    <tile gid="130"/>
    <tile gid="130"/>
    <tile gid="130"/>
    <tile gid="130"/>
    <tile gid="131"/>
    <tile gid="130"/>
    <tile gid="130"/>
    <tile gid="131"/>
    <tile gid="130"/>
    <tile gid="131"/>
    <tile gid="162"/>
    <tile gid="130"/>
    <tile gid="130"/>
    <tile gid="130"/>
    <tile gid="130"/>
    <tile gid="130"/>
    <tile gid="130"/>
    <tile gid="130"/>
    <tile gid="130"/>
    <tile gid="130"/>
    <tile gid="131"/>
    <tile gid="130"/>
    <tile gid="195"/>
    <tile gid="130"/>
    <tile gid="130"/>
    <tile gid="130"/>
    <tile gid="130"/>
    <tile gid="130"/>
    <tile gid="130"/>
    <tile gid="130"/>
    <tile gid="130"/>
    <tile gid="130"/>
    <tile gid="162"/>
    <tile gid="130"/>
    <tile gid="163"/>
    <tile gid="130"/>
    <tile gid="131"/>
    <tile gid="131"/>
    <tile gid="130"/>
    <tile gid="162"/>
    <tile gid="163"/>
    <tile gid="130"/>
    <tile gid="130"/>
    <tile gid="130"/>
    <tile gid="131"/>
    <tile gid="130"/>
    <tile gid="131"/>
    <tile gid="130"/>
    <tile gid="130"/>
    <tile gid="162"/>
    <tile gid="162"/>
    <tile gid="130"/>
    <tile gid="131"/>
    <tile gid="131"/>
    <tile gid="130"/>
    <tile gid="130"/>
    <tile gid="163"/>
    <tile gid="130"/>
    <tile gid="130"/>
    <tile gid="130"/>
    <tile gid="130"/>
    <tile gid="130"/>
    <tile gid="130"/>
    <tile gid="130"/>
    <tile gid="130"/>
    <tile gid="130"/>
    <tile gid="130"/>
    <tile gid="130"/>
    <tile gid="130"/>
    <tile gid="163"/>
    <tile gid="130"/>
    <tile gid="130"/>
    <tile gid="131"/>
    <tile gid="130"/>
    <tile gid="163"/>
    <tile gid="130"/>
    <tile gid="163"/>
    <tile gid="131"/>
    <tile gid="130"/>
    <tile gid="130"/>
    <tile gid="130"/>
    <tile gid="130"/>
    <tile gid="130"/>
    <tile gid="130"/>
    <tile gid="130"/>
    <tile gid="130"/>
    <tile gid="130"/>
    <tile gid="130"/>
    <tile gid="130"/>
    <tile gid="130"/>
    <tile gid="130"/>
    <tile gid="130"/>
    <tile gid="130"/>
    <tile gid="130"/>
    <tile gid="163"/>
    <tile gid="163"/>
    <tile gid="130"/>
    <tile gid="131"/>
    <tile gid="162"/>
    <tile gid="130"/>
    <tile gid="130"/>
    <tile gid="130"/>
    <tile gid="130"/>
    <tile gid="130"/>
    <tile gid="130"/>
    <tile gid="130"/>
    <tile gid="130"/>
    <tile gid="130"/>
    <tile gid="130"/>
    <tile gid="130"/>
    <tile gid="163"/>
    <tile gid="130"/>
    <tile gid="130"/>
    <tile gid="130"/>
    <tile gid="130"/>
    <tile gid="130"/>
    <tile gid="130"/>
    <tile gid="130"/>
    <tile gid="130"/>
    <tile gid="130"/>
    <tile gid="130"/>
    <tile gid="130"/>
    <tile gid="130"/>
    <tile gid="130"/>
    <tile gid="130"/>
    <tile gid="130"/>
    <tile gid="130"/>
    <tile gid="130"/>
    <tile gid="130"/>
    <tile gid="130"/>
    <tile gid="130"/>
    <tile gid="130"/>
    <tile gid="130"/>
    <tile gid="130"/>
    <tile gid="130"/>
    <tile gid="163"/>
    <tile gid="130"/>
    <tile gid="130"/>
    <tile gid="130"/>
    <tile gid="130"/>
    <tile gid="130"/>
    <tile gid="130"/>
    <tile gid="130"/>
    <tile gid="130"/>
    <tile gid="130"/>
    <tile gid="163"/>
    <tile gid="163"/>
    <tile gid="163"/>
    <tile gid="163"/>
    <tile gid="195"/>
    <tile gid="163"/>
    <tile gid="130"/>
    <tile gid="130"/>
    <tile gid="130"/>
    <tile gid="130"/>
    <tile gid="130"/>
    <tile gid="130"/>
    <tile gid="130"/>
    <tile gid="130"/>
    <tile gid="130"/>
    <tile gid="130"/>
    <tile gid="130"/>
    <tile gid="130"/>
    <tile gid="130"/>
    <tile gid="163"/>
    <tile gid="130"/>
    <tile gid="130"/>
    <tile gid="130"/>
    <tile gid="130"/>
    <tile gid="130"/>
    <tile gid="130"/>
    <tile gid="195"/>
    <tile gid="130"/>
    <tile gid="131"/>
    <tile gid="130"/>
    <tile gid="130"/>
    <tile gid="130"/>
    <tile gid="130"/>
    <tile gid="130"/>
    <tile gid="162"/>
    <tile gid="130"/>
    <tile gid="130"/>
    <tile gid="130"/>
    <tile gid="130"/>
    <tile gid="130"/>
    <tile gid="163"/>
    <tile gid="163"/>
    <tile gid="163"/>
    <tile gid="130"/>
    <tile gid="130"/>
    <tile gid="130"/>
    <tile gid="130"/>
    <tile gid="130"/>
    <tile gid="163"/>
    <tile gid="163"/>
    <tile gid="195"/>
    <tile gid="130"/>
    <tile gid="130"/>
    <tile gid="130"/>
    <tile gid="130"/>
    <tile gid="130"/>
    <tile gid="130"/>
    <tile gid="130"/>
    <tile gid="130"/>
    <tile gid="163"/>
    <tile gid="163"/>
    <tile gid="163"/>
    <tile gid="163"/>
    <tile gid="130"/>
    <tile gid="130"/>
    <tile gid="163"/>
    <tile gid="195"/>
    <tile gid="130"/>
    <tile gid="130"/>
    <tile gid="131"/>
    <tile gid="130"/>
    <tile gid="130"/>
    <tile gid="130"/>
    <tile gid="130"/>
    <tile gid="162"/>
    <tile gid="130"/>
    <tile gid="163"/>
    <tile gid="130"/>
    <tile gid="130"/>
    <tile gid="130"/>
    <tile gid="130"/>
    <tile gid="162"/>
    <tile gid="130"/>
    <tile gid="130"/>
    <tile gid="130"/>
    <tile gid="163"/>
    <tile gid="163"/>
    <tile gid="130"/>
    <tile gid="130"/>
    <tile gid="163"/>
    <tile gid="195"/>
    <tile gid="130"/>
    <tile gid="130"/>
    <tile gid="130"/>
    <tile gid="162"/>
    <tile gid="130"/>
    <tile gid="130"/>
    <tile gid="163"/>
    <tile gid="130"/>
    <tile gid="163"/>
    <tile gid="130"/>
    <tile gid="130"/>
    <tile gid="130"/>
    <tile gid="130"/>
    <tile gid="163"/>
    <tile gid="163"/>
    <tile gid="163"/>
    <tile gid="130"/>
    <tile gid="130"/>
    <tile gid="130"/>
    <tile gid="131"/>
    <tile gid="130"/>
    <tile gid="130"/>
    <tile gid="130"/>
    <tile gid="130"/>
    <tile gid="162"/>
    <tile gid="130"/>
    <tile gid="130"/>
    <tile gid="130"/>
    <tile gid="130"/>
    <tile gid="130"/>
    <tile gid="130"/>
    <tile gid="130"/>
    <tile gid="163"/>
    <tile gid="163"/>
    <tile gid="130"/>
    <tile gid="130"/>
    <tile gid="130"/>
    <tile gid="130"/>
    <tile gid="163"/>
    <tile gid="131"/>
    <tile gid="130"/>
    <tile gid="130"/>
    <tile gid="163"/>
    <tile gid="162"/>
    <tile gid="130"/>
    <tile gid="130"/>
    <tile gid="163"/>
    <tile gid="130"/>
    <tile gid="130"/>
    <tile gid="163"/>
    <tile gid="130"/>
    <tile gid="130"/>
    <tile gid="130"/>
    <tile gid="130"/>
    <tile gid="195"/>
    <tile gid="130"/>
    <tile gid="130"/>
    <tile gid="163"/>
    <tile gid="130"/>
    <tile gid="130"/>
    <tile gid="130"/>
    <tile gid="162"/>
    <tile gid="130"/>
    <tile gid="130"/>
    <tile gid="130"/>
    <tile gid="130"/>
    <tile gid="130"/>
    <tile gid="130"/>
    <tile gid="130"/>
    <tile gid="130"/>
    <tile gid="130"/>
    <tile gid="162"/>
    <tile gid="130"/>
    <tile gid="130"/>
    <tile gid="130"/>
    <tile gid="130"/>
    <tile gid="130"/>
    <tile gid="130"/>
    <tile gid="163"/>
    <tile gid="131"/>
    <tile gid="130"/>
    <tile gid="130"/>
    <tile gid="163"/>
    <tile gid="130"/>
    <tile gid="130"/>
    <tile gid="130"/>
    <tile gid="163"/>
    <tile gid="130"/>
    <tile gid="130"/>
    <tile gid="130"/>
    <tile gid="130"/>
    <tile gid="130"/>
    <tile gid="130"/>
    <tile gid="130"/>
    <tile gid="163"/>
    <tile gid="130"/>
    <tile gid="130"/>
    <tile gid="130"/>
    <tile gid="130"/>
    <tile gid="130"/>
    <tile gid="162"/>
    <tile gid="130"/>
    <tile gid="130"/>
    <tile gid="163"/>
    <tile gid="130"/>
    <tile gid="162"/>
    <tile gid="130"/>
    <tile gid="130"/>
    <tile gid="130"/>
    <tile gid="130"/>
    <tile gid="130"/>
    <tile gid="130"/>
    <tile gid="130"/>
    <tile gid="130"/>
    <tile gid="130"/>
    <tile gid="130"/>
    <tile gid="130"/>
    <tile gid="130"/>
    <tile gid="130"/>
    <tile gid="131"/>
    <tile gid="130"/>
    <tile gid="130"/>
    <tile gid="163"/>
    <tile gid="130"/>
    <tile gid="130"/>
    <tile gid="130"/>
    <tile gid="130"/>
    <tile gid="130"/>
    <tile gid="163"/>
    <tile gid="130"/>
    <tile gid="130"/>
    <tile gid="163"/>
    <tile gid="130"/>
    <tile gid="195"/>
    <tile gid="162"/>
    <tile gid="130"/>
    <tile gid="130"/>
    <tile gid="130"/>
    <tile gid="130"/>
    <tile gid="162"/>
    <tile gid="130"/>
    <tile gid="130"/>
    <tile gid="130"/>
    <tile gid="131"/>
    <tile gid="130"/>
    <tile gid="130"/>
    <tile gid="162"/>
    <tile gid="130"/>
    <tile gid="130"/>
    <tile gid="130"/>
    <tile gid="162"/>
    <tile gid="130"/>
    <tile gid="130"/>
    <tile gid="130"/>
    <tile gid="130"/>
    <tile gid="130"/>
    <tile gid="130"/>
    <tile gid="130"/>
    <tile gid="130"/>
    <tile gid="130"/>
    <tile gid="131"/>
    <tile gid="163"/>
    <tile gid="130"/>
    <tile gid="130"/>
    <tile gid="130"/>
    <tile gid="163"/>
    <tile gid="130"/>
    <tile gid="130"/>
    <tile gid="163"/>
    <tile gid="130"/>
    <tile gid="130"/>
    <tile gid="130"/>
    <tile gid="130"/>
    <tile gid="130"/>
    <tile gid="130"/>
    <tile gid="130"/>
    <tile gid="130"/>
    <tile gid="130"/>
    <tile gid="130"/>
    <tile gid="162"/>
    <tile gid="130"/>
    <tile gid="130"/>
    <tile gid="130"/>
    <tile gid="130"/>
    <tile gid="131"/>
    <tile gid="130"/>
    <tile gid="130"/>
    <tile gid="162"/>
    <tile gid="130"/>
    <tile gid="130"/>
    <tile gid="162"/>
    <tile gid="130"/>
    <tile gid="130"/>
    <tile gid="130"/>
    <tile gid="130"/>
    <tile gid="163"/>
    <tile gid="130"/>
    <tile gid="130"/>
    <tile gid="130"/>
    <tile gid="130"/>
    <tile gid="163"/>
    <tile gid="163"/>
    <tile gid="130"/>
    <tile gid="130"/>
    <tile gid="130"/>
    <tile gid="163"/>
    <tile gid="130"/>
    <tile gid="130"/>
    <tile gid="162"/>
    <tile gid="130"/>
    <tile gid="130"/>
    <tile gid="130"/>
    <tile gid="163"/>
    <tile gid="130"/>
    <tile gid="130"/>
    <tile gid="130"/>
    <tile gid="131"/>
    <tile gid="130"/>
    <tile gid="130"/>
    <tile gid="130"/>
    <tile gid="162"/>
    <tile gid="195"/>
    <tile gid="130"/>
    <tile gid="130"/>
    <tile gid="130"/>
    <tile gid="130"/>
    <tile gid="131"/>
    <tile gid="130"/>
    <tile gid="162"/>
    <tile gid="162"/>
    <tile gid="130"/>
    <tile gid="130"/>
    <tile gid="130"/>
    <tile gid="130"/>
    <tile gid="130"/>
    <tile gid="163"/>
    <tile gid="130"/>
    <tile gid="130"/>
    <tile gid="130"/>
    <tile gid="130"/>
    <tile gid="163"/>
    <tile gid="163"/>
    <tile gid="130"/>
    <tile gid="130"/>
    <tile gid="130"/>
    <tile gid="130"/>
    <tile gid="130"/>
    <tile gid="130"/>
    <tile gid="162"/>
    <tile gid="130"/>
    <tile gid="130"/>
    <tile gid="130"/>
    <tile gid="163"/>
    <tile gid="163"/>
    <tile gid="162"/>
    <tile gid="163"/>
    <tile gid="131"/>
    <tile gid="130"/>
    <tile gid="130"/>
    <tile gid="163"/>
    <tile gid="162"/>
    <tile gid="130"/>
    <tile gid="130"/>
    <tile gid="130"/>
    <tile gid="130"/>
    <tile gid="130"/>
    <tile gid="130"/>
    <tile gid="130"/>
    <tile gid="130"/>
    <tile gid="130"/>
    <tile gid="130"/>
    <tile gid="130"/>
    <tile gid="130"/>
    <tile gid="130"/>
    <tile gid="163"/>
    <tile gid="195"/>
    <tile gid="130"/>
    <tile gid="130"/>
    <tile gid="130"/>
    <tile gid="130"/>
    <tile gid="163"/>
    <tile gid="130"/>
    <tile gid="130"/>
    <tile gid="130"/>
    <tile gid="130"/>
    <tile gid="162"/>
    <tile gid="130"/>
    <tile gid="130"/>
    <tile gid="130"/>
    <tile gid="130"/>
    <tile gid="130"/>
    <tile gid="130"/>
    <tile gid="130"/>
    <tile gid="130"/>
    <tile gid="162"/>
    <tile gid="163"/>
    <tile gid="130"/>
    <tile gid="130"/>
    <tile gid="130"/>
    <tile gid="130"/>
    <tile gid="162"/>
    <tile gid="130"/>
    <tile gid="130"/>
    <tile gid="130"/>
    <tile gid="163"/>
    <tile gid="130"/>
    <tile gid="130"/>
    <tile gid="130"/>
    <tile gid="130"/>
    <tile gid="130"/>
    <tile gid="130"/>
    <tile gid="195"/>
    <tile gid="130"/>
    <tile gid="130"/>
    <tile gid="163"/>
    <tile gid="130"/>
    <tile gid="163"/>
    <tile gid="163"/>
    <tile gid="163"/>
    <tile gid="130"/>
    <tile gid="163"/>
    <tile gid="130"/>
    <tile gid="130"/>
    <tile gid="130"/>
    <tile gid="130"/>
    <tile gid="162"/>
    <tile gid="130"/>
    <tile gid="130"/>
    <tile gid="130"/>
    <tile gid="130"/>
    <tile gid="163"/>
    <tile gid="130"/>
    <tile gid="130"/>
    <tile gid="130"/>
    <tile gid="130"/>
    <tile gid="130"/>
    <tile gid="130"/>
    <tile gid="130"/>
    <tile gid="130"/>
    <tile gid="130"/>
    <tile gid="130"/>
    <tile gid="130"/>
    <tile gid="130"/>
    <tile gid="130"/>
    <tile gid="163"/>
    <tile gid="130"/>
    <tile gid="130"/>
    <tile gid="130"/>
    <tile gid="162"/>
    <tile gid="195"/>
    <tile gid="130"/>
    <tile gid="162"/>
    <tile gid="130"/>
    <tile gid="130"/>
    <tile gid="130"/>
    <tile gid="130"/>
    <tile gid="130"/>
    <tile gid="130"/>
    <tile gid="130"/>
    <tile gid="130"/>
    <tile gid="163"/>
    <tile gid="130"/>
    <tile gid="130"/>
    <tile gid="130"/>
    <tile gid="130"/>
    <tile gid="130"/>
    <tile gid="130"/>
    <tile gid="130"/>
    <tile gid="130"/>
    <tile gid="130"/>
    <tile gid="163"/>
    <tile gid="130"/>
    <tile gid="130"/>
    <tile gid="130"/>
    <tile gid="130"/>
    <tile gid="130"/>
    <tile gid="130"/>
    <tile gid="130"/>
    <tile gid="130"/>
    <tile gid="130"/>
    <tile gid="130"/>
    <tile gid="130"/>
    <tile gid="130"/>
    <tile gid="130"/>
    <tile gid="163"/>
    <tile gid="130"/>
    <tile gid="130"/>
    <tile gid="163"/>
    <tile gid="162"/>
    <tile gid="130"/>
    <tile gid="130"/>
    <tile gid="130"/>
    <tile gid="130"/>
    <tile gid="130"/>
    <tile gid="162"/>
    <tile gid="130"/>
    <tile gid="130"/>
    <tile gid="130"/>
    <tile gid="130"/>
    <tile gid="130"/>
    <tile gid="163"/>
    <tile gid="163"/>
    <tile gid="130"/>
    <tile gid="130"/>
    <tile gid="130"/>
    <tile gid="130"/>
    <tile gid="163"/>
    <tile gid="163"/>
    <tile gid="130"/>
    <tile gid="130"/>
    <tile gid="130"/>
    <tile gid="163"/>
    <tile gid="130"/>
    <tile gid="130"/>
    <tile gid="130"/>
    <tile gid="130"/>
    <tile gid="130"/>
    <tile gid="131"/>
    <tile gid="130"/>
    <tile gid="130"/>
    <tile gid="131"/>
    <tile gid="130"/>
    <tile gid="131"/>
    <tile gid="130"/>
    <tile gid="163"/>
    <tile gid="130"/>
    <tile gid="130"/>
    <tile gid="162"/>
    <tile gid="131"/>
    <tile gid="130"/>
    <tile gid="163"/>
    <tile gid="163"/>
    <tile gid="130"/>
    <tile gid="163"/>
    <tile gid="130"/>
    <tile gid="162"/>
    <tile gid="130"/>
    <tile gid="162"/>
    <tile gid="130"/>
    <tile gid="130"/>
    <tile gid="130"/>
    <tile gid="163"/>
    <tile gid="163"/>
    <tile gid="130"/>
    <tile gid="130"/>
    <tile gid="130"/>
    <tile gid="163"/>
    <tile gid="163"/>
    <tile gid="130"/>
    <tile gid="130"/>
    <tile gid="163"/>
    <tile gid="163"/>
    <tile gid="163"/>
    <tile gid="163"/>
    <tile gid="130"/>
    <tile gid="130"/>
    <tile gid="130"/>
    <tile gid="130"/>
    <tile gid="130"/>
    <tile gid="130"/>
    <tile gid="130"/>
    <tile gid="130"/>
    <tile gid="130"/>
    <tile gid="130"/>
    <tile gid="130"/>
    <tile gid="130"/>
    <tile gid="130"/>
    <tile gid="130"/>
    <tile gid="130"/>
    <tile gid="130"/>
    <tile gid="130"/>
    <tile gid="163"/>
    <tile gid="163"/>
    <tile gid="130"/>
    <tile gid="130"/>
    <tile gid="130"/>
    <tile gid="130"/>
    <tile gid="130"/>
    <tile gid="130"/>
    <tile gid="130"/>
    <tile gid="130"/>
    <tile gid="130"/>
    <tile gid="130"/>
    <tile gid="163"/>
    <tile gid="130"/>
    <tile gid="130"/>
    <tile gid="163"/>
    <tile gid="130"/>
    <tile gid="130"/>
    <tile gid="163"/>
    <tile gid="130"/>
    <tile gid="130"/>
    <tile gid="130"/>
    <tile gid="130"/>
    <tile gid="130"/>
    <tile gid="130"/>
    <tile gid="130"/>
    <tile gid="130"/>
    <tile gid="130"/>
    <tile gid="130"/>
    <tile gid="130"/>
    <tile gid="130"/>
    <tile gid="130"/>
    <tile gid="130"/>
    <tile gid="130"/>
    <tile gid="130"/>
    <tile gid="130"/>
    <tile gid="130"/>
    <tile gid="130"/>
    <tile gid="130"/>
    <tile gid="130"/>
    <tile gid="130"/>
    <tile gid="130"/>
    <tile gid="130"/>
    <tile gid="130"/>
    <tile gid="131"/>
    <tile gid="130"/>
    <tile gid="130"/>
    <tile gid="130"/>
    <tile gid="130"/>
    <tile gid="130"/>
    <tile gid="130"/>
    <tile gid="130"/>
    <tile gid="162"/>
    <tile gid="130"/>
    <tile gid="163"/>
    <tile gid="163"/>
    <tile gid="130"/>
    <tile gid="130"/>
    <tile gid="163"/>
    <tile gid="163"/>
    <tile gid="130"/>
    <tile gid="163"/>
    <tile gid="163"/>
    <tile gid="130"/>
    <tile gid="130"/>
    <tile gid="130"/>
    <tile gid="130"/>
    <tile gid="131"/>
    <tile gid="130"/>
    <tile gid="131"/>
    <tile gid="130"/>
    <tile gid="163"/>
    <tile gid="163"/>
    <tile gid="163"/>
    <tile gid="130"/>
    <tile gid="130"/>
    <tile gid="130"/>
    <tile gid="130"/>
    <tile gid="130"/>
    <tile gid="130"/>
    <tile gid="130"/>
    <tile gid="130"/>
    <tile gid="130"/>
    <tile gid="131"/>
    <tile gid="131"/>
    <tile gid="130"/>
    <tile gid="130"/>
    <tile gid="130"/>
    <tile gid="130"/>
    <tile gid="162"/>
    <tile gid="130"/>
    <tile gid="162"/>
    <tile gid="130"/>
    <tile gid="162"/>
    <tile gid="163"/>
    <tile gid="130"/>
    <tile gid="130"/>
    <tile gid="130"/>
    <tile gid="130"/>
    <tile gid="130"/>
    <tile gid="130"/>
    <tile gid="130"/>
    <tile gid="163"/>
    <tile gid="163"/>
    <tile gid="163"/>
    <tile gid="163"/>
    <tile gid="130"/>
    <tile gid="130"/>
    <tile gid="130"/>
    <tile gid="131"/>
    <tile gid="131"/>
    <tile gid="130"/>
    <tile gid="163"/>
    <tile gid="163"/>
    <tile gid="130"/>
    <tile gid="130"/>
    <tile gid="130"/>
    <tile gid="130"/>
    <tile gid="130"/>
    <tile gid="130"/>
    <tile gid="130"/>
    <tile gid="130"/>
    <tile gid="163"/>
    <tile gid="130"/>
    <tile gid="163"/>
    <tile gid="163"/>
    <tile gid="163"/>
    <tile gid="130"/>
    <tile gid="130"/>
    <tile gid="130"/>
    <tile gid="130"/>
    <tile gid="130"/>
    <tile gid="130"/>
    <tile gid="162"/>
    <tile gid="163"/>
    <tile gid="163"/>
    <tile gid="130"/>
    <tile gid="130"/>
    <tile gid="130"/>
    <tile gid="130"/>
    <tile gid="130"/>
    <tile gid="130"/>
    <tile gid="130"/>
    <tile gid="163"/>
    <tile gid="163"/>
    <tile gid="130"/>
    <tile gid="130"/>
    <tile gid="130"/>
    <tile gid="162"/>
    <tile gid="162"/>
    <tile gid="162"/>
    <tile gid="162"/>
    <tile gid="162"/>
    <tile gid="162"/>
    <tile gid="130"/>
    <tile gid="162"/>
    <tile gid="130"/>
    <tile gid="130"/>
    <tile gid="130"/>
    <tile gid="130"/>
    <tile gid="130"/>
    <tile gid="131"/>
    <tile gid="130"/>
    <tile gid="130"/>
    <tile gid="130"/>
    <tile gid="130"/>
    <tile gid="130"/>
    <tile gid="130"/>
    <tile gid="130"/>
    <tile gid="130"/>
    <tile gid="130"/>
    <tile gid="130"/>
    <tile gid="130"/>
    <tile gid="162"/>
    <tile gid="163"/>
    <tile gid="163"/>
    <tile gid="163"/>
    <tile gid="130"/>
    <tile gid="130"/>
    <tile gid="130"/>
    <tile gid="130"/>
    <tile gid="130"/>
    <tile gid="130"/>
    <tile gid="130"/>
    <tile gid="130"/>
    <tile gid="130"/>
    <tile gid="163"/>
    <tile gid="130"/>
    <tile gid="162"/>
    <tile gid="130"/>
    <tile gid="130"/>
    <tile gid="130"/>
    <tile gid="130"/>
    <tile gid="130"/>
    <tile gid="130"/>
    <tile gid="130"/>
    <tile gid="130"/>
    <tile gid="130"/>
    <tile gid="130"/>
    <tile gid="130"/>
    <tile gid="130"/>
    <tile gid="130"/>
    <tile gid="130"/>
    <tile gid="130"/>
    <tile gid="130"/>
    <tile gid="130"/>
    <tile gid="130"/>
    <tile gid="131"/>
    <tile gid="130"/>
    <tile gid="163"/>
    <tile gid="130"/>
    <tile gid="130"/>
    <tile gid="130"/>
    <tile gid="162"/>
    <tile gid="130"/>
    <tile gid="130"/>
    <tile gid="130"/>
    <tile gid="130"/>
    <tile gid="130"/>
    <tile gid="130"/>
    <tile gid="130"/>
    <tile gid="130"/>
    <tile gid="130"/>
    <tile gid="130"/>
    <tile gid="130"/>
    <tile gid="130"/>
    <tile gid="130"/>
    <tile gid="130"/>
    <tile gid="130"/>
    <tile gid="130"/>
    <tile gid="130"/>
    <tile gid="130"/>
    <tile gid="130"/>
    <tile gid="130"/>
    <tile gid="130"/>
    <tile gid="130"/>
    <tile gid="163"/>
    <tile gid="130"/>
    <tile gid="130"/>
    <tile gid="130"/>
    <tile gid="130"/>
    <tile gid="130"/>
    <tile gid="130"/>
    <tile gid="130"/>
    <tile gid="130"/>
    <tile gid="130"/>
    <tile gid="130"/>
    <tile gid="130"/>
    <tile gid="130"/>
    <tile gid="130"/>
    <tile gid="130"/>
    <tile gid="130"/>
    <tile gid="130"/>
    <tile gid="130"/>
    <tile gid="130"/>
    <tile gid="130"/>
    <tile gid="130"/>
   </data>
  </layer>
  <layer id="3" name="lower_walls" width="40" height="30">
   <data>
    <tile gid="786"/>
    <tile gid="786"/>
    <tile gid="786"/>
    <tile gid="786"/>
    <tile gid="786"/>
    <tile gid="786"/>
    <tile gid="786"/>
    <tile gid="786"/>
    <tile gid="786"/>
    <tile gid="786"/>
    <tile gid="786"/>
    <tile gid="786"/>
    <tile gid="786"/>
    <tile gid="786"/>
    <tile gid="786"/>
    <tile gid="786"/>
    <tile gid="786"/>
    <tile gid="786"/>
    <tile gid="786"/>
    <tile gid="786"/>
    <tile gid="786"/>
    <tile gid="786"/>
    <tile gid="786"/>
    <tile gid="786"/>
    <tile gid="786"/>
    <tile gid="786"/>
    <tile gid="786"/>
    <tile gid="786"/>
    <tile gid="786"/>
    <tile gid="786"/>
    <tile gid="786"/>
    <tile gid="786"/>
    <tile gid="786"/>
    <tile gid="786"/>
    <tile gid="786"/>
    <tile gid="786"/>
    <tile gid="786"/>
    <tile gid="786"/>
    <tile gid="786"/>
    <tile gid="786"/>
    <tile gid="786"/>
    <tile gid="786"/>
    <tile gid="786"/>
    <tile gid="786"/>
    <tile gid="786"/>
    <tile gid="786"/>
    <tile gid="786"/>
    <tile gid="786"/>
    <tile gid="786"/>
    <tile gid="786"/>
    <tile gid="786"/>
    <tile gid="786"/>
    <tile gid="786"/>
    <tile gid="786"/>
    <tile gid="786"/>
    <tile gid="786"/>
    <tile gid="786"/>
    <tile gid="786"/>
    <tile gid="786"/>
    <tile gid="786"/>
    <tile gid="786"/>
    <tile gid="786"/>
    <tile gid="786"/>
    <tile gid="786"/>
    <tile gid="786"/>
    <tile gid="786"/>
    <tile gid="786"/>
    <tile gid="786"/>
    <tile gid="786"/>
    <tile gid="786"/>
    <tile gid="786"/>
    <tile gid="786"/>
    <tile gid="786"/>
    <tile gid="786"/>
    <tile gid="786"/>
    <tile gid="786"/>
    <tile gid="786"/>
    <tile gid="786"/>
    <tile gid="786"/>
    <tile gid="786"/>
    <tile gid="786"/>
    <tile gid="786"/>
    <tile gid="786"/>
    <tile gid="786"/>
    <tile gid="786"/>
    <tile gid="786"/>
    <tile gid="786"/>
    <tile gid="786"/>
    <tile gid="786"/>
    <tile gid="786"/>
    <tile gid="786"/>
    <tile gid="786"/>
    <tile gid="786"/>
    <tile gid="786"/>
    <tile gid="786"/>
    <tile gid="786"/>
    <tile gid="786"/>
    <tile gid="786"/>
    <tile gid="786"/>
    <tile gid="786"/>
    <tile gid="786"/>
    <tile gid="786"/>
    <tile gid="786"/>
    <tile gid="786"/>
    <tile gid="786"/>
    <tile gid="786"/>
    <tile gid="786"/>
    <tile gid="786"/>
    <tile gid="786"/>
    <tile gid="786"/>
    <tile gid="786"/>
    <tile gid="786"/>
    <tile gid="786"/>
    <tile gid="786"/>
    <tile gid="786"/>
    <tile gid="786"/>
    <tile gid="786"/>
    <tile gid="786"/>
    <tile gid="786"/>
    <tile gid="786"/>
    <tile gid="786"/>
    <tile gid="786"/>
    <tile gid="786"/>
    <tile gid="786"/>
    <tile gid="786"/>
    <tile gid="786"/>
    <tile gid="786"/>
    <tile gid="786"/>
    <tile gid="786"/>
    <tile gid="786"/>
    <tile gid="786"/>
    <tile gid="786"/>
    <tile gid="786"/>
    <tile gid="786"/>
    <tile gid="786"/>
    <tile gid="786"/>
    <tile gid="786"/>
    <tile gid="786"/>
    <tile gid="786"/>
    <tile gid="786"/>
    <tile gid="786"/>
    <tile gid="786"/>
    <tile gid="786"/>
    <tile gid="786"/>
    <tile gid="786"/>
    <tile gid="786"/>
    <tile gid="786"/>
    <tile gid="786"/>
    <tile gid="786"/>
    <tile gid="786"/>
    <tile gid="786"/>
    <tile gid="786"/>
    <tile gid="786"/>
    <tile gid="786"/>
    <tile gid="786"/>
    <tile gid="786"/>
    <tile gid="786"/>
    <tile gid="786"/>
    <tile gid="786"/>
    <tile gid="786"/>
    <tile gid="786"/>
    <tile gid="786"/>
    <tile gid="786"/>
    <tile gid="786"/>
    <tile gid="786"/>
    <tile gid="786"/>
    <tile gid="786"/>
    <tile gid="786"/>
    <tile gid="786"/>
    <tile gid="786"/>
    <tile gid="786"/>
    <tile gid="786"/>
    <tile gid="786"/>
    <tile gid="786"/>
    <tile gid="786"/>
    <tile gid="786"/>
    <tile gid="786"/>
    <tile gid="786"/>
    <tile gid="786"/>
    <tile gid="786"/>
    <tile gid="786"/>
    <tile gid="786"/>
    <tile gid="786"/>
    <tile gid="786"/>
    <tile gid="786"/>
    <tile gid="786"/>
    <tile gid="786"/>
    <tile gid="786"/>
    <tile gid="786"/>
    <tile gid="786"/>
    <tile gid="786"/>
    <tile gid="786"/>
    <tile gid="786"/>
    <tile gid="786"/>
    <tile gid="786"/>
    <tile gid="786"/>
    <tile gid="786"/>
    <tile gid="786"/>
    <tile gid="786"/>
    <tile gid="786"/>
    <tile gid="786"/>
    <tile gid="786"/>
    <tile gid="786"/>
    <tile gid="786"/>
    <tile gid="786"/>
    <tile gid="786"/>
    <tile gid="786"/>
    <tile gid="786"/>
    <tile gid="786"/>
    <tile gid="786"/>
    <tile gid="786"/>
    <tile gid="786"/>
    <tile gid="786"/>
    <tile gid="786"/>
    <tile gid="786"/>
    <tile gid="786"/>
    <tile gid="786"/>
    <tile gid="786"/>
    <tile gid="786"/>
    <tile gid="786"/>
    <tile gid="786"/>
    <tile gid="786"/>
    <tile gid="786"/>
    <tile gid="786"/>
    <tile gid="786"/>
    <tile gid="786"/>
    <tile gid="786"/>
    <tile gid="786"/>
    <tile gid="786"/>
    <tile gid="786"/>
    <tile gid="786"/>
    <tile gid="786"/>
    <tile gid="786"/>
    <tile gid="786"/>
    <tile gid="786"/>
    <tile gid="786"/>
    <tile gid="786"/>
    <tile gid="786"/>
    <tile gid="786"/>
    <tile gid="786"/>
    <tile gid="786"/>
    <tile gid="786"/>
    <tile gid="786"/>
    <tile gid="786"/>
    <tile gid="786"/>
    <tile gid="786"/>
    <tile gid="786"/>
    <tile gid="786"/>
    <tile gid="786"/>
    <tile gid="786"/>
    <tile gid="786"/>
    <tile gid="786"/>
    <tile gid="786"/>
    <tile gid="786"/>
    <tile gid="786"/>
    <tile gid="786"/>
    <tile gid="786"/>
    <tile gid="786"/>
    <tile gid="786"/>
    <tile gid="786"/>
    <tile gid="786"/>
    <tile gid="786"/>
    <tile gid="786"/>
    <tile gid="786"/>
    <tile gid="786"/>
    <tile gid="786"/>
    <tile gid="786"/>
    <tile gid="786"/>
    <tile gid="786"/>
    <tile gid="786"/>
    <tile gid="786"/>
    <tile gid="786"/>
    <tile gid="786"/>
    <tile gid="786"/>
    <tile gid="786"/>
    <tile gid="786"/>
    <tile gid="786"/>
    <tile gid="786"/>
    <tile gid="786"/>
    <tile gid="786"/>
    <tile gid="786"/>
    <tile gid="786"/>
    <tile gid="786"/>
    <tile gid="786"/>
    <tile gid="786"/>
    <tile gid="786"/>
    <tile gid="786"/>
    <tile gid="786"/>
    <tile gid="786"/>
    <tile gid="786"/>
    <tile gid="786"/>
    <tile gid="786"/>
    <tile gid="786"/>
    <tile gid="786"/>
    <tile gid="786"/>
    <tile gid="786"/>
    <tile gid="786"/>
    <tile gid="786"/>
    <tile gid="786"/>
    <tile gid="786"/>
    <tile gid="786"/>
    <tile gid="786"/>
    <tile gid="786"/>
    <tile gid="786"/>
    <tile gid="786"/>
    <tile gid="786"/>
    <tile gid="786"/>
    <tile gid="786"/>
    <tile gid="786"/>
    <tile gid="786"/>
    <tile gid="786"/>
    <tile gid="786"/>
    <tile gid="786"/>
    <tile gid="786"/>
    <tile gid="786"/>
    <tile gid="786"/>
    <tile gid="786"/>
    <tile gid="786"/>
    <tile gid="786"/>
    <tile gid="786"/>
    <tile gid="786"/>
    <tile gid="786"/>
    <tile gid="786"/>
    <tile gid="786"/>
    <tile gid="786"/>
    <tile gid="786"/>
    <tile gid="786"/>
    <tile gid="786"/>
    <tile gid="786"/>
    <tile gid="786"/>
    <tile gid="786"/>
    <tile gid="786"/>
    <tile gid="786"/>
    <tile gid="786"/>
    <tile gid="786"/>
    <tile gid="786"/>
    <tile gid="786"/>
    <tile gid="786"/>
    <tile gid="786"/>
    <tile gid="786"/>
    <tile gid="786"/>
    <tile gid="786"/>
    <tile gid="786"/>
    <tile gid="786"/>
    <tile gid="786"/>
    <tile gid="786"/>
    <tile gid="786"/>
    <tile gid="786"/>
    <tile gid="786"/>
    <tile gid="786"/>
    <tile gid="786"/>
    <tile gid="786"/>
    <tile gid="786"/>
    <tile gid="786"/>
    <tile gid="786"/>
    <tile gid="786"/>
    <tile gid="786"/>
    <tile gid="786"/>
    <tile gid="786"/>
    <tile gid="786"/>
    <tile gid="786"/>
    <tile gid="786"/>
    <tile gid="786"/>
    <tile gid="786"/>
    <tile gid="786"/>
    <tile gid="786"/>
    <tile gid="786"/>
    <tile gid="786"/>
    <tile gid="786"/>
    <tile gid="786"/>
    <tile gid="786"/>
    <tile gid="786"/>
    <tile gid="786"/>
    <tile gid="786"/>
    <tile gid="786"/>
    <tile gid="786"/>
    <tile gid="786"/>
    <tile gid="786"/>
    <tile gid="786"/>
    <tile gid="786"/>
    <tile gid="786"/>
    <tile gid="786"/>
    <tile gid="786"/>
    <tile gid="786"/>
    <tile gid="786"/>
    <tile gid="786"/>
    <tile gid="786"/>
    <tile gid="786"/>
    <tile gid="786"/>
    <tile gid="786"/>
    <tile gid="786"/>
    <tile gid="786"/>
    <tile gid="786"/>
    <tile gid="786"/>
    <tile gid="786"/>
    <tile gid="786"/>
    <tile gid="786"/>
    <tile gid="786"/>
    <tile gid="786"/>
    <tile gid="786"/>
    <tile gid="786"/>
    <tile gid="786"/>
    <tile gid="786"/>
    <tile gid="786"/>
    <tile gid="786"/>
    <tile gid="786"/>
    <tile gid="786"/>
    <tile gid="786"/>
    <tile gid="786"/>
    <tile gid="786"/>
    <tile gid="786"/>
    <tile gid="786"/>
    <tile gid="786"/>
    <tile gid="786"/>
    <tile gid="786"/>
    <tile gid="786"/>
    <tile gid="786"/>
    <tile gid="786"/>
    <tile gid="786"/>
    <tile gid="786"/>
    <tile gid="786"/>
    <tile gid="786"/>
    <tile gid="786"/>
    <tile gid="786"/>
    <tile gid="786"/>
    <tile gid="786"/>
    <tile gid="786"/>
    <tile gid="786"/>
    <tile gid="786"/>
    <tile gid="786"/>
    <tile gid="786"/>
    <tile gid="786"/>
    <tile gid="786"/>
    <tile gid="786"/>
    <tile gid="786"/>
    <tile gid="786"/>
    <tile gid="786"/>
    <tile gid="786"/>
    <tile gid="786"/>
    <tile gid="786"/>
    <tile gid="786"/>
    <tile gid="786"/>
    <tile gid="786"/>
    <tile gid="786"/>
    <tile gid="786"/>
    <tile gid="786"/>
    <tile gid="786"/>
    <tile gid="786"/>
    <tile gid="786"/>
    <tile gid="786"/>
    <tile gid="786"/>
    <tile gid="786"/>
    <tile gid="786"/>
    <tile gid="786"/>
    <tile gid="786"/>
    <tile gid="786"/>
    <tile gid="786"/>
    <tile gid="786"/>
    <tile gid="786"/>
    <tile gid="786"/>
    <tile gid="786"/>
    <tile gid="786"/>
    <tile gid="786"/>
    <tile gid="786"/>
    <tile gid="786"/>
    <tile gid="786"/>
    <tile gid="786"/>
    <tile gid="786"/>
    <tile gid="786"/>
    <tile gid="786"/>
    <tile gid="786"/>
    <tile gid="786"/>
    <tile gid="786"/>
    <tile gid="786"/>
    <tile gid="786"/>
    <tile gid="786"/>
    <tile gid="786"/>
    <tile gid="786"/>
    <tile gid="786"/>
    <tile gid="786"/>
    <tile gid="786"/>
    <tile gid="786"/>
    <tile gid="786"/>
    <tile gid="786"/>
    <tile gid="786"/>
    <tile gid="786"/>
    <tile gid="786"/>
    <tile gid="786"/>
    <tile gid="786"/>
    <tile gid="786"/>
    <tile gid="786"/>
    <tile gid="786"/>
    <tile gid="786"/>
    <tile gid="786"/>
    <tile gid="786"/>
    <tile gid="786"/>
    <tile gid="786"/>
    <tile gid="786"/>
    <tile gid="786"/>
    <tile gid="786"/>
    <tile gid="786"/>
    <tile gid="786"/>
    <tile gid="786"/>
    <tile gid="786"/>
    <tile gid="786"/>
    <tile gid="786"/>
    <tile gid="786"/>
    <tile gid="786"/>
    <tile gid="786"/>
    <tile gid="786"/>
    <tile gid="786"/>
    <tile gid="786"/>
    <tile gid="786"/>
    <tile gid="786"/>
    <tile gid="786"/>
    <tile gid="786"/>
    <tile gid="786"/>
    <tile gid="786"/>
    <tile gid="786"/>
    <tile gid="786"/>
    <tile gid="786"/>
    <tile gid="786"/>
    <tile gid="786"/>
    <tile gid="786"/>
    <tile gid="786"/>
    <tile gid="786"/>
    <tile gid="786"/>
    <tile gid="786"/>
    <tile gid="786"/>
    <tile gid="786"/>
    <tile gid="786"/>
    <tile gid="786"/>
    <tile gid="786"/>
    <tile gid="786"/>
    <tile gid="786"/>
    <tile gid="786"/>
    <tile gid="786"/>
    <tile gid="786"/>
    <tile gid="786"/>
    <tile gid="786"/>
    <tile gid="786"/>
    <tile gid="786"/>
    <tile gid="786"/>
    <tile gid="786"/>
    <tile gid="786"/>
    <tile gid="786"/>
    <tile gid="786"/>
    <tile gid="786"/>
    <tile gid="786"/>
    <tile gid="786"/>
    <tile gid="786"/>
    <tile gid="786"/>
    <tile gid="786"/>
    <tile gid="786"/>
    <tile gid="786"/>
    <tile gid="786"/>
    <tile gid="786"/>
    <tile gid="786"/>
    <tile gid="786"/>
    <tile gid="786"/>
    <tile gid="786"/>
    <tile gid="786"/>
    <tile gid="786"/>
    <tile gid="786"/>
    <tile gid="786"/>
    <tile gid="786"/>
    <tile gid="786"/>
    <tile gid="786"/>
    <tile gid="786"/>
    <tile gid="786"/>
    <tile gid="786"/>
    <tile gid="786"/>
    <tile gid="786"/>
    <tile gid="786"/>
    <tile gid="786"/>
    <tile gid="786"/>
    <tile gid="786"/>
    <tile gid="786"/>
    <tile gid="786"/>
    <tile gid="786"/>
    <tile gid="786"/>
    <tile gid="786"/>
    <tile gid="786"/>
    <tile gid="786"/>
    <tile gid="786"/>
    <tile gid="786"/>
    <tile gid="786"/>
    <tile gid="786"/>
    <tile gid="786"/>
    <tile gid="786"/>
    <tile gid="786"/>
    <tile gid="786"/>
    <tile gid="786"/>
    <tile gid="786"/>
    <tile gid="786"/>
    <tile gid="786"/>
    <tile gid="786"/>
    <tile gid="786"/>
    <tile gid="786"/>
    <tile gid="786"/>
    <tile gid="786"/>
    <tile gid="786"/>
    <tile gid="786"/>
    <tile gid="786"/>
    <tile gid="786"/>
    <tile gid="786"/>
    <tile gid="786"/>
    <tile gid="786"/>
    <tile gid="786"/>
    <tile gid="786"/>
    <tile gid="786"/>
    <tile gid="786"/>
    <tile gid="786"/>
    <tile gid="786"/>
    <tile gid="786"/>
    <tile gid="786"/>
    <tile gid="786"/>
    <tile gid="786"/>
    <tile gid="786"/>
    <tile gid="786"/>
    <tile gid="786"/>
    <tile gid="786"/>
    <tile gid="786"/>
    <tile gid="786"/>
    <tile gid="786"/>
    <tile gid="786"/>
    <tile gid="786"/>
    <tile gid="786"/>
    <tile gid="786"/>
    <tile gid="786"/>
    <tile gid="786"/>
    <tile gid="786"/>
    <tile gid="786"/>
    <tile gid="786"/>
    <tile gid="786"/>
    <tile gid="786"/>
    <tile gid="786"/>
    <tile gid="786"/>
    <tile gid="786"/>
    <tile gid="786"/>
    <tile gid="786"/>
    <tile gid="786"/>
    <tile gid="786"/>
    <tile gid="786"/>
    <tile gid="786"/>
    <tile gid="786"/>
    <tile gid="786"/>
    <tile gid="786"/>
    <tile gid="786"/>
    <tile gid="786"/>
    <tile gid="786"/>
    <tile gid="786"/>
    <tile gid="786"/>
    <tile gid="786"/>
    <tile gid="786"/>
    <tile gid="786"/>
    <tile gid="786"/>
    <tile gid="786"/>
    <tile gid="786"/>
    <tile gid="786"/>
    <tile gid="786"/>
    <tile gid="786"/>
    <tile gid="786"/>
    <tile gid="786"/>
    <tile gid="786"/>
    <tile gid="786"/>
    <tile gid="786"/>
    <tile gid="786"/>
    <tile gid="786"/>
    <tile gid="786"/>
    <tile gid="786"/>
    <tile gid="786"/>
    <tile gid="786"/>
    <tile gid="786"/>
    <tile gid="786"/>
    <tile gid="786"/>
    <tile gid="786"/>
    <tile gid="786"/>
    <tile gid="786"/>
    <tile gid="786"/>
    <tile gid="786"/>
    <tile gid="786"/>
    <tile gid="786"/>
    <tile gid="786"/>
    <tile gid="786"/>
    <tile gid="786"/>
    <tile gid="786"/>
    <tile gid="786"/>
    <tile gid="786"/>
    <tile gid="786"/>
    <tile gid="786"/>
    <tile gid="786"/>
    <tile gid="786"/>
    <tile gid="786"/>
    <tile gid="786"/>
    <tile gid="786"/>
    <tile gid="786"/>
    <tile gid="786"/>
    <tile gid="786"/>
    <tile gid="786"/>
    <tile gid="786"/>
    <tile gid="786"/>
    <tile gid="786"/>
    <tile gid="786"/>
    <tile gid="786"/>
    <tile gid="786"/>
    <tile gid="786"/>
    <tile gid="786"/>
    <tile gid="786"/>
    <tile gid="786"/>
    <tile gid="786"/>
    <tile gid="786"/>
    <tile gid="786"/>
    <tile gid="786"/>
    <tile gid="786"/>
    <tile gid="786"/>
    <tile gid="786"/>
    <tile gid="786"/>
    <tile gid="786"/>
    <tile gid="786"/>
    <tile gid="786"/>
    <tile gid="786"/>
    <tile gid="786"/>
    <tile gid="786"/>
    <tile gid="786"/>
    <tile gid="786"/>
    <tile gid="786"/>
    <tile gid="786"/>
    <tile gid="786"/>
    <tile gid="786"/>
    <tile gid="786"/>
    <tile gid="786"/>
    <tile gid="786"/>
    <tile gid="786"/>
    <tile gid="786"/>
    <tile gid="786"/>
    <tile gid="786"/>
    <tile gid="786"/>
    <tile gid="786"/>
    <tile gid="786"/>
    <tile gid="786"/>
    <tile gid="786"/>
    <tile gid="786"/>
    <tile gid="786"/>
    <tile gid="786"/>
    <tile gid="786"/>
    <tile gid="786"/>
    <tile gid="786"/>
    <tile gid="786"/>
    <tile gid="786"/>
    <tile gid="786"/>
    <tile gid="786"/>
    <tile gid="786"/>
    <tile gid="786"/>
    <tile gid="786"/>
    <tile gid="786"/>
    <tile gid="786"/>
    <tile gid="786"/>
    <tile gid="786"/>
    <tile gid="786"/>
    <tile gid="786"/>
    <tile gid="786"/>
    <tile gid="786"/>
    <tile gid="786"/>
    <tile gid="786"/>
    <tile gid="786"/>
    <tile gid="786"/>
    <tile gid="786"/>
    <tile gid="786"/>
    <tile gid="786"/>
    <tile gid="786"/>
    <tile gid="786"/>
    <tile gid="786"/>
    <tile gid="786"/>
    <tile gid="786"/>
    <tile gid="786"/>
    <tile gid="786"/>
    <tile gid="786"/>
    <tile gid="786"/>
    <tile gid="786"/>
    <tile gid="786"/>
    <tile gid="786"/>
    <tile gid="786"/>
    <tile gid="786"/>
    <tile gid="786"/>
    <tile gid="786"/>
    <tile gid="786"/>
    <tile gid="786"/>
    <tile gid="786"/>
    <tile gid="786"/>
    <tile gid="786"/>
    <tile gid="786"/>
    <tile gid="786"/>
    <tile gid="786"/>
    <tile gid="786"/>
    <tile gid="786"/>
    <tile gid="786"/>
    <tile gid="786"/>
    <tile gid="786"/>
    <tile gid="786"/>
    <tile gid="786"/>
    <tile gid="786"/>
    <tile gid="786"/>
    <tile gid="786"/>
    <tile gid="786"/>
    <tile gid="786"/>
    <tile gid="786"/>
    <tile gid="786"/>
    <tile gid="786"/>
    <tile gid="786"/>
    <tile gid="786"/>
    <tile gid="786"/>
    <tile gid="786"/>
    <tile gid="786"/>
    <tile gid="786"/>
    <tile gid="786"/>
    <tile gid="786"/>
    <tile gid="786"/>
    <tile gid="786"/>
    <tile gid="786"/>
    <tile gid="786"/>
    <tile gid="786"/>
    <tile gid="786"/>
    <tile gid="786"/>
    <tile gid="786"/>
    <tile gid="786"/>
    <tile gid="786"/>
    <tile gid="786"/>
    <tile gid="786"/>
    <tile gid="786"/>
    <tile gid="786"/>
    <tile gid="786"/>
    <tile gid="786"/>
    <tile gid="786"/>
    <tile gid="786"/>
    <tile gid="786"/>
    <tile gid="786"/>
    <tile gid="786"/>
    <tile gid="786"/>
    <tile gid="786"/>
    <tile gid="786"/>
    <tile gid="786"/>
    <tile gid="786"/>
    <tile gid="786"/>
    <tile gid="786"/>
    <tile gid="786"/>
    <tile gid="786"/>
    <tile gid="786"/>
    <tile gid="786"/>
    <tile gid="786"/>
    <tile gid="786"/>
    <tile gid="786"/>
    <tile gid="786"/>
    <tile gid="786"/>
    <tile gid="786"/>
    <tile gid="786"/>
    <tile gid="786"/>
    <tile gid="786"/>
    <tile gid="786"/>
    <tile gid="786"/>
    <tile gid="786"/>
    <tile gid="786"/>
    <tile gid="786"/>
    <tile gid="786"/>
    <tile gid="786"/>
    <tile gid="786"/>
    <tile gid="786"/>
    <tile gid="786"/>
    <tile gid="786"/>
    <tile gid="786"/>
    <tile gid="786"/>
    <tile gid="786"/>
    <tile gid="786"/>
    <tile gid="786"/>
    <tile gid="786"/>
    <tile gid="786"/>
    <tile gid="786"/>
    <tile gid="786"/>
    <tile gid="786"/>
    <tile gid="786"/>
    <tile gid="786"/>
    <tile gid="786"/>
    <tile gid="786"/>
    <tile gid="786"/>
    <tile gid="786"/>
    <tile gid="786"/>
    <tile gid="786"/>
    <tile gid="786"/>
    <tile gid="786"/>
    <tile gid="786"/>
    <tile gid="786"/>
    <tile gid="786"/>
    <tile gid="786"/>
    <tile gid="786"/>
    <tile gid="786"/>
    <tile gid="786"/>
    <tile gid="786"/>
    <tile gid="786"/>
    <tile gid="786"/>
    <tile gid="786"/>
    <tile gid="786"/>
    <tile gid="786"/>
    <tile gid="786"/>
    <tile gid="786"/>
    <tile gid="786"/>
    <tile gid="786"/>
    <tile gid="786"/>
    <tile gid="786"/>
    <tile gid="786"/>
    <tile gid="786"/>
    <tile gid="786"/>
    <tile gid="786"/>
    <tile gid="786"/>
    <tile gid="786"/>
    <tile gid="786"/>
    <tile gid="786"/>
    <tile gid="786"/>
    <tile gid="786"/>
    <tile gid="786"/>
    <tile gid="786"/>
    <tile gid="786"/>
    <tile gid="786"/>
    <tile gid="786"/>
    <tile gid="786"/>
    <tile gid="786"/>
    <tile gid="786"/>
    <tile gid="786"/>
    <tile gid="786"/>
    <tile gid="786"/>
    <tile gid="786"/>
    <tile gid="786"/>
    <tile gid="786"/>
    <tile gid="786"/>
    <tile gid="786"/>
    <tile gid="786"/>
    <tile gid="786"/>
    <tile gid="786"/>
    <tile gid="786"/>
    <tile gid="786"/>
    <tile gid="786"/>
    <tile gid="786"/>
    <tile gid="786"/>
    <tile gid="786"/>
    <tile gid="786"/>
    <tile gid="786"/>
    <tile gid="786"/>
    <tile gid="786"/>
    <tile gid="786"/>
    <tile gid="786"/>
    <tile gid="786"/>
    <tile gid="786"/>
    <tile gid="786"/>
    <tile gid="786"/>
    <tile gid="786"/>
    <tile gid="786"/>
    <tile gid="786"/>
    <tile gid="786"/>
    <tile gid="786"/>
    <tile gid="786"/>
    <tile gid="786"/>
    <tile gid="786"/>
    <tile gid="786"/>
    <tile gid="786"/>
    <tile gid="786"/>
    <tile gid="786"/>
    <tile gid="786"/>
    <tile gid="786"/>
    <tile gid="786"/>
    <tile gid="786"/>
    <tile gid="786"/>
    <tile gid="786"/>
    <tile gid="786"/>
    <tile gid="786"/>
    <tile gid="786"/>
    <tile gid="786"/>
    <tile gid="786"/>
    <tile gid="786"/>
    <tile gid="786"/>
    <tile gid="786"/>
    <tile gid="786"/>
    <tile gid="786"/>
    <tile gid="786"/>
    <tile gid="786"/>
    <tile gid="786"/>
    <tile gid="786"/>
    <tile gid="786"/>
    <tile gid="786"/>
    <tile gid="786"/>
    <tile gid="786"/>
    <tile gid="786"/>
    <tile gid="786"/>
    <tile gid="786"/>
    <tile gid="786"/>
    <tile gid="786"/>
    <tile gid="786"/>
    <tile gid="786"/>
    <tile gid="786"/>
    <tile gid="786"/>
    <tile gid="786"/>
    <tile gid="786"/>
    <tile gid="786"/>
    <tile gid="786"/>
    <tile gid="786"/>
    <tile gid="786"/>
    <tile gid="786"/>
    <tile gid="786"/>
    <tile gid="786"/>
    <tile gid="786"/>
    <tile gid="786"/>
    <tile gid="786"/>
    <tile gid="786"/>
    <tile gid="786"/>
    <tile gid="786"/>
    <tile gid="786"/>
    <tile gid="786"/>
    <tile gid="786"/>
    <tile gid="786"/>
    <tile gid="786"/>
    <tile gid="786"/>
    <tile gid="786"/>
    <tile gid="786"/>
    <tile gid="786"/>
    <tile gid="786"/>
    <tile gid="786"/>
    <tile gid="786"/>
    <tile gid="786"/>
    <tile gid="786"/>
    <tile gid="786"/>
    <tile gid="786"/>
    <tile gid="786"/>
    <tile gid="786"/>
    <tile gid="786"/>
    <tile gid="786"/>
    <tile gid="786"/>
    <tile gid="786"/>
    <tile gid="786"/>
    <tile gid="786"/>
    <tile gid="786"/>
    <tile gid="786"/>
    <tile gid="786"/>
    <tile gid="786"/>
    <tile gid="786"/>
    <tile gid="786"/>
    <tile gid="3"/>
    <tile gid="3"/>
    <tile gid="3"/>
    <tile gid="3"/>
    <tile gid="3"/>
    <tile gid="3"/>
    <tile gid="3"/>
    <tile gid="3"/>
    <tile gid="3"/>
    <tile gid="3"/>
    <tile gid="3"/>
    <tile gid="3"/>
    <tile gid="3"/>
    <tile gid="3"/>
    <tile gid="3"/>
    <tile gid="3"/>
    <tile gid="3"/>
    <tile gid="3"/>
    <tile gid="3"/>
    <tile gid="3"/>
    <tile gid="3"/>
    <tile gid="3"/>
    <tile gid="3"/>
    <tile gid="3"/>
    <tile gid="3"/>
    <tile gid="3"/>
    <tile gid="3"/>
    <tile gid="3"/>
    <tile gid="3"/>
    <tile gid="3"/>
    <tile gid="3"/>
    <tile gid="3"/>
    <tile gid="3"/>
    <tile gid="3"/>
    <tile gid="786"/>
    <tile gid="786"/>
    <tile gid="786"/>
    <tile gid="786"/>
    <tile gid="786"/>
    <tile gid="289"/>
    <tile gid="35"/>
    <tile gid="35"/>
    <tile gid="35"/>
    <tile gid="35"/>
    <tile gid="35"/>
    <tile gid="35"/>
    <tile gid="35"/>
    <tile gid="35"/>
    <tile gid="35"/>
    <tile gid="35"/>
    <tile gid="35"/>
    <tile gid="35"/>
    <tile gid="35"/>
    <tile gid="35"/>
    <tile gid="35"/>
    <tile gid="35"/>
    <tile gid="35"/>
    <tile gid="35"/>
    <tile gid="35"/>
    <tile gid="35"/>
    <tile gid="35"/>
    <tile gid="35"/>
    <tile gid="35"/>
    <tile gid="35"/>
    <tile gid="35"/>
    <tile gid="35"/>
    <tile gid="35"/>
    <tile gid="35"/>
    <tile gid="35"/>
    <tile gid="35"/>
    <tile gid="35"/>
    <tile gid="35"/>
    <tile gid="35"/>
    <tile gid="35"/>
    <tile gid="290"/>
    <tile gid="786"/>
    <tile gid="786"/>
    <tile gid="786"/>
    <tile gid="786"/>
    <tile gid="786"/>
    <tile gid="786"/>
    <tile gid="786"/>
    <tile gid="786"/>
    <tile gid="786"/>
    <tile gid="786"/>
    <tile gid="786"/>
    <tile gid="786"/>
    <tile gid="786"/>
    <tile gid="786"/>
    <tile gid="786"/>
    <tile gid="786"/>
    <tile gid="786"/>
    <tile gid="786"/>
    <tile gid="786"/>
    <tile gid="786"/>
    <tile gid="786"/>
    <tile gid="786"/>
    <tile gid="786"/>
    <tile gid="786"/>
    <tile gid="786"/>
    <tile gid="786"/>
    <tile gid="786"/>
    <tile gid="786"/>
    <tile gid="786"/>
    <tile gid="786"/>
    <tile gid="786"/>
    <tile gid="786"/>
    <tile gid="786"/>
    <tile gid="786"/>
    <tile gid="786"/>
    <tile gid="786"/>
    <tile gid="786"/>
    <tile gid="786"/>
    <tile gid="786"/>
    <tile gid="786"/>
    <tile gid="786"/>
    <tile gid="786"/>
    <tile gid="786"/>
    <tile gid="786"/>
    <tile gid="786"/>
    <tile gid="786"/>
    <tile gid="786"/>
    <tile gid="786"/>
    <tile gid="786"/>
    <tile gid="786"/>
    <tile gid="786"/>
    <tile gid="786"/>
    <tile gid="786"/>
    <tile gid="786"/>
    <tile gid="786"/>
    <tile gid="786"/>
    <tile gid="786"/>
    <tile gid="786"/>
    <tile gid="786"/>
    <tile gid="786"/>
    <tile gid="786"/>
    <tile gid="786"/>
    <tile gid="786"/>
    <tile gid="786"/>
    <tile gid="786"/>
    <tile gid="786"/>
    <tile gid="786"/>
    <tile gid="786"/>
    <tile gid="786"/>
    <tile gid="786"/>
    <tile gid="786"/>
    <tile gid="786"/>
    <tile gid="786"/>
    <tile gid="786"/>
    <tile gid="786"/>
    <tile gid="786"/>
    <tile gid="786"/>
    <tile gid="786"/>
    <tile gid="786"/>
    <tile gid="786"/>
    <tile gid="786"/>
    <tile gid="786"/>
   </data>
  </layer>
  <layer id="2" name="upper_walls" width="40" height="30">
   <data>
    <tile gid="786"/>
    <tile gid="786"/>
    <tile gid="786"/>
    <tile gid="786"/>
    <tile gid="786"/>
    <tile gid="786"/>
    <tile gid="786"/>
    <tile gid="786"/>
    <tile gid="786"/>
    <tile gid="786"/>
    <tile gid="786"/>
    <tile gid="786"/>
    <tile gid="786"/>
    <tile gid="786"/>
    <tile gid="786"/>
    <tile gid="786"/>
    <tile gid="786"/>
    <tile gid="786"/>
    <tile gid="786"/>
    <tile gid="786"/>
    <tile gid="786"/>
    <tile gid="786"/>
    <tile gid="786"/>
    <tile gid="786"/>
    <tile gid="786"/>
    <tile gid="786"/>
    <tile gid="786"/>
    <tile gid="786"/>
    <tile gid="786"/>
    <tile gid="786"/>
    <tile gid="786"/>
    <tile gid="786"/>
    <tile gid="786"/>
    <tile gid="786"/>
    <tile gid="786"/>
    <tile gid="786"/>
    <tile gid="786"/>
    <tile gid="786"/>
    <tile gid="786"/>
    <tile gid="786"/>
    <tile gid="786"/>
    <tile gid="786"/>
    <tile gid="786"/>
    <tile gid="786"/>
    <tile gid="786"/>
    <tile gid="786"/>
    <tile gid="786"/>
    <tile gid="786"/>
    <tile gid="786"/>
    <tile gid="786"/>
    <tile gid="786"/>
    <tile gid="786"/>
    <tile gid="786"/>
    <tile gid="786"/>
    <tile gid="786"/>
    <tile gid="786"/>
    <tile gid="786"/>
    <tile gid="786"/>
    <tile gid="786"/>
    <tile gid="786"/>
    <tile gid="786"/>
    <tile gid="786"/>
    <tile gid="786"/>
    <tile gid="786"/>
    <tile gid="786"/>
    <tile gid="786"/>
    <tile gid="786"/>
    <tile gid="786"/>
    <tile gid="786"/>
    <tile gid="786"/>
    <tile gid="786"/>
    <tile gid="786"/>
    <tile gid="786"/>
    <tile gid="786"/>
    <tile gid="786"/>
    <tile gid="786"/>
    <tile gid="786"/>
    <tile gid="786"/>
    <tile gid="786"/>
    <tile gid="786"/>
    <tile gid="786"/>
    <tile gid="786"/>
    <tile gid="225"/>
    <tile gid="3"/>
    <tile gid="3"/>
    <tile gid="3"/>
    <tile gid="3"/>
    <tile gid="3"/>
    <tile gid="3"/>
    <tile gid="3"/>
    <tile gid="3"/>
    <tile gid="3"/>
    <tile gid="3"/>
    <tile gid="3"/>
    <tile gid="3"/>
    <tile gid="3"/>
    <tile gid="3"/>
    <tile gid="3"/>
    <tile gid="3"/>
    <tile gid="3"/>
    <tile gid="3"/>
    <tile gid="3"/>
    <tile gid="3"/>
    <tile gid="3"/>
    <tile gid="3"/>
    <tile gid="3"/>
    <tile gid="3"/>
    <tile gid="3"/>
    <tile gid="3"/>
    <tile gid="3"/>
    <tile gid="3"/>
    <tile gid="3"/>
    <tile gid="3"/>
    <tile gid="3"/>
    <tile gid="3"/>
    <tile gid="3"/>
    <tile gid="3"/>
    <tile gid="226"/>
    <tile gid="786"/>
    <tile gid="786"/>
    <tile gid="786"/>
    <tile gid="786"/>
    <tile gid="257"/>
    <tile gid="35"/>
    <tile gid="35"/>
    <tile gid="35"/>
    <tile gid="35"/>
    <tile gid="35"/>
    <tile gid="35"/>
    <tile gid="35"/>
    <tile gid="35"/>
    <tile gid="35"/>
    <tile gid="35"/>
    <tile gid="35"/>
    <tile gid="35"/>
    <tile gid="35"/>
    <tile gid="35"/>
    <tile gid="35"/>
    <tile gid="35"/>
    <tile gid="35"/>
    <tile gid="35"/>
    <tile gid="35"/>
    <tile gid="35"/>
    <tile gid="35"/>
    <tile gid="35"/>
    <tile gid="35"/>
    <tile gid="35"/>
    <tile gid="35"/>
    <tile gid="35"/>
    <tile gid="35"/>
    <tile gid="35"/>
    <tile gid="35"/>
    <tile gid="35"/>
    <tile gid="35"/>
    <tile gid="35"/>
    <tile gid="35"/>
    <tile gid="35"/>
    <tile gid="258"/>
    <tile gid="786"/>
    <tile gid="786"/>
    <tile gid="786"/>
    <tile gid="786"/>
    <tile gid="257"/>
    <tile gid="786"/>
    <tile gid="786"/>
    <tile gid="786"/>
    <tile gid="786"/>
    <tile gid="786"/>
    <tile gid="786"/>
    <tile gid="786"/>
    <tile gid="786"/>
    <tile gid="786"/>
    <tile gid="786"/>
    <tile gid="786"/>
    <tile gid="786"/>
    <tile gid="786"/>
    <tile gid="786"/>
    <tile gid="786"/>
    <tile gid="786"/>
    <tile gid="786"/>
    <tile gid="786"/>
    <tile gid="786"/>
    <tile gid="786"/>
    <tile gid="786"/>
    <tile gid="786"/>
    <tile gid="786"/>
    <tile gid="786"/>
    <tile gid="786"/>
    <tile gid="786"/>
    <tile gid="786"/>
    <tile gid="786"/>
    <tile gid="786"/>
    <tile gid="786"/>
    <tile gid="786"/>
    <tile gid="786"/>
    <tile gid="786"/>
    <tile gid="786"/>
    <tile gid="258"/>
    <tile gid="786"/>
    <tile gid="786"/>
    <tile gid="786"/>
    <tile gid="786"/>
    <tile gid="257"/>
    <tile gid="786"/>
    <tile gid="786"/>
    <tile gid="786"/>
    <tile gid="786"/>
    <tile gid="786"/>
    <tile gid="786"/>
    <tile gid="786"/>
    <tile gid="786"/>
    <tile gid="786"/>
    <tile gid="786"/>
    <tile gid="786"/>
    <tile gid="786"/>
    <tile gid="786"/>
    <tile gid="786"/>
    <tile gid="786"/>
    <tile gid="786"/>
    <tile gid="786"/>
    <tile gid="786"/>
    <tile gid="786"/>
    <tile gid="786"/>
    <tile gid="786"/>
    <tile gid="786"/>
    <tile gid="786"/>
    <tile gid="786"/>
    <tile gid="786"/>
    <tile gid="786"/>
    <tile gid="786"/>
    <tile gid="786"/>
    <tile gid="786"/>
    <tile gid="786"/>
    <tile gid="786"/>
    <tile gid="786"/>
    <tile gid="786"/>
    <tile gid="786"/>
    <tile gid="258"/>
    <tile gid="786"/>
    <tile gid="786"/>
    <tile gid="786"/>
    <tile gid="786"/>
    <tile gid="257"/>
    <tile gid="786"/>
    <tile gid="786"/>
    <tile gid="786"/>
    <tile gid="786"/>
    <tile gid="786"/>
    <tile gid="786"/>
    <tile gid="786"/>
    <tile gid="786"/>
    <tile gid="786"/>
    <tile gid="786"/>
    <tile gid="786"/>
    <tile gid="786"/>
    <tile gid="786"/>
    <tile gid="786"/>
    <tile gid="786"/>
    <tile gid="786"/>
    <tile gid="786"/>
    <tile gid="786"/>
    <tile gid="786"/>
    <tile gid="786"/>
    <tile gid="786"/>
    <tile gid="786"/>
    <tile gid="786"/>
    <tile gid="786"/>
    <tile gid="786"/>
    <tile gid="786"/>
    <tile gid="786"/>
    <tile gid="786"/>
    <tile gid="786"/>
    <tile gid="786"/>
    <tile gid="786"/>
    <tile gid="786"/>
    <tile gid="786"/>
    <tile gid="786"/>
    <tile gid="258"/>
    <tile gid="786"/>
    <tile gid="786"/>
    <tile gid="786"/>
    <tile gid="786"/>
    <tile gid="257"/>
    <tile gid="786"/>
    <tile gid="786"/>
    <tile gid="786"/>
    <tile gid="786"/>
    <tile gid="786"/>
    <tile gid="786"/>
    <tile gid="786"/>
    <tile gid="786"/>
    <tile gid="786"/>
    <tile gid="786"/>
    <tile gid="786"/>
    <tile gid="786"/>
    <tile gid="786"/>
    <tile gid="786"/>
    <tile gid="786"/>
    <tile gid="786"/>
    <tile gid="786"/>
    <tile gid="786"/>
    <tile gid="786"/>
    <tile gid="786"/>
    <tile gid="786"/>
    <tile gid="786"/>
    <tile gid="786"/>
    <tile gid="786"/>
    <tile gid="786"/>
    <tile gid="786"/>
    <tile gid="786"/>
    <tile gid="786"/>
    <tile gid="786"/>
    <tile gid="786"/>
    <tile gid="786"/>
    <tile gid="786"/>
    <tile gid="786"/>
    <tile gid="786"/>
    <tile gid="258"/>
    <tile gid="786"/>
    <tile gid="786"/>
    <tile gid="786"/>
    <tile gid="786"/>
    <tile gid="257"/>
    <tile gid="786"/>
    <tile gid="786"/>
    <tile gid="786"/>
    <tile gid="786"/>
    <tile gid="786"/>
    <tile gid="786"/>
    <tile gid="786"/>
    <tile gid="786"/>
    <tile gid="786"/>
    <tile gid="786"/>
    <tile gid="786"/>
    <tile gid="786"/>
    <tile gid="786"/>
    <tile gid="786"/>
    <tile gid="786"/>
    <tile gid="786"/>
    <tile gid="786"/>
    <tile gid="786"/>
    <tile gid="786"/>
    <tile gid="786"/>
    <tile gid="786"/>
    <tile gid="786"/>
    <tile gid="786"/>
    <tile gid="786"/>
    <tile gid="786"/>
    <tile gid="786"/>
    <tile gid="786"/>
    <tile gid="786"/>
    <tile gid="786"/>
    <tile gid="786"/>
    <tile gid="786"/>
    <tile gid="786"/>
    <tile gid="786"/>
    <tile gid="786"/>
    <tile gid="258"/>
    <tile gid="786"/>
    <tile gid="786"/>
    <tile gid="786"/>
    <tile gid="786"/>
    <tile gid="257"/>
    <tile gid="786"/>
    <tile gid="786"/>
    <tile gid="786"/>
    <tile gid="786"/>
    <tile gid="786"/>
    <tile gid="786"/>
    <tile gid="786"/>
    <tile gid="786"/>
    <tile gid="786"/>
    <tile gid="786"/>
    <tile gid="786"/>
    <tile gid="786"/>
    <tile gid="786"/>
    <tile gid="786"/>
    <tile gid="786"/>
    <tile gid="786"/>
    <tile gid="786"/>
    <tile gid="786"/>
    <tile gid="786"/>
    <tile gid="786"/>
    <tile gid="786"/>
    <tile gid="786"/>
    <tile gid="786"/>
    <tile gid="786"/>
    <tile gid="786"/>
    <tile gid="786"/>
    <tile gid="786"/>
    <tile gid="786"/>
    <tile gid="786"/>
    <tile gid="786"/>
    <tile gid="786"/>
    <tile gid="786"/>
    <tile gid="786"/>
    <tile gid="786"/>
    <tile gid="258"/>
    <tile gid="786"/>
    <tile gid="786"/>
    <tile gid="786"/>
    <tile gid="786"/>
    <tile gid="257"/>
    <tile gid="786"/>
    <tile gid="786"/>
    <tile gid="786"/>
    <tile gid="786"/>
    <tile gid="786"/>
    <tile gid="786"/>
    <tile gid="786"/>
    <tile gid="786"/>
    <tile gid="786"/>
    <tile gid="786"/>
    <tile gid="786"/>
    <tile gid="786"/>
    <tile gid="786"/>
    <tile gid="786"/>
    <tile gid="786"/>
    <tile gid="786"/>
    <tile gid="786"/>
    <tile gid="786"/>
    <tile gid="786"/>
    <tile gid="786"/>
    <tile gid="786"/>
    <tile gid="786"/>
    <tile gid="786"/>
    <tile gid="786"/>
    <tile gid="786"/>
    <tile gid="786"/>
    <tile gid="786"/>
    <tile gid="786"/>
    <tile gid="786"/>
    <tile gid="786"/>
    <tile gid="786"/>
    <tile gid="786"/>
    <tile gid="786"/>
    <tile gid="786"/>
    <tile gid="258"/>
    <tile gid="786"/>
    <tile gid="786"/>
    <tile gid="786"/>
    <tile gid="786"/>
    <tile gid="257"/>
    <tile gid="786"/>
    <tile gid="786"/>
    <tile gid="786"/>
    <tile gid="786"/>
    <tile gid="786"/>
    <tile gid="786"/>
    <tile gid="786"/>
    <tile gid="786"/>
    <tile gid="786"/>
    <tile gid="786"/>
    <tile gid="786"/>
    <tile gid="786"/>
    <tile gid="786"/>
    <tile gid="786"/>
    <tile gid="786"/>
    <tile gid="786"/>
    <tile gid="786"/>
    <tile gid="786"/>
    <tile gid="786"/>
    <tile gid="786"/>
    <tile gid="786"/>
    <tile gid="786"/>
    <tile gid="786"/>
    <tile gid="786"/>
    <tile gid="786"/>
    <tile gid="786"/>
    <tile gid="786"/>
    <tile gid="786"/>
    <tile gid="786"/>
    <tile gid="786"/>
    <tile gid="786"/>
    <tile gid="786"/>
    <tile gid="786"/>
    <tile gid="786"/>
    <tile gid="258"/>
    <tile gid="786"/>
    <tile gid="786"/>
    <tile gid="786"/>
    <tile gid="786"/>
    <tile gid="257"/>
    <tile gid="786"/>
    <tile gid="786"/>
    <tile gid="786"/>
    <tile gid="786"/>
    <tile gid="786"/>
    <tile gid="786"/>
    <tile gid="786"/>
    <tile gid="786"/>
    <tile gid="786"/>
    <tile gid="786"/>
    <tile gid="786"/>
    <tile gid="786"/>
    <tile gid="786"/>
    <tile gid="786"/>
    <tile gid="786"/>
    <tile gid="786"/>
    <tile gid="786"/>
    <tile gid="786"/>
    <tile gid="786"/>
    <tile gid="786"/>
    <tile gid="786"/>
    <tile gid="786"/>
    <tile gid="786"/>
    <tile gid="786"/>
    <tile gid="786"/>
    <tile gid="786"/>
    <tile gid="786"/>
    <tile gid="786"/>
    <tile gid="786"/>
    <tile gid="786"/>
    <tile gid="786"/>
    <tile gid="786"/>
    <tile gid="786"/>
    <tile gid="786"/>
    <tile gid="258"/>
    <tile gid="786"/>
    <tile gid="786"/>
    <tile gid="786"/>
    <tile gid="786"/>
    <tile gid="257"/>
    <tile gid="786"/>
    <tile gid="786"/>
    <tile gid="786"/>
    <tile gid="786"/>
    <tile gid="786"/>
    <tile gid="786"/>
    <tile gid="786"/>
    <tile gid="786"/>
    <tile gid="786"/>
    <tile gid="786"/>
    <tile gid="786"/>
    <tile gid="786"/>
    <tile gid="786"/>
    <tile gid="786"/>
    <tile gid="786"/>
    <tile gid="786"/>
    <tile gid="786"/>
    <tile gid="786"/>
    <tile gid="786"/>
    <tile gid="786"/>
    <tile gid="786"/>
    <tile gid="786"/>
    <tile gid="786"/>
    <tile gid="786"/>
    <tile gid="786"/>
    <tile gid="786"/>
    <tile gid="786"/>
    <tile gid="786"/>
    <tile gid="786"/>
    <tile gid="786"/>
    <tile gid="786"/>
    <tile gid="786"/>
    <tile gid="786"/>
    <tile gid="786"/>
    <tile gid="258"/>
    <tile gid="786"/>
    <tile gid="786"/>
    <tile gid="786"/>
    <tile gid="786"/>
    <tile gid="257"/>
    <tile gid="786"/>
    <tile gid="786"/>
    <tile gid="786"/>
    <tile gid="786"/>
    <tile gid="786"/>
    <tile gid="786"/>
    <tile gid="786"/>
    <tile gid="786"/>
    <tile gid="786"/>
    <tile gid="786"/>
    <tile gid="786"/>
    <tile gid="786"/>
    <tile gid="786"/>
    <tile gid="786"/>
    <tile gid="786"/>
    <tile gid="786"/>
    <tile gid="786"/>
    <tile gid="786"/>
    <tile gid="786"/>
    <tile gid="786"/>
    <tile gid="786"/>
    <tile gid="786"/>
    <tile gid="786"/>
    <tile gid="786"/>
    <tile gid="786"/>
    <tile gid="786"/>
    <tile gid="786"/>
    <tile gid="786"/>
    <tile gid="786"/>
    <tile gid="786"/>
    <tile gid="786"/>
    <tile gid="786"/>
    <tile gid="786"/>
    <tile gid="786"/>
    <tile gid="258"/>
    <tile gid="786"/>
    <tile gid="786"/>
    <tile gid="786"/>
    <tile gid="786"/>
    <tile gid="257"/>
    <tile gid="786"/>
    <tile gid="786"/>
    <tile gid="786"/>
    <tile gid="786"/>
    <tile gid="786"/>
    <tile gid="786"/>
    <tile gid="786"/>
    <tile gid="786"/>
    <tile gid="786"/>
    <tile gid="786"/>
    <tile gid="786"/>
    <tile gid="786"/>
    <tile gid="786"/>
    <tile gid="786"/>
    <tile gid="786"/>
    <tile gid="786"/>
    <tile gid="786"/>
    <tile gid="786"/>
    <tile gid="786"/>
    <tile gid="786"/>
    <tile gid="786"/>
    <tile gid="786"/>
    <tile gid="786"/>
    <tile gid="786"/>
    <tile gid="786"/>
    <tile gid="786"/>
    <tile gid="786"/>
    <tile gid="786"/>
    <tile gid="786"/>
    <tile gid="786"/>
    <tile gid="786"/>
    <tile gid="786"/>
    <tile gid="786"/>
    <tile gid="786"/>
    <tile gid="258"/>
    <tile gid="786"/>
    <tile gid="786"/>
    <tile gid="786"/>
    <tile gid="786"/>
    <tile gid="257"/>
    <tile gid="786"/>
    <tile gid="786"/>
    <tile gid="786"/>
    <tile gid="786"/>
    <tile gid="786"/>
    <tile gid="786"/>
    <tile gid="786"/>
    <tile gid="786"/>
    <tile gid="786"/>
    <tile gid="786"/>
    <tile gid="786"/>
    <tile gid="786"/>
    <tile gid="786"/>
    <tile gid="786"/>
    <tile gid="786"/>
    <tile gid="786"/>
    <tile gid="786"/>
    <tile gid="786"/>
    <tile gid="786"/>
    <tile gid="786"/>
    <tile gid="786"/>
    <tile gid="786"/>
    <tile gid="786"/>
    <tile gid="786"/>
    <tile gid="786"/>
    <tile gid="786"/>
    <tile gid="786"/>
    <tile gid="786"/>
    <tile gid="786"/>
    <tile gid="786"/>
    <tile gid="786"/>
    <tile gid="786"/>
    <tile gid="786"/>
    <tile gid="786"/>
    <tile gid="258"/>
    <tile gid="786"/>
    <tile gid="786"/>
    <tile gid="786"/>
    <tile gid="786"/>
    <tile gid="257"/>
    <tile gid="786"/>
    <tile gid="786"/>
    <tile gid="786"/>
    <tile gid="786"/>
    <tile gid="786"/>
    <tile gid="786"/>
    <tile gid="786"/>
    <tile gid="786"/>
    <tile gid="786"/>
    <tile gid="786"/>
    <tile gid="786"/>
    <tile gid="786"/>
    <tile gid="786"/>
    <tile gid="786"/>
    <tile gid="786"/>
    <tile gid="786"/>
    <tile gid="786"/>
    <tile gid="786"/>
    <tile gid="786"/>
    <tile gid="786"/>
    <tile gid="786"/>
    <tile gid="786"/>
    <tile gid="786"/>
    <tile gid="786"/>
    <tile gid="786"/>
    <tile gid="786"/>
    <tile gid="786"/>
    <tile gid="786"/>
    <tile gid="786"/>
    <tile gid="786"/>
    <tile gid="786"/>
    <tile gid="786"/>
    <tile gid="786"/>
    <tile gid="786"/>
    <tile gid="258"/>
    <tile gid="786"/>
    <tile gid="786"/>
    <tile gid="786"/>
    <tile gid="786"/>
    <tile gid="257"/>
    <tile gid="786"/>
    <tile gid="786"/>
    <tile gid="786"/>
    <tile gid="786"/>
    <tile gid="786"/>
    <tile gid="786"/>
    <tile gid="786"/>
    <tile gid="786"/>
    <tile gid="786"/>
    <tile gid="786"/>
    <tile gid="786"/>
    <tile gid="786"/>
    <tile gid="786"/>
    <tile gid="786"/>
    <tile gid="786"/>
    <tile gid="786"/>
    <tile gid="786"/>
    <tile gid="786"/>
    <tile gid="786"/>
    <tile gid="786"/>
    <tile gid="786"/>
    <tile gid="786"/>
    <tile gid="786"/>
    <tile gid="786"/>
    <tile gid="786"/>
    <tile gid="786"/>
    <tile gid="786"/>
    <tile gid="786"/>
    <tile gid="786"/>
    <tile gid="786"/>
    <tile gid="786"/>
    <tile gid="786"/>
    <tile gid="786"/>
    <tile gid="786"/>
    <tile gid="258"/>
    <tile gid="786"/>
    <tile gid="786"/>
    <tile gid="786"/>
    <tile gid="786"/>
    <tile gid="257"/>
    <tile gid="786"/>
    <tile gid="786"/>
    <tile gid="786"/>
    <tile gid="786"/>
    <tile gid="786"/>
    <tile gid="786"/>
    <tile gid="786"/>
    <tile gid="786"/>
    <tile gid="786"/>
    <tile gid="786"/>
    <tile gid="786"/>
    <tile gid="786"/>
    <tile gid="786"/>
    <tile gid="786"/>
    <tile gid="786"/>
    <tile gid="786"/>
    <tile gid="786"/>
    <tile gid="786"/>
    <tile gid="786"/>
    <tile gid="786"/>
    <tile gid="786"/>
    <tile gid="786"/>
    <tile gid="786"/>
    <tile gid="786"/>
    <tile gid="786"/>
    <tile gid="786"/>
    <tile gid="786"/>
    <tile gid="786"/>
    <tile gid="786"/>
    <tile gid="786"/>
    <tile gid="786"/>
    <tile gid="786"/>
    <tile gid="786"/>
    <tile gid="786"/>
    <tile gid="258"/>
    <tile gid="786"/>
    <tile gid="786"/>
    <tile gid="786"/>
    <tile gid="786"/>
    <tile gid="257"/>
    <tile gid="786"/>
    <tile gid="786"/>
    <tile gid="786"/>
    <tile gid="786"/>
    <tile gid="786"/>
    <tile gid="786"/>
    <tile gid="786"/>
    <tile gid="786"/>
    <tile gid="786"/>
    <tile gid="786"/>
    <tile gid="786"/>
    <tile gid="786"/>
    <tile gid="786"/>
    <tile gid="786"/>
    <tile gid="786"/>
    <tile gid="786"/>
    <tile gid="786"/>
    <tile gid="786"/>
    <tile gid="786"/>
    <tile gid="786"/>
    <tile gid="786"/>
    <tile gid="786"/>
    <tile gid="786"/>
    <tile gid="786"/>
    <tile gid="786"/>
    <tile gid="786"/>
    <tile gid="786"/>
    <tile gid="786"/>
    <tile gid="786"/>
    <tile gid="786"/>
    <tile gid="786"/>
    <tile gid="786"/>
    <tile gid="786"/>
    <tile gid="786"/>
    <tile gid="258"/>
    <tile gid="786"/>
    <tile gid="786"/>
    <tile gid="786"/>
    <tile gid="786"/>
    <tile gid="257"/>
    <tile gid="786"/>
    <tile gid="786"/>
    <tile gid="786"/>
    <tile gid="786"/>
    <tile gid="786"/>
    <tile gid="786"/>
    <tile gid="786"/>
    <tile gid="786"/>
    <tile gid="786"/>
    <tile gid="786"/>
    <tile gid="786"/>
    <tile gid="786"/>
    <tile gid="786"/>
    <tile gid="786"/>
    <tile gid="786"/>
    <tile gid="786"/>
    <tile gid="786"/>
    <tile gid="786"/>
    <tile gid="786"/>
    <tile gid="786"/>
    <tile gid="786"/>
    <tile gid="786"/>
    <tile gid="786"/>
    <tile gid="786"/>
    <tile gid="786"/>
    <tile gid="786"/>
    <tile gid="786"/>
    <tile gid="786"/>
    <tile gid="786"/>
    <tile gid="786"/>
    <tile gid="786"/>
    <tile gid="786"/>
    <tile gid="786"/>
    <tile gid="786"/>
    <tile gid="258"/>
    <tile gid="786"/>
    <tile gid="786"/>
    <tile gid="786"/>
    <tile gid="786"/>
    <tile gid="257"/>
    <tile gid="786"/>
    <tile gid="786"/>
    <tile gid="786"/>
    <tile gid="786"/>
    <tile gid="786"/>
    <tile gid="786"/>
    <tile gid="786"/>
    <tile gid="786"/>
    <tile gid="786"/>
    <tile gid="786"/>
    <tile gid="786"/>
    <tile gid="786"/>
    <tile gid="786"/>
    <tile gid="786"/>
    <tile gid="786"/>
    <tile gid="786"/>
    <tile gid="786"/>
    <tile gid="786"/>
    <tile gid="786"/>
    <tile gid="786"/>
    <tile gid="786"/>
    <tile gid="786"/>
    <tile gid="786"/>
    <tile gid="786"/>
    <tile gid="786"/>
    <tile gid="786"/>
    <tile gid="786"/>
    <tile gid="786"/>
    <tile gid="786"/>
    <tile gid="786"/>
    <tile gid="786"/>
    <tile gid="786"/>
    <tile gid="786"/>
    <tile gid="786"/>
    <tile gid="258"/>
    <tile gid="786"/>
    <tile gid="786"/>
    <tile gid="786"/>
    <tile gid="786"/>
    <tile gid="257"/>
    <tile gid="786"/>
    <tile gid="786"/>
    <tile gid="786"/>
    <tile gid="786"/>
    <tile gid="786"/>
    <tile gid="786"/>
    <tile gid="786"/>
    <tile gid="786"/>
    <tile gid="786"/>
    <tile gid="786"/>
    <tile gid="786"/>
    <tile gid="786"/>
    <tile gid="786"/>
    <tile gid="786"/>
    <tile gid="786"/>
    <tile gid="786"/>
    <tile gid="786"/>
    <tile gid="786"/>
    <tile gid="786"/>
    <tile gid="786"/>
    <tile gid="786"/>
    <tile gid="786"/>
    <tile gid="786"/>
    <tile gid="786"/>
    <tile gid="786"/>
    <tile gid="786"/>
    <tile gid="786"/>
    <tile gid="786"/>
    <tile gid="786"/>
    <tile gid="786"/>
    <tile gid="786"/>
    <tile gid="786"/>
    <tile gid="786"/>
    <tile gid="786"/>
    <tile gid="258"/>
    <tile gid="786"/>
    <tile gid="786"/>
    <tile gid="786"/>
    <tile gid="786"/>
    <tile gid="257"/>
    <tile gid="786"/>
    <tile gid="786"/>
    <tile gid="786"/>
    <tile gid="786"/>
    <tile gid="786"/>
    <tile gid="786"/>
    <tile gid="786"/>
    <tile gid="786"/>
    <tile gid="786"/>
    <tile gid="786"/>
    <tile gid="786"/>
    <tile gid="786"/>
    <tile gid="786"/>
    <tile gid="786"/>
    <tile gid="786"/>
    <tile gid="786"/>
    <tile gid="786"/>
    <tile gid="786"/>
    <tile gid="786"/>
    <tile gid="786"/>
    <tile gid="786"/>
    <tile gid="786"/>
    <tile gid="786"/>
    <tile gid="786"/>
    <tile gid="786"/>
    <tile gid="786"/>
    <tile gid="786"/>
    <tile gid="786"/>
    <tile gid="786"/>
    <tile gid="786"/>
    <tile gid="786"/>
    <tile gid="786"/>
    <tile gid="786"/>
    <tile gid="786"/>
    <tile gid="258"/>
    <tile gid="786"/>
    <tile gid="786"/>
    <tile gid="786"/>
    <tile gid="786"/>
    <tile gid="257"/>
    <tile gid="786"/>
    <tile gid="786"/>
    <tile gid="786"/>
    <tile gid="786"/>
    <tile gid="786"/>
    <tile gid="786"/>
    <tile gid="786"/>
    <tile gid="786"/>
    <tile gid="786"/>
    <tile gid="786"/>
    <tile gid="786"/>
    <tile gid="786"/>
    <tile gid="786"/>
    <tile gid="786"/>
    <tile gid="786"/>
    <tile gid="786"/>
    <tile gid="786"/>
    <tile gid="786"/>
    <tile gid="786"/>
    <tile gid="786"/>
    <tile gid="786"/>
    <tile gid="786"/>
    <tile gid="786"/>
    <tile gid="786"/>
    <tile gid="786"/>
    <tile gid="786"/>
    <tile gid="786"/>
    <tile gid="786"/>
    <tile gid="786"/>
    <tile gid="786"/>
    <tile gid="786"/>
    <tile gid="786"/>
    <tile gid="786"/>
    <tile gid="786"/>
    <tile gid="258"/>
    <tile gid="786"/>
    <tile gid="786"/>
    <tile gid="786"/>
    <tile gid="786"/>
    <tile gid="257"/>
    <tile gid="786"/>
    <tile gid="786"/>
    <tile gid="786"/>
    <tile gid="786"/>
    <tile gid="786"/>
    <tile gid="786"/>
    <tile gid="786"/>
    <tile gid="786"/>
    <tile gid="786"/>
    <tile gid="786"/>
    <tile gid="786"/>
    <tile gid="786"/>
    <tile gid="786"/>
    <tile gid="786"/>
    <tile gid="786"/>
    <tile gid="786"/>
    <tile gid="786"/>
    <tile gid="786"/>
    <tile gid="786"/>
    <tile gid="786"/>
    <tile gid="786"/>
    <tile gid="786"/>
    <tile gid="786"/>
    <tile gid="786"/>
    <tile gid="786"/>
    <tile gid="786"/>
    <tile gid="786"/>
    <tile gid="786"/>
    <tile gid="786"/>
    <tile gid="786"/>
    <tile gid="786"/>
    <tile gid="786"/>
    <tile gid="786"/>
    <tile gid="786"/>
    <tile gid="258"/>
    <tile gid="786"/>
    <tile gid="786"/>
    <tile gid="786"/>
    <tile gid="786"/>
    <tile gid="786"/>
    <tile gid="786"/>
    <tile gid="786"/>
    <tile gid="786"/>
    <tile gid="786"/>
    <tile gid="786"/>
    <tile gid="786"/>
    <tile gid="786"/>
    <tile gid="786"/>
    <tile gid="786"/>
    <tile gid="786"/>
    <tile gid="786"/>
    <tile gid="786"/>
    <tile gid="786"/>
    <tile gid="786"/>
    <tile gid="786"/>
    <tile gid="786"/>
    <tile gid="786"/>
    <tile gid="786"/>
    <tile gid="786"/>
    <tile gid="786"/>
    <tile gid="786"/>
    <tile gid="786"/>
    <tile gid="786"/>
    <tile gid="786"/>
    <tile gid="786"/>
    <tile gid="786"/>
    <tile gid="786"/>
    <tile gid="786"/>
    <tile gid="786"/>
    <tile gid="786"/>
    <tile gid="786"/>
    <tile gid="786"/>
    <tile gid="786"/>
    <tile gid="786"/>
    <tile gid="786"/>
    <tile gid="786"/>
    <tile gid="786"/>
    <tile gid="786"/>
    <tile gid="786"/>
    <tile gid="786"/>
    <tile gid="786"/>
    <tile gid="786"/>
    <tile gid="786"/>
    <tile gid="786"/>
    <tile gid="786"/>
    <tile gid="786"/>
    <tile gid="786"/>
    <tile gid="786"/>
    <tile gid="786"/>
    <tile gid="786"/>
    <tile gid="786"/>
    <tile gid="786"/>
    <tile gid="786"/>
    <tile gid="786"/>
    <tile gid="786"/>
    <tile gid="786"/>
    <tile gid="786"/>
    <tile gid="786"/>
    <tile gid="786"/>
    <tile gid="786"/>
    <tile gid="786"/>
    <tile gid="786"/>
    <tile gid="786"/>
    <tile gid="786"/>
    <tile gid="786"/>
    <tile gid="786"/>
    <tile gid="786"/>
    <tile gid="786"/>
    <tile gid="786"/>
    <tile gid="786"/>
    <tile gid="786"/>
    <tile gid="786"/>
    <tile gid="786"/>
    <tile gid="786"/>
    <tile gid="786"/>
    <tile gid="786"/>
    <tile gid="786"/>
    <tile gid="786"/>
    <tile gid="786"/>
    <tile gid="786"/>
    <tile gid="786"/>
    <tile gid="786"/>
    <tile gid="786"/>
    <tile gid="786"/>
    <tile gid="786"/>
    <tile gid="786"/>
    <tile gid="786"/>
    <tile gid="786"/>
    <tile gid="786"/>
    <tile gid="786"/>
    <tile gid="786"/>
    <tile gid="786"/>
    <tile gid="786"/>
    <tile gid="786"/>
    <tile gid="786"/>
    <tile gid="786"/>
    <tile gid="786"/>
    <tile gid="786"/>
    <tile gid="786"/>
    <tile gid="786"/>
    <tile gid="786"/>
    <tile gid="786"/>
    <tile gid="786"/>
    <tile gid="786"/>
    <tile gid="786"/>
    <tile gid="786"/>
    <tile gid="786"/>
    <tile gid="786"/>
    <tile gid="786"/>
    <tile gid="786"/>
    <tile gid="786"/>
    <tile gid="786"/>
    <tile gid="786"/>
    <tile gid="786"/>
    <tile gid="786"/>
    <tile gid="786"/>
    <tile gid="786"/>
   </data>
  </layer>
 </group>
 <layer id="5" name="wall_coll" width="40" height="30">
  <data>
   <tile gid="786"/>
   <tile gid="786"/>
   <tile gid="786"/>
   <tile gid="786"/>
   <tile gid="786"/>
   <tile gid="786"/>
   <tile gid="786"/>
   <tile gid="786"/>
   <tile gid="786"/>
   <tile gid="786"/>
   <tile gid="786"/>
   <tile gid="786"/>
   <tile gid="786"/>
   <tile gid="786"/>
   <tile gid="786"/>
   <tile gid="786"/>
   <tile gid="786"/>
   <tile gid="786"/>
   <tile gid="786"/>
   <tile gid="786"/>
   <tile gid="786"/>
   <tile gid="786"/>
   <tile gid="786"/>
   <tile gid="786"/>
   <tile gid="786"/>
   <tile gid="786"/>
   <tile gid="786"/>
   <tile gid="786"/>
   <tile gid="786"/>
   <tile gid="786"/>
   <tile gid="786"/>
   <tile gid="786"/>
   <tile gid="786"/>
   <tile gid="786"/>
   <tile gid="786"/>
   <tile gid="786"/>
   <tile gid="786"/>
   <tile gid="786"/>
   <tile gid="786"/>
   <tile gid="786"/>
   <tile gid="786"/>
   <tile gid="786"/>
   <tile gid="786"/>
   <tile gid="786"/>
   <tile gid="786"/>
   <tile gid="786"/>
   <tile gid="786"/>
   <tile gid="786"/>
   <tile gid="786"/>
   <tile gid="786"/>
   <tile gid="786"/>
   <tile gid="786"/>
   <tile gid="786"/>
   <tile gid="786"/>
   <tile gid="786"/>
   <tile gid="786"/>
   <tile gid="786"/>
   <tile gid="786"/>
   <tile gid="786"/>
   <tile gid="786"/>
   <tile gid="786"/>
   <tile gid="786"/>
   <tile gid="786"/>
   <tile gid="786"/>
   <tile gid="786"/>
   <tile gid="786"/>
   <tile gid="786"/>
   <tile gid="786"/>
   <tile gid="786"/>
   <tile gid="786"/>
   <tile gid="786"/>
   <tile gid="786"/>
   <tile gid="786"/>
   <tile gid="786"/>
   <tile gid="786"/>
   <tile gid="786"/>
   <tile gid="786"/>
   <tile gid="786"/>
   <tile gid="786"/>
   <tile gid="786"/>
   <tile gid="786"/>
   <tile gid="786"/>
   <tile gid="786"/>
   <tile gid="786"/>
   <tile gid="786"/>
   <tile gid="786"/>
   <tile gid="786"/>
   <tile gid="786"/>
   <tile gid="786"/>
   <tile gid="786"/>
   <tile gid="786"/>
   <tile gid="786"/>
   <tile gid="786"/>
   <tile gid="786"/>
   <tile gid="786"/>
   <tile gid="786"/>
   <tile gid="786"/>
   <tile gid="786"/>
   <tile gid="786"/>
   <tile gid="786"/>
   <tile gid="786"/>
   <tile gid="786"/>
   <tile gid="786"/>
   <tile gid="786"/>
   <tile gid="786"/>
   <tile gid="786"/>
   <tile gid="786"/>
   <tile gid="786"/>
   <tile gid="786"/>
   <tile gid="786"/>
   <tile gid="786"/>
   <tile gid="786"/>
   <tile gid="786"/>
   <tile gid="786"/>
   <tile gid="786"/>
   <tile gid="786"/>
   <tile gid="786"/>
   <tile gid="786"/>
   <tile gid="786"/>
   <tile gid="786"/>
   <tile gid="786"/>
   <tile gid="786"/>
   <tile gid="387"/>
   <tile gid="387"/>
   <tile gid="387"/>
   <tile gid="387"/>
   <tile gid="387"/>
   <tile gid="387"/>
   <tile gid="387"/>
   <tile gid="387"/>
   <tile gid="387"/>
   <tile gid="387"/>
   <tile gid="387"/>
   <tile gid="387"/>
   <tile gid="387"/>
   <tile gid="387"/>
   <tile gid="387"/>
   <tile gid="387"/>
   <tile gid="387"/>
   <tile gid="387"/>
   <tile gid="387"/>
   <tile gid="387"/>
   <tile gid="387"/>
   <tile gid="387"/>
   <tile gid="387"/>
   <tile gid="387"/>
   <tile gid="387"/>
   <tile gid="387"/>
   <tile gid="387"/>
   <tile gid="387"/>
   <tile gid="387"/>
   <tile gid="387"/>
   <tile gid="387"/>
   <tile gid="387"/>
   <tile gid="387"/>
   <tile gid="387"/>
   <tile gid="387"/>
   <tile gid="387"/>
   <tile gid="786"/>
   <tile gid="786"/>
   <tile gid="786"/>
   <tile gid="786"/>
   <tile gid="387"/>
   <tile gid="786"/>
   <tile gid="786"/>
   <tile gid="786"/>
   <tile gid="786"/>
   <tile gid="786"/>
   <tile gid="786"/>
   <tile gid="786"/>
   <tile gid="786"/>
   <tile gid="786"/>
   <tile gid="786"/>
   <tile gid="786"/>
   <tile gid="786"/>
   <tile gid="786"/>
   <tile gid="786"/>
   <tile gid="786"/>
   <tile gid="786"/>
   <tile gid="786"/>
   <tile gid="786"/>
   <tile gid="786"/>
   <tile gid="786"/>
   <tile gid="786"/>
   <tile gid="786"/>
   <tile gid="786"/>
   <tile gid="786"/>
   <tile gid="786"/>
   <tile gid="786"/>
   <tile gid="786"/>
   <tile gid="786"/>
   <tile gid="786"/>
   <tile gid="786"/>
   <tile gid="786"/>
   <tile gid="786"/>
   <tile gid="786"/>
   <tile gid="786"/>
   <tile gid="387"/>
   <tile gid="786"/>
   <tile gid="786"/>
   <tile gid="786"/>
   <tile gid="786"/>
   <tile gid="387"/>
   <tile gid="786"/>
   <tile gid="786"/>
   <tile gid="786"/>
   <tile gid="786"/>
   <tile gid="786"/>
   <tile gid="786"/>
   <tile gid="786"/>
   <tile gid="786"/>
   <tile gid="786"/>
   <tile gid="786"/>
   <tile gid="786"/>
   <tile gid="786"/>
   <tile gid="786"/>
   <tile gid="786"/>
   <tile gid="786"/>
   <tile gid="786"/>
   <tile gid="786"/>
   <tile gid="786"/>
   <tile gid="786"/>
   <tile gid="786"/>
   <tile gid="786"/>
   <tile gid="786"/>
   <tile gid="786"/>
   <tile gid="786"/>
   <tile gid="786"/>
   <tile gid="786"/>
   <tile gid="786"/>
   <tile gid="786"/>
   <tile gid="786"/>
   <tile gid="786"/>
   <tile gid="786"/>
   <tile gid="786"/>
   <tile gid="786"/>
   <tile gid="786"/>
   <tile gid="387"/>
   <tile gid="786"/>
   <tile gid="786"/>
   <tile gid="786"/>
   <tile gid="786"/>
   <tile gid="387"/>
   <tile gid="786"/>
   <tile gid="786"/>
   <tile gid="786"/>
   <tile gid="786"/>
   <tile gid="786"/>
   <tile gid="786"/>
   <tile gid="786"/>
   <tile gid="786"/>
   <tile gid="786"/>
   <tile gid="786"/>
   <tile gid="786"/>
   <tile gid="786"/>
   <tile gid="786"/>
   <tile gid="786"/>
   <tile gid="786"/>
   <tile gid="786"/>
   <tile gid="786"/>
   <tile gid="786"/>
   <tile gid="786"/>
   <tile gid="786"/>
   <tile gid="786"/>
   <tile gid="786"/>
   <tile gid="786"/>
   <tile gid="786"/>
   <tile gid="786"/>
   <tile gid="786"/>
   <tile gid="786"/>
   <tile gid="786"/>
   <tile gid="786"/>
   <tile gid="786"/>
   <tile gid="786"/>
   <tile gid="786"/>
   <tile gid="786"/>
   <tile gid="786"/>
   <tile gid="387"/>
   <tile gid="786"/>
   <tile gid="786"/>
   <tile gid="786"/>
   <tile gid="786"/>
   <tile gid="387"/>
   <tile gid="786"/>
   <tile gid="786"/>
   <tile gid="786"/>
   <tile gid="786"/>
   <tile gid="786"/>
   <tile gid="786"/>
   <tile gid="786"/>
   <tile gid="786"/>
   <tile gid="786"/>
   <tile gid="786"/>
   <tile gid="786"/>
   <tile gid="786"/>
   <tile gid="786"/>
   <tile gid="786"/>
   <tile gid="786"/>
   <tile gid="786"/>
   <tile gid="786"/>
   <tile gid="786"/>
   <tile gid="786"/>
   <tile gid="786"/>
   <tile gid="786"/>
   <tile gid="786"/>
   <tile gid="786"/>
   <tile gid="786"/>
   <tile gid="786"/>
   <tile gid="786"/>
   <tile gid="786"/>
   <tile gid="786"/>
   <tile gid="786"/>
   <tile gid="786"/>
   <tile gid="786"/>
   <tile gid="786"/>
   <tile gid="786"/>
   <tile gid="786"/>
   <tile gid="387"/>
   <tile gid="786"/>
   <tile gid="786"/>
   <tile gid="786"/>
   <tile gid="786"/>
   <tile gid="387"/>
   <tile gid="786"/>
   <tile gid="786"/>
   <tile gid="786"/>
   <tile gid="786"/>
   <tile gid="786"/>
   <tile gid="786"/>
   <tile gid="786"/>
   <tile gid="786"/>
   <tile gid="786"/>
   <tile gid="786"/>
   <tile gid="786"/>
   <tile gid="786"/>
   <tile gid="786"/>
   <tile gid="786"/>
   <tile gid="786"/>
   <tile gid="786"/>
   <tile gid="786"/>
   <tile gid="786"/>
   <tile gid="786"/>
   <tile gid="786"/>
   <tile gid="786"/>
   <tile gid="786"/>
   <tile gid="786"/>
   <tile gid="786"/>
   <tile gid="786"/>
   <tile gid="786"/>
   <tile gid="786"/>
   <tile gid="786"/>
   <tile gid="786"/>
   <tile gid="786"/>
   <tile gid="786"/>
   <tile gid="786"/>
   <tile gid="786"/>
   <tile gid="786"/>
   <tile gid="387"/>
   <tile gid="786"/>
   <tile gid="786"/>
   <tile gid="786"/>
   <tile gid="786"/>
   <tile gid="387"/>
   <tile gid="786"/>
   <tile gid="786"/>
   <tile gid="786"/>
   <tile gid="786"/>
   <tile gid="786"/>
   <tile gid="786"/>
   <tile gid="786"/>
   <tile gid="786"/>
   <tile gid="786"/>
   <tile gid="786"/>
   <tile gid="786"/>
   <tile gid="786"/>
   <tile gid="786"/>
   <tile gid="786"/>
   <tile gid="786"/>
   <tile gid="786"/>
   <tile gid="786"/>
   <tile gid="786"/>
   <tile gid="786"/>
   <tile gid="786"/>
   <tile gid="786"/>
   <tile gid="786"/>
   <tile gid="786"/>
   <tile gid="786"/>
   <tile gid="786"/>
   <tile gid="786"/>
   <tile gid="786"/>
   <tile gid="786"/>
   <tile gid="786"/>
   <tile gid="786"/>
   <tile gid="786"/>
   <tile gid="786"/>
   <tile gid="786"/>
   <tile gid="786"/>
   <tile gid="387"/>
   <tile gid="786"/>
   <tile gid="786"/>
   <tile gid="786"/>
   <tile gid="786"/>
   <tile gid="387"/>
   <tile gid="786"/>
   <tile gid="786"/>
   <tile gid="786"/>
   <tile gid="786"/>
   <tile gid="786"/>
   <tile gid="786"/>
   <tile gid="786"/>
   <tile gid="786"/>
   <tile gid="786"/>
   <tile gid="786"/>
   <tile gid="786"/>
   <tile gid="786"/>
   <tile gid="786"/>
   <tile gid="786"/>
   <tile gid="786"/>
   <tile gid="786"/>
   <tile gid="786"/>
   <tile gid="786"/>
   <tile gid="786"/>
   <tile gid="786"/>
   <tile gid="786"/>
   <tile gid="786"/>
   <tile gid="786"/>
   <tile gid="786"/>
   <tile gid="786"/>
   <tile gid="786"/>
   <tile gid="786"/>
   <tile gid="786"/>
   <tile gid="786"/>
   <tile gid="786"/>
   <tile gid="786"/>
   <tile gid="786"/>
   <tile gid="786"/>
   <tile gid="786"/>
   <tile gid="387"/>
   <tile gid="786"/>
   <tile gid="786"/>
   <tile gid="786"/>
   <tile gid="786"/>
   <tile gid="387"/>
   <tile gid="786"/>
   <tile gid="786"/>
   <tile gid="786"/>
   <tile gid="786"/>
   <tile gid="786"/>
   <tile gid="786"/>
   <tile gid="786"/>
   <tile gid="786"/>
   <tile gid="786"/>
   <tile gid="786"/>
   <tile gid="786"/>
   <tile gid="786"/>
   <tile gid="786"/>
   <tile gid="786"/>
   <tile gid="786"/>
   <tile gid="786"/>
   <tile gid="786"/>
   <tile gid="786"/>
   <tile gid="786"/>
   <tile gid="786"/>
   <tile gid="786"/>
   <tile gid="786"/>
   <tile gid="786"/>
   <tile gid="786"/>
   <tile gid="786"/>
   <tile gid="786"/>
   <tile gid="786"/>
   <tile gid="786"/>
   <tile gid="786"/>
   <tile gid="786"/>
   <tile gid="786"/>
   <tile gid="786"/>
   <tile gid="786"/>
   <tile gid="786"/>
   <tile gid="387"/>
   <tile gid="786"/>
   <tile gid="786"/>
   <tile gid="786"/>
   <tile gid="786"/>
   <tile gid="387"/>
   <tile gid="786"/>
   <tile gid="786"/>
   <tile gid="786"/>
   <tile gid="786"/>
   <tile gid="786"/>
   <tile gid="786"/>
   <tile gid="786"/>
   <tile gid="786"/>
   <tile gid="786"/>
   <tile gid="786"/>
   <tile gid="786"/>
   <tile gid="786"/>
   <tile gid="786"/>
   <tile gid="786"/>
   <tile gid="786"/>
   <tile gid="786"/>
   <tile gid="786"/>
   <tile gid="786"/>
   <tile gid="786"/>
   <tile gid="786"/>
   <tile gid="786"/>
   <tile gid="786"/>
   <tile gid="786"/>
   <tile gid="786"/>
   <tile gid="786"/>
   <tile gid="786"/>
   <tile gid="786"/>
   <tile gid="786"/>
   <tile gid="786"/>
   <tile gid="786"/>
   <tile gid="786"/>
   <tile gid="786"/>
   <tile gid="786"/>
   <tile gid="786"/>
   <tile gid="387"/>
   <tile gid="786"/>
   <tile gid="786"/>
   <tile gid="786"/>
   <tile gid="786"/>
   <tile gid="387"/>
   <tile gid="786"/>
   <tile gid="786"/>
   <tile gid="786"/>
   <tile gid="786"/>
   <tile gid="786"/>
   <tile gid="786"/>
   <tile gid="786"/>
   <tile gid="786"/>
   <tile gid="786"/>
   <tile gid="786"/>
   <tile gid="786"/>
   <tile gid="786"/>
   <tile gid="786"/>
   <tile gid="786"/>
   <tile gid="786"/>
   <tile gid="786"/>
   <tile gid="786"/>
   <tile gid="786"/>
   <tile gid="786"/>
   <tile gid="786"/>
   <tile gid="786"/>
   <tile gid="786"/>
   <tile gid="786"/>
   <tile gid="786"/>
   <tile gid="786"/>
   <tile gid="786"/>
   <tile gid="786"/>
   <tile gid="786"/>
   <tile gid="786"/>
   <tile gid="786"/>
   <tile gid="786"/>
   <tile gid="786"/>
   <tile gid="786"/>
   <tile gid="786"/>
   <tile gid="387"/>
   <tile gid="786"/>
   <tile gid="786"/>
   <tile gid="786"/>
   <tile gid="786"/>
   <tile gid="387"/>
   <tile gid="786"/>
   <tile gid="786"/>
   <tile gid="786"/>
   <tile gid="786"/>
   <tile gid="786"/>
   <tile gid="786"/>
   <tile gid="786"/>
   <tile gid="786"/>
   <tile gid="786"/>
   <tile gid="786"/>
   <tile gid="786"/>
   <tile gid="786"/>
   <tile gid="786"/>
   <tile gid="786"/>
   <tile gid="786"/>
   <tile gid="786"/>
   <tile gid="786"/>
   <tile gid="786"/>
   <tile gid="786"/>
   <tile gid="786"/>
   <tile gid="786"/>
   <tile gid="786"/>
   <tile gid="786"/>
   <tile gid="786"/>
   <tile gid="786"/>
   <tile gid="786"/>
   <tile gid="786"/>
   <tile gid="786"/>
   <tile gid="786"/>
   <tile gid="786"/>
   <tile gid="786"/>
   <tile gid="786"/>
   <tile gid="786"/>
   <tile gid="786"/>
   <tile gid="387"/>
   <tile gid="786"/>
   <tile gid="786"/>
   <tile gid="786"/>
   <tile gid="786"/>
   <tile gid="387"/>
   <tile gid="786"/>
   <tile gid="786"/>
   <tile gid="786"/>
   <tile gid="786"/>
   <tile gid="786"/>
   <tile gid="786"/>
   <tile gid="786"/>
   <tile gid="786"/>
   <tile gid="786"/>
   <tile gid="786"/>
   <tile gid="786"/>
   <tile gid="786"/>
   <tile gid="786"/>
   <tile gid="786"/>
   <tile gid="786"/>
   <tile gid="786"/>
   <tile gid="786"/>
   <tile gid="786"/>
   <tile gid="786"/>
   <tile gid="786"/>
   <tile gid="786"/>
   <tile gid="786"/>
   <tile gid="786"/>
   <tile gid="786"/>
   <tile gid="786"/>
   <tile gid="786"/>
   <tile gid="786"/>
   <tile gid="786"/>
   <tile gid="786"/>
   <tile gid="786"/>
   <tile gid="786"/>
   <tile gid="786"/>
   <tile gid="786"/>
   <tile gid="786"/>
   <tile gid="387"/>
   <tile gid="786"/>
   <tile gid="786"/>
   <tile gid="786"/>
   <tile gid="786"/>
   <tile gid="387"/>
   <tile gid="786"/>
   <tile gid="786"/>
   <tile gid="786"/>
   <tile gid="786"/>
   <tile gid="786"/>
   <tile gid="786"/>
   <tile gid="786"/>
   <tile gid="786"/>
   <tile gid="786"/>
   <tile gid="786"/>
   <tile gid="786"/>
   <tile gid="786"/>
   <tile gid="786"/>
   <tile gid="786"/>
   <tile gid="786"/>
   <tile gid="786"/>
   <tile gid="786"/>
   <tile gid="786"/>
   <tile gid="786"/>
   <tile gid="786"/>
   <tile gid="786"/>
   <tile gid="786"/>
   <tile gid="786"/>
   <tile gid="786"/>
   <tile gid="786"/>
   <tile gid="786"/>
   <tile gid="786"/>
   <tile gid="786"/>
   <tile gid="786"/>
   <tile gid="786"/>
   <tile gid="786"/>
   <tile gid="786"/>
   <tile gid="786"/>
   <tile gid="786"/>
   <tile gid="387"/>
   <tile gid="786"/>
   <tile gid="786"/>
   <tile gid="786"/>
   <tile gid="786"/>
   <tile gid="387"/>
   <tile gid="786"/>
   <tile gid="786"/>
   <tile gid="786"/>
   <tile gid="786"/>
   <tile gid="786"/>
   <tile gid="786"/>
   <tile gid="786"/>
   <tile gid="786"/>
   <tile gid="786"/>
   <tile gid="786"/>
   <tile gid="786"/>
   <tile gid="786"/>
   <tile gid="786"/>
   <tile gid="786"/>
   <tile gid="786"/>
   <tile gid="786"/>
   <tile gid="786"/>
   <tile gid="786"/>
   <tile gid="786"/>
   <tile gid="786"/>
   <tile gid="786"/>
   <tile gid="786"/>
   <tile gid="786"/>
   <tile gid="786"/>
   <tile gid="786"/>
   <tile gid="786"/>
   <tile gid="786"/>
   <tile gid="786"/>
   <tile gid="786"/>
   <tile gid="786"/>
   <tile gid="786"/>
   <tile gid="786"/>
   <tile gid="786"/>
   <tile gid="786"/>
   <tile gid="387"/>
   <tile gid="786"/>
   <tile gid="786"/>
   <tile gid="786"/>
   <tile gid="786"/>
   <tile gid="387"/>
   <tile gid="786"/>
   <tile gid="786"/>
   <tile gid="786"/>
   <tile gid="786"/>
   <tile gid="786"/>
   <tile gid="786"/>
   <tile gid="786"/>
   <tile gid="786"/>
   <tile gid="786"/>
   <tile gid="786"/>
   <tile gid="786"/>
   <tile gid="786"/>
   <tile gid="786"/>
   <tile gid="786"/>
   <tile gid="786"/>
   <tile gid="786"/>
   <tile gid="786"/>
   <tile gid="786"/>
   <tile gid="786"/>
   <tile gid="786"/>
   <tile gid="786"/>
   <tile gid="786"/>
   <tile gid="786"/>
   <tile gid="786"/>
   <tile gid="786"/>
   <tile gid="786"/>
   <tile gid="786"/>
   <tile gid="786"/>
   <tile gid="786"/>
   <tile gid="786"/>
   <tile gid="786"/>
   <tile gid="786"/>
   <tile gid="786"/>
   <tile gid="786"/>
   <tile gid="387"/>
   <tile gid="786"/>
   <tile gid="786"/>
   <tile gid="786"/>
   <tile gid="786"/>
   <tile gid="387"/>
   <tile gid="786"/>
   <tile gid="786"/>
   <tile gid="786"/>
   <tile gid="786"/>
   <tile gid="786"/>
   <tile gid="786"/>
   <tile gid="786"/>
   <tile gid="786"/>
   <tile gid="786"/>
   <tile gid="786"/>
   <tile gid="786"/>
   <tile gid="786"/>
   <tile gid="786"/>
   <tile gid="786"/>
   <tile gid="786"/>
   <tile gid="786"/>
   <tile gid="786"/>
   <tile gid="786"/>
   <tile gid="786"/>
   <tile gid="786"/>
   <tile gid="786"/>
   <tile gid="786"/>
   <tile gid="786"/>
   <tile gid="786"/>
   <tile gid="786"/>
   <tile gid="786"/>
   <tile gid="786"/>
   <tile gid="786"/>
   <tile gid="786"/>
   <tile gid="786"/>
   <tile gid="786"/>
   <tile gid="786"/>
   <tile gid="786"/>
   <tile gid="786"/>
   <tile gid="387"/>
   <tile gid="786"/>
   <tile gid="786"/>
   <tile gid="786"/>
   <tile gid="786"/>
   <tile gid="387"/>
   <tile gid="786"/>
   <tile gid="786"/>
   <tile gid="786"/>
   <tile gid="786"/>
   <tile gid="786"/>
   <tile gid="786"/>
   <tile gid="786"/>
   <tile gid="786"/>
   <tile gid="786"/>
   <tile gid="786"/>
   <tile gid="786"/>
   <tile gid="786"/>
   <tile gid="786"/>
   <tile gid="786"/>
   <tile gid="786"/>
   <tile gid="786"/>
   <tile gid="786"/>
   <tile gid="786"/>
   <tile gid="786"/>
   <tile gid="786"/>
   <tile gid="786"/>
   <tile gid="786"/>
   <tile gid="786"/>
   <tile gid="786"/>
   <tile gid="786"/>
   <tile gid="786"/>
   <tile gid="786"/>
   <tile gid="786"/>
   <tile gid="786"/>
   <tile gid="786"/>
   <tile gid="786"/>
   <tile gid="786"/>
   <tile gid="786"/>
   <tile gid="786"/>
   <tile gid="387"/>
   <tile gid="786"/>
   <tile gid="786"/>
   <tile gid="786"/>
   <tile gid="786"/>
   <tile gid="387"/>
   <tile gid="786"/>
   <tile gid="786"/>
   <tile gid="786"/>
   <tile gid="786"/>
   <tile gid="786"/>
   <tile gid="786"/>
   <tile gid="786"/>
   <tile gid="786"/>
   <tile gid="786"/>
   <tile gid="786"/>
   <tile gid="786"/>
   <tile gid="786"/>
   <tile gid="786"/>
   <tile gid="786"/>
   <tile gid="786"/>
   <tile gid="786"/>
   <tile gid="786"/>
   <tile gid="786"/>
   <tile gid="786"/>
   <tile gid="786"/>
   <tile gid="786"/>
   <tile gid="786"/>
   <tile gid="786"/>
   <tile gid="786"/>
   <tile gid="786"/>
   <tile gid="786"/>
   <tile gid="786"/>
   <tile gid="786"/>
   <tile gid="786"/>
   <tile gid="786"/>
   <tile gid="786"/>
   <tile gid="786"/>
   <tile gid="786"/>
   <tile gid="786"/>
   <tile gid="387"/>
   <tile gid="786"/>
   <tile gid="786"/>
   <tile gid="786"/>
   <tile gid="786"/>
   <tile gid="387"/>
   <tile gid="786"/>
   <tile gid="786"/>
   <tile gid="786"/>
   <tile gid="786"/>
   <tile gid="786"/>
   <tile gid="786"/>
   <tile gid="786"/>
   <tile gid="786"/>
   <tile gid="786"/>
   <tile gid="786"/>
   <tile gid="786"/>
   <tile gid="786"/>
   <tile gid="786"/>
   <tile gid="786"/>
   <tile gid="786"/>
   <tile gid="786"/>
   <tile gid="786"/>
   <tile gid="786"/>
   <tile gid="786"/>
   <tile gid="786"/>
   <tile gid="786"/>
   <tile gid="786"/>
   <tile gid="786"/>
   <tile gid="786"/>
   <tile gid="786"/>
   <tile gid="786"/>
   <tile gid="786"/>
   <tile gid="786"/>
   <tile gid="786"/>
   <tile gid="786"/>
   <tile gid="786"/>
   <tile gid="786"/>
   <tile gid="786"/>
   <tile gid="786"/>
   <tile gid="387"/>
   <tile gid="786"/>
   <tile gid="786"/>
   <tile gid="786"/>
   <tile gid="786"/>
   <tile gid="387"/>
   <tile gid="786"/>
   <tile gid="786"/>
   <tile gid="786"/>
   <tile gid="786"/>
   <tile gid="786"/>
   <tile gid="786"/>
   <tile gid="786"/>
   <tile gid="786"/>
   <tile gid="786"/>
   <tile gid="786"/>
   <tile gid="786"/>
   <tile gid="786"/>
   <tile gid="786"/>
   <tile gid="786"/>
   <tile gid="786"/>
   <tile gid="786"/>
   <tile gid="786"/>
   <tile gid="786"/>
   <tile gid="786"/>
   <tile gid="786"/>
   <tile gid="786"/>
   <tile gid="786"/>
   <tile gid="786"/>
   <tile gid="786"/>
   <tile gid="786"/>
   <tile gid="786"/>
   <tile gid="786"/>
   <tile gid="786"/>
   <tile gid="786"/>
   <tile gid="786"/>
   <tile gid="786"/>
   <tile gid="786"/>
   <tile gid="786"/>
   <tile gid="786"/>
   <tile gid="387"/>
   <tile gid="786"/>
   <tile gid="786"/>
   <tile gid="786"/>
   <tile gid="786"/>
   <tile gid="387"/>
   <tile gid="786"/>
   <tile gid="786"/>
   <tile gid="786"/>
   <tile gid="786"/>
   <tile gid="786"/>
   <tile gid="786"/>
   <tile gid="786"/>
   <tile gid="786"/>
   <tile gid="786"/>
   <tile gid="786"/>
   <tile gid="786"/>
   <tile gid="786"/>
   <tile gid="786"/>
   <tile gid="786"/>
   <tile gid="786"/>
   <tile gid="786"/>
   <tile gid="786"/>
   <tile gid="786"/>
   <tile gid="786"/>
   <tile gid="786"/>
   <tile gid="786"/>
   <tile gid="786"/>
   <tile gid="786"/>
   <tile gid="786"/>
   <tile gid="786"/>
   <tile gid="786"/>
   <tile gid="786"/>
   <tile gid="786"/>
   <tile gid="786"/>
   <tile gid="786"/>
   <tile gid="786"/>
   <tile gid="786"/>
   <tile gid="786"/>
   <tile gid="786"/>
   <tile gid="387"/>
   <tile gid="786"/>
   <tile gid="786"/>
   <tile gid="786"/>
   <tile gid="786"/>
   <tile gid="387"/>
   <tile gid="786"/>
   <tile gid="786"/>
   <tile gid="786"/>
   <tile gid="786"/>
   <tile gid="786"/>
   <tile gid="786"/>
   <tile gid="786"/>
   <tile gid="786"/>
   <tile gid="786"/>
   <tile gid="786"/>
   <tile gid="786"/>
   <tile gid="786"/>
   <tile gid="786"/>
   <tile gid="786"/>
   <tile gid="786"/>
   <tile gid="786"/>
   <tile gid="786"/>
   <tile gid="786"/>
   <tile gid="786"/>
   <tile gid="786"/>
   <tile gid="786"/>
   <tile gid="786"/>
   <tile gid="786"/>
   <tile gid="786"/>
   <tile gid="786"/>
   <tile gid="786"/>
   <tile gid="786"/>
   <tile gid="786"/>
   <tile gid="786"/>
   <tile gid="786"/>
   <tile gid="786"/>
   <tile gid="786"/>
   <tile gid="786"/>
   <tile gid="786"/>
   <tile gid="387"/>
   <tile gid="786"/>
   <tile gid="786"/>
   <tile gid="786"/>
   <tile gid="786"/>
   <tile gid="387"/>
   <tile gid="786"/>
   <tile gid="786"/>
   <tile gid="786"/>
   <tile gid="786"/>
   <tile gid="786"/>
   <tile gid="786"/>
   <tile gid="786"/>
   <tile gid="786"/>
   <tile gid="786"/>
   <tile gid="786"/>
   <tile gid="786"/>
   <tile gid="786"/>
   <tile gid="786"/>
   <tile gid="786"/>
   <tile gid="786"/>
   <tile gid="786"/>
   <tile gid="786"/>
   <tile gid="786"/>
   <tile gid="786"/>
   <tile gid="786"/>
   <tile gid="786"/>
   <tile gid="786"/>
   <tile gid="786"/>
   <tile gid="786"/>
   <tile gid="786"/>
   <tile gid="786"/>
   <tile gid="786"/>
   <tile gid="786"/>
   <tile gid="786"/>
   <tile gid="786"/>
   <tile gid="786"/>
   <tile gid="786"/>
   <tile gid="786"/>
   <tile gid="786"/>
   <tile gid="387"/>
   <tile gid="786"/>
   <tile gid="786"/>
   <tile gid="786"/>
   <tile gid="786"/>
   <tile gid="387"/>
   <tile gid="387"/>
   <tile gid="387"/>
   <tile gid="387"/>
   <tile gid="387"/>
   <tile gid="387"/>
   <tile gid="387"/>
   <tile gid="387"/>
   <tile gid="387"/>
   <tile gid="387"/>
   <tile gid="387"/>
   <tile gid="387"/>
   <tile gid="387"/>
   <tile gid="387"/>
   <tile gid="387"/>
   <tile gid="387"/>
   <tile gid="387"/>
   <tile gid="387"/>
   <tile gid="387"/>
   <tile gid="387"/>
   <tile gid="387"/>
   <tile gid="387"/>
   <tile gid="387"/>
   <tile gid="387"/>
   <tile gid="387"/>
   <tile gid="387"/>
   <tile gid="387"/>
   <tile gid="387"/>
   <tile gid="387"/>
   <tile gid="387"/>
   <tile gid="387"/>
   <tile gid="387"/>
   <tile gid="387"/>
   <tile gid="387"/>
   <tile gid="387"/>
   <tile gid="387"/>
   <tile gid="786"/>
   <tile gid="786"/>
   <tile gid="786"/>
   <tile gid="786"/>
   <tile gid="786"/>
   <tile gid="786"/>
   <tile gid="786"/>
   <tile gid="786"/>
   <tile gid="786"/>
   <tile gid="786"/>
   <tile gid="786"/>
   <tile gid="786"/>
   <tile gid="786"/>
   <tile gid="786"/>
   <tile gid="786"/>
   <tile gid="786"/>
   <tile gid="786"/>
   <tile gid="786"/>
   <tile gid="786"/>
   <tile gid="786"/>
   <tile gid="786"/>
   <tile gid="786"/>
   <tile gid="786"/>
   <tile gid="786"/>
   <tile gid="786"/>
   <tile gid="786"/>
   <tile gid="786"/>
   <tile gid="786"/>
   <tile gid="786"/>
   <tile gid="786"/>
   <tile gid="786"/>
   <tile gid="786"/>
   <tile gid="786"/>
   <tile gid="786"/>
   <tile gid="786"/>
   <tile gid="786"/>
   <tile gid="786"/>
   <tile gid="786"/>
   <tile gid="786"/>
   <tile gid="786"/>
   <tile gid="786"/>
   <tile gid="786"/>
   <tile gid="786"/>
   <tile gid="786"/>
   <tile gid="786"/>
   <tile gid="786"/>
   <tile gid="786"/>
   <tile gid="786"/>
   <tile gid="786"/>
   <tile gid="786"/>
   <tile gid="786"/>
   <tile gid="786"/>
   <tile gid="786"/>
   <tile gid="786"/>
   <tile gid="786"/>
   <tile gid="786"/>
   <tile gid="786"/>
   <tile gid="786"/>
   <tile gid="786"/>
   <tile gid="786"/>
   <tile gid="786"/>
   <tile gid="786"/>
   <tile gid="786"/>
   <tile gid="786"/>
   <tile gid="786"/>
   <tile gid="786"/>
   <tile gid="786"/>
   <tile gid="786"/>
   <tile gid="786"/>
   <tile gid="786"/>
   <tile gid="786"/>
   <tile gid="786"/>
   <tile gid="786"/>
   <tile gid="786"/>
   <tile gid="786"/>
   <tile gid="786"/>
   <tile gid="786"/>
   <tile gid="786"/>
   <tile gid="786"/>
   <tile gid="786"/>
   <tile gid="786"/>
   <tile gid="786"/>
  </data>
 </layer>
 <objectgroup id="4" name="spawner">
  <properties>
   <property name="type" type="int" value="0"/>
  </properties>
  <object id="1" x="56" y="69" width="48" height="48">
   <properties>
    <property name="type" type="int" value="1"/>
   </properties>
  </object>
  <object id="4" x="538" y="69" width="48" height="48">
   <properties>
    <property name="type" type="int" value="1"/>
   </properties>
  </object>
  <object id="5" x="54" y="375" width="48" height="48">
   <properties>
    <property name="type" type="int" value="1"/>
   </properties>
  </object>
  <object id="6" x="538" y="376" width="48" height="48">
   <properties>
    <property name="type" type="int" value="1"/>
   </properties>
  </object>
  <object id="7" x="293" y="224" width="48" height="48">
   <properties>
    <property name="type" type="int" value="0"/>
   </properties>
  </object>
 </objectgroup>
</map>
